; generated by Slic3r 1.2.9 on 2015-07-02 at 14:43:42

; external perimeters extrusion width = 0.50mm
; perimeters extrusion width = 0.50mm
; infill extrusion width = 0.50mm
; solid infill extrusion width = 0.50mm
; top infill extrusion width = 0.50mm

M107
M190 S57 ; set bed temperature
G28 ; home all axes
M83;
G10 P0 S195 R160                       ; Set tool 0 operating and standby temperatures
T0

G21 ; set units to millimeters
G90 ; use absolute coordinates
M83 ; use relative distances for extrusion
G1 E-3.50000 F2400.00000
G1 Z0.300 F9000.000
G1 X82.123 Y69.338 F9000.000
G1 E3.50000 F2400.00000
G1 X82.504 Y68.892 E0.05379 F1200.000
G1 X82.811 Y68.587 E0.03975
G1 X83.250 Y68.227 E0.05204
G1 X83.526 Y68.034 E0.03092
G1 X84.100 Y67.701 E0.06084
G1 X84.527 Y67.505 E0.04316
G1 X85.028 Y67.332 E0.04863
G1 X85.354 Y67.244 E0.03092
G1 X86.007 Y67.129 E0.06084
G1 X86.417 Y67.093 E0.03781
G1 X112.627 Y67.084 E2.40475
G1 X112.952 Y67.099 E0.02990
G1 X113.318 Y67.131 E0.03368 F1200.000
G1 X113.941 Y67.242 E0.05809
G1 X114.306 Y67.340 E0.03460
G1 X114.890 Y67.555 E0.05717
G1 X115.248 Y67.723 E0.03629
G1 X115.770 Y68.028 E0.05549
G1 X116.109 Y68.267 E0.03798
G1 X116.555 Y68.647 E0.05380
G1 X116.860 Y68.954 E0.03970
G1 X117.220 Y69.393 E0.05208
G1 X117.478 Y69.764 E0.04143
G1 X117.745 Y70.243 E0.05036
G1 X117.942 Y70.670 E0.04309
G1 X118.115 Y71.171 E0.04871
G1 X118.239 Y71.644 E0.04479
G1 X118.318 Y72.150 E0.04700
G1 X118.362 Y72.756 E0.05573
G1 X119.058 Y113.115 E3.70359
G1 X119.059 Y127.180 E1.29042
G1 X119.029 Y127.731 E0.05064
G1 X118.953 Y128.259 E0.04889
G1 X118.892 Y128.537 E0.02619
G1 X118.742 Y129.049 E0.04890
G1 X118.643 Y129.316 E0.02618
G1 X118.421 Y129.801 E0.04890
G1 X118.284 Y130.052 E0.02618
G1 X117.996 Y130.500 E0.04889
G1 X117.825 Y130.728 E0.02620
G1 X117.476 Y131.131 E0.04890
G1 X117.274 Y131.333 E0.02618
G1 X116.872 Y131.682 E0.04890
G1 X116.643 Y131.853 E0.02618
G1 X116.195 Y132.141 E0.04890
G1 X115.944 Y132.278 E0.02618
G1 X115.460 Y132.499 E0.04890
G1 X115.192 Y132.599 E0.02618
G1 X114.681 Y132.749 E0.04891
G1 X114.402 Y132.810 E0.02618
G1 X113.875 Y132.886 E0.04885
G1 X113.323 Y132.916 E0.05069
G1 X87.373 Y132.916 E2.38093
G1 X86.822 Y132.886 E0.05064
G1 X86.295 Y132.810 E0.04890
G1 X86.016 Y132.749 E0.02618
G1 X85.504 Y132.599 E0.04891
G1 X85.237 Y132.499 E0.02618
G1 X84.752 Y132.278 E0.04890
G1 X84.502 Y132.141 E0.02618
G1 X84.054 Y131.853 E0.04887
G1 X83.825 Y131.682 E0.02621
G1 X83.422 Y131.333 E0.04888
G1 X83.220 Y131.131 E0.02621
G1 X82.871 Y130.728 E0.04889
G1 X82.700 Y130.500 E0.02620
G1 X82.412 Y130.052 E0.04890
G1 X82.275 Y129.801 E0.02618
G1 X82.054 Y129.316 E0.04889
G1 X81.954 Y129.049 E0.02620
G1 X81.804 Y128.538 E0.04886
G1 X81.743 Y128.259 E0.02622
G1 X81.667 Y127.732 E0.04885
G1 X81.638 Y127.243 E0.04492
G1 X80.941 Y85.876 E3.79601
G1 X80.941 Y72.820 E1.19785
G1 X80.955 Y72.494 E0.02990
G1 X80.987 Y72.129 E0.03368
G1 X81.099 Y71.506 E0.05808
G1 X81.197 Y71.141 E0.03462
G1 X81.412 Y70.557 E0.05715
G1 X81.580 Y70.198 E0.03629
G1 X81.885 Y69.677 E0.05549
G1 X82.080 Y69.399 E0.03111
G1 E-3.50000 F2400.00000
G1 X113.789 Y127.905 F9000.000
G1 E3.50000 F2400.00000
G1 X113.566 Y128.007 E0.02250 F900.000
G1 X113.283 Y128.044 E0.02622
G1 X87.414 Y128.044 E2.37348
G1 X87.130 Y128.007 E0.02622
G1 X86.910 Y127.906 E0.02223
G1 X86.722 Y127.744 E0.02276
G1 X86.648 Y127.646 E0.01128
G1 X86.547 Y127.423 E0.02250
G1 X86.509 Y127.139 E0.02622
G1 X86.509 Y126.816 E0.02971
G1 X108.379 Y126.816 E2.00660
G1 X108.741 Y126.780 E0.03337
G1 X109.143 Y126.658 E0.03851
G1 X109.513 Y126.460 E0.03851
G1 X109.828 Y126.201 E0.03746
G1 X110.102 Y125.873 E0.03917
G1 X110.301 Y125.499 E0.03888
G1 X110.423 Y125.098 E0.03851
G1 X110.459 Y124.736 E0.03337
G1 X110.459 Y124.124 E0.05611
G1 X110.423 Y123.762 E0.03337
G1 X110.301 Y123.361 E0.03851
G1 X110.103 Y122.990 E0.03851
G1 X109.837 Y122.666 E0.03851
G1 X109.510 Y122.397 E0.03888
G1 X109.132 Y122.198 E0.03917
G1 X108.741 Y122.080 E0.03746
G1 X108.379 Y122.044 E0.03337
G1 X86.509 Y122.044 E2.00660
G1 X86.509 Y119.744 E0.21101
G1 X86.935 Y119.990 E0.04511
G1 X87.369 Y120.155 E0.04266
G1 X87.825 Y120.248 E0.04266
G1 X88.290 Y120.267 E0.04266
G1 X88.751 Y120.211 E0.04266
G1 X89.198 Y120.081 E0.04266
G1 X89.618 Y119.882 E0.04266
G1 X90.001 Y119.618 E0.04266
G1 X90.336 Y119.296 E0.04266
G1 X90.615 Y118.924 E0.04266
G1 X90.831 Y118.512 E0.04266
G1 X90.979 Y118.071 E0.04266
G1 X91.053 Y117.612 E0.04266
G1 X91.053 Y117.147 E0.04266
G1 X90.979 Y116.688 E0.04266
G1 X90.831 Y116.247 E0.04266
G1 X90.622 Y115.848 E0.04139
G1 X90.338 Y115.466 E0.04362
G1 X90.001 Y115.142 E0.04297
G1 X89.618 Y114.878 E0.04266
G1 X89.198 Y114.678 E0.04266
G1 X88.751 Y114.549 E0.04266
G1 X88.290 Y114.493 E0.04266
G1 X87.839 Y114.511 E0.04139
G1 X87.372 Y114.604 E0.04362
G1 X86.935 Y114.770 E0.04297
G1 X86.509 Y115.015 E0.04511
G1 X86.509 Y113.221 E0.16463
G1 X86.547 Y112.935 E0.02653
G1 X86.651 Y112.711 E0.02260
G1 X86.806 Y112.531 E0.02179
G1 X86.906 Y112.456 E0.01145
G1 X87.012 Y112.398 E0.01110
G1 X87.248 Y112.328 E0.02263
G1 X90.474 Y112.316 E0.29595
G1 X90.739 Y112.349 E0.02453
G1 X90.946 Y112.436 E0.02055
G1 X91.123 Y112.575 E0.02068
G1 X91.663 Y113.243 E0.07882
G1 X92.150 Y113.782 E0.06666
G1 X92.675 Y114.292 E0.06716
G1 X93.231 Y114.768 E0.06716
G1 X93.817 Y115.207 E0.06716
G1 X94.430 Y115.607 E0.06716
G1 X95.067 Y115.967 E0.06716
G1 X95.727 Y116.286 E0.06716
G1 X96.405 Y116.561 E0.06716
G1 X97.099 Y116.793 E0.06716
G1 X97.807 Y116.979 E0.06716
G1 X98.526 Y117.119 E0.06716
G1 X99.252 Y117.213 E0.06716
G1 X99.982 Y117.260 E0.06716
G1 X100.714 Y117.260 E0.06717
G1 X101.445 Y117.213 E0.06716
G1 X102.171 Y117.119 E0.06716
G1 X102.889 Y116.979 E0.06716
G1 X103.597 Y116.793 E0.06716
G1 X104.292 Y116.561 E0.06716
G1 X104.970 Y116.286 E0.06716
G1 X105.629 Y115.967 E0.06716
G1 X106.266 Y115.607 E0.06716
G1 X106.879 Y115.207 E0.06716
G1 X107.465 Y114.768 E0.06716
G1 X108.021 Y114.292 E0.06716
G1 X108.546 Y113.782 E0.06716
G1 X109.033 Y113.243 E0.06663
G1 X109.579 Y112.569 E0.07961
G1 X109.751 Y112.436 E0.01992
G1 X109.847 Y112.387 E0.00986
G1 X110.070 Y112.326 E0.02125
G1 X110.223 Y112.316 E0.01402
G1 X113.285 Y112.316 E0.28093
G1 X113.567 Y112.354 E0.02619
G1 X113.791 Y112.456 E0.02253
G1 X113.890 Y112.531 E0.01145
G1 X114.047 Y112.713 E0.02197
G1 X114.105 Y112.819 E0.01110
G1 X114.176 Y113.055 E0.02262
G1 X114.188 Y114.982 E0.17681
G1 X113.548 Y114.678 E0.06497
G1 X113.101 Y114.549 E0.04266
G1 X112.640 Y114.493 E0.04266
G1 X112.189 Y114.511 E0.04139
G1 X111.722 Y114.604 E0.04362
G1 X111.285 Y114.770 E0.04297
G1 X110.882 Y115.002 E0.04266
G1 X110.522 Y115.296 E0.04266
G1 X110.213 Y115.644 E0.04266
G1 X109.965 Y116.037 E0.04266
G1 X109.783 Y116.465 E0.04266
G1 X109.675 Y116.903 E0.04139
G1 X109.634 Y117.377 E0.04362
G1 X109.671 Y117.843 E0.04297
G1 X109.783 Y118.295 E0.04266
G1 X109.965 Y118.723 E0.04266
G1 X110.213 Y119.116 E0.04266
G1 X110.522 Y119.464 E0.04266
G1 X110.882 Y119.758 E0.04266
G1 X111.285 Y119.990 E0.04266
G1 X111.719 Y120.155 E0.04266
G1 X112.161 Y120.245 E0.04139
G1 X112.636 Y120.267 E0.04362
G1 X113.101 Y120.211 E0.04297
G1 X113.548 Y120.081 E0.04266
G1 X114.188 Y119.778 E0.06497
G1 X114.188 Y127.139 E0.67542
G1 X114.176 Y127.303 E0.01501
G1 X114.107 Y127.538 E0.02250
G1 X113.974 Y127.744 E0.02250
G1 X113.849 Y127.860 E0.01564
G1 X114.188 Y128.525 F9000.000
G1 X113.987 Y128.634 E0.02093 F900.000
G1 X113.774 Y128.714 E0.02093
G1 X113.551 Y128.763 E0.02093
G1 X113.309 Y128.780 E0.02225
G1 X87.387 Y128.780 E2.37830
G1 X87.146 Y128.763 E0.02225
G1 X86.923 Y128.714 E0.02093
G1 X86.709 Y128.634 E0.02093
G1 X86.510 Y128.526 E0.02084
G1 X86.319 Y128.382 E0.02190
G1 X86.165 Y128.227 E0.02004
G1 X86.028 Y128.044 E0.02093
G1 X85.919 Y127.844 E0.02093
G1 X85.839 Y127.630 E0.02093
G1 X85.790 Y127.407 E0.02093
G1 X85.773 Y126.700 E0.06497
G1 X85.821 Y126.451 E0.02321
G1 X85.950 Y126.257 E0.02141
G1 X86.144 Y126.127 E0.02141
G1 X86.257 Y126.093 E0.01076
G1 X86.393 Y126.080 E0.01257
G1 X108.343 Y126.080 E2.01392
G1 X108.597 Y126.055 E0.02340
G1 X108.860 Y125.975 E0.02522
G1 X109.102 Y125.846 E0.02522
G1 X109.308 Y125.677 E0.02441
G1 X109.488 Y125.460 E0.02588
G1 X109.618 Y125.216 E0.02535
G1 X109.698 Y124.953 E0.02522
G1 X109.723 Y124.700 E0.02340
G1 X109.723 Y124.160 E0.04948
G1 X109.698 Y123.906 E0.02340
G1 X109.618 Y123.643 E0.02522
G1 X109.489 Y123.401 E0.02522
G1 X109.315 Y123.189 E0.02522
G1 X109.101 Y123.013 E0.02535
G1 X108.851 Y122.882 E0.02588
G1 X108.597 Y122.805 E0.02441
G1 X108.343 Y122.780 E0.02340
G1 X86.394 Y122.780 E2.01380
G1 X86.145 Y122.733 E0.02325
G1 X86.041 Y122.677 E0.01081
G1 X85.876 Y122.512 E0.02147
G1 X85.788 Y122.302 E0.02084
G1 X85.773 Y122.159 E0.01323
G1 X85.773 Y118.118 E0.37072
G1 X86.126 Y118.046 E0.03306
G1 X86.268 Y118.380 E0.03325
G1 X86.447 Y118.662 E0.03069
G1 X86.682 Y118.931 E0.03272
G1 X86.951 Y119.150 E0.03187
G1 X87.251 Y119.324 E0.03177
G1 X87.575 Y119.446 E0.03177
G1 X87.914 Y119.516 E0.03177
G1 X88.260 Y119.529 E0.03177
G1 X88.604 Y119.488 E0.03177
G1 X88.936 Y119.391 E0.03177
G1 X89.249 Y119.243 E0.03177
G1 X89.534 Y119.046 E0.03177
G1 X89.783 Y118.807 E0.03177
G1 X89.991 Y118.530 E0.03177
G1 X90.152 Y118.223 E0.03177
G1 X90.262 Y117.895 E0.03177
G1 X90.318 Y117.553 E0.03177
G1 X90.318 Y117.207 E0.03177
G1 X90.262 Y116.865 E0.03177
G1 X90.152 Y116.537 E0.03177
G1 X89.997 Y116.241 E0.03069
G1 X89.784 Y115.954 E0.03272
G1 X89.534 Y115.714 E0.03187
G1 X89.249 Y115.517 E0.03177
G1 X88.936 Y115.368 E0.03177
G1 X88.604 Y115.272 E0.03177
G1 X88.260 Y115.230 E0.03177
G1 X87.926 Y115.244 E0.03069
G1 X87.576 Y115.313 E0.03272
G1 X87.251 Y115.436 E0.03187
G1 X86.951 Y115.609 E0.03177
G1 X86.683 Y115.828 E0.03177
G1 X86.453 Y116.088 E0.03177
G1 X86.268 Y116.380 E0.03177
G1 X86.126 Y116.714 E0.03325
G1 X85.773 Y116.641 E0.03306
G1 X85.773 Y113.194 E0.31627
G1 X85.791 Y112.950 E0.02251
G1 X85.840 Y112.726 E0.02100
G1 X85.916 Y112.522 E0.02000
G1 X86.031 Y112.312 E0.02195
G1 X86.168 Y112.129 E0.02096
G1 X86.323 Y111.975 E0.02005
G1 X86.506 Y111.837 E0.02102
G1 X86.705 Y111.727 E0.02090
G1 X86.930 Y111.644 E0.02196
G1 X87.143 Y111.598 E0.02001
G1 X87.385 Y111.580 E0.02229
G1 X90.499 Y111.580 E0.28568
G1 X90.725 Y111.595 E0.02083
G1 X90.935 Y111.638 E0.01961
G1 X91.137 Y111.709 E0.01967
G1 X91.319 Y111.800 E0.01870
G1 X91.496 Y111.920 E0.01959
G1 X91.659 Y112.068 E0.02016
G1 X92.222 Y112.764 E0.08223
G1 X92.680 Y113.271 E0.06265
G1 X93.171 Y113.749 E0.06282
G1 X93.691 Y114.193 E0.06282
G1 X94.239 Y114.604 E0.06282
G1 X94.813 Y114.979 E0.06282
G1 X95.409 Y115.315 E0.06282
G1 X96.025 Y115.613 E0.06282
G1 X96.660 Y115.871 E0.06282
G1 X97.309 Y116.087 E0.06282
G1 X97.971 Y116.262 E0.06282
G1 X98.643 Y116.393 E0.06282
G1 X99.323 Y116.481 E0.06282
G1 X100.006 Y116.525 E0.06282
G1 X100.691 Y116.525 E0.06282
G1 X101.374 Y116.481 E0.06282
G1 X102.053 Y116.393 E0.06282
G1 X102.725 Y116.262 E0.06282
G1 X103.387 Y116.087 E0.06282
G1 X104.037 Y115.871 E0.06282
G1 X104.671 Y115.613 E0.06282
G1 X105.288 Y115.315 E0.06282
G1 X105.884 Y114.979 E0.06282
G1 X106.457 Y114.604 E0.06282
G1 X107.005 Y114.193 E0.06282
G1 X107.525 Y113.749 E0.06282
G1 X108.016 Y113.271 E0.06282
G1 X108.474 Y112.765 E0.06264
G1 X109.044 Y112.060 E0.08317
G1 X109.200 Y111.921 E0.01915
G1 X109.377 Y111.800 E0.01967
G1 X109.559 Y111.709 E0.01870
G1 X109.762 Y111.638 E0.01967
G1 X109.971 Y111.595 E0.01961
G1 X110.198 Y111.580 E0.02083
G1 X113.311 Y111.580 E0.28568
G1 X113.553 Y111.598 E0.02226
G1 X113.777 Y111.647 E0.02097
G1 X113.991 Y111.727 E0.02097
G1 X114.191 Y111.837 E0.02097
G1 X114.374 Y111.975 E0.02102
G1 X114.528 Y112.129 E0.02005
G1 X114.666 Y112.312 E0.02102
G1 X114.776 Y112.512 E0.02090
G1 X114.859 Y112.736 E0.02196
G1 X114.905 Y112.949 E0.02001
G1 X114.923 Y113.192 E0.02229
G1 X114.923 Y116.616 E0.31418
G1 X114.587 Y116.699 E0.03173
G1 X114.347 Y116.241 E0.04748
G1 X114.134 Y115.954 E0.03272
G1 X113.884 Y115.714 E0.03187
G1 X113.599 Y115.517 E0.03177
G1 X113.286 Y115.368 E0.03177
G1 X112.954 Y115.272 E0.03177
G1 X112.610 Y115.230 E0.03177
G1 X112.276 Y115.244 E0.03069
G1 X111.926 Y115.313 E0.03272
G1 X111.601 Y115.436 E0.03187
G1 X111.301 Y115.609 E0.03177
G1 X111.033 Y115.828 E0.03177
G1 X110.803 Y116.088 E0.03177
G1 X110.618 Y116.380 E0.03177
G1 X110.483 Y116.699 E0.03177
G1 X110.403 Y117.023 E0.03069
G1 X110.372 Y117.379 E0.03272
G1 X110.400 Y117.725 E0.03187
G1 X110.483 Y118.061 E0.03177
G1 X110.618 Y118.380 E0.03177
G1 X110.803 Y118.672 E0.03177
G1 X111.033 Y118.931 E0.03177
G1 X111.301 Y119.150 E0.03177
G1 X111.601 Y119.324 E0.03177
G1 X111.925 Y119.446 E0.03177
G1 X112.252 Y119.513 E0.03069
G1 X112.609 Y119.530 E0.03272
G1 X112.954 Y119.488 E0.03187
G1 X113.286 Y119.391 E0.03177
G1 X113.599 Y119.243 E0.03177
G1 X113.884 Y119.046 E0.03177
G1 X114.133 Y118.807 E0.03177
G1 X114.341 Y118.530 E0.03177
G1 X114.587 Y118.061 E0.04856
G1 X114.923 Y118.144 E0.03173
G1 X114.923 Y127.166 E0.82776
G1 X114.906 Y127.407 E0.02225
G1 X114.857 Y127.630 E0.02093
G1 X114.778 Y127.844 E0.02093
G1 X114.668 Y128.044 E0.02093
G1 X114.532 Y128.227 E0.02093
G1 X114.370 Y128.388 E0.02093
G1 X114.248 Y128.480 E0.01405
G1 X113.987 Y128.416 F9000.000
G1 X109.534 Y126.890 F9000.000
G1 X109.298 Y127.047 E0.02600 F600.000
G1 X108.783 Y127.323 E0.05365
G1 X108.780 Y127.317 F9000.000
G1 X108.520 Y127.424 E0.05390 F600.000
G1 X108.397 Y127.430 E0.02361
G1 X87.436 Y127.430 E4.01475
G1 X87.071 Y127.398 E0.07021
G1 E-3.50000 F2400.00000
G1 X86.877 Y121.060 F9000.000
G1 E3.50000 F2400.00000
G1 X87.759 Y121.145 E0.16981 F600.000
G1 X88.576 Y121.162 E0.15653
G1 X89.372 Y121.595 F9000.000
G1 X89.021 Y121.243 E0.04626 F900.000
G1 X89.303 Y120.471 E0.07647
G1 X90.427 Y121.595 E0.14782
G1 X91.482 Y121.595 E0.09809
G1 X89.986 Y120.100 E0.19670
G1 X90.557 Y119.616 E0.06960
G1 X92.536 Y121.595 E0.26027
G1 X93.591 Y121.595 E0.09809
G1 X91.012 Y119.017 E0.33915
G1 X91.337 Y118.286 E0.07431
G1 X94.645 Y121.595 E0.43520
G1 X95.700 Y121.595 E0.09809
G1 X91.502 Y117.398 E0.55212
G1 X91.345 Y116.185 E0.11370
G1 X96.754 Y121.595 E0.71157
G1 X97.809 Y121.595 E0.09809
G1 X88.979 Y112.765 E1.16149
G1 X90.033 Y112.765 E0.09808
G1 X98.864 Y121.595 E1.16149
G1 X99.918 Y121.595 E0.09809
G1 X94.709 Y116.386 E0.68519
G1 X96.507 Y117.129 F9000.000
G1 X100.973 Y121.595 E0.58739 F900.000
G1 X102.027 Y121.595 E0.09809
G1 X97.926 Y117.493 E0.53953
G1 X99.154 Y117.667 E0.11543
G1 X103.082 Y121.595 E0.51662
G1 X104.137 Y121.595 E0.09809
G1 X100.251 Y117.709 E0.51109
G1 X101.262 Y117.665 E0.09408
G1 X105.191 Y121.595 E0.51689
G1 X106.246 Y121.595 E0.09809
G1 X102.195 Y117.545 E0.53277
G1 X103.066 Y117.361 E0.08279
G1 X107.300 Y121.595 E0.55691
G1 X108.355 Y121.595 E0.09809
G1 X103.886 Y117.126 E0.58779
G1 X104.660 Y116.846 E0.07656
G1 X113.729 Y125.915 E1.19288
G1 X113.731 Y124.862 E0.09793
G1 X105.392 Y116.523 E1.09684
G1 X106.085 Y116.161 E0.07269
G1 X113.732 Y123.809 E1.00594
G1 X113.734 Y122.756 E0.09793
G1 X111.603 Y120.625 E0.28027
G1 X112.724 Y120.691 F9000.000
G1 X113.736 Y121.703 E0.13305 F900.000
G1 X110.908 Y124.148 F9000.000
G1 X113.727 Y126.968 E0.37085 F900.000
G1 X113.300 Y127.595 E0.07060
G1 X110.841 Y125.136 E0.32352
G1 X110.540 Y125.889 E0.07547
G1 X112.246 Y127.595 E0.22439
G1 X111.191 Y127.595 E0.09809
G1 X110.085 Y126.489 E0.14546
G1 X109.278 Y118.300 F9000.000
G1 X106.741 Y115.762 E0.33376 F900.000
G1 X107.362 Y115.329 E0.07044
G1 X109.213 Y117.180 E0.24349
G1 X109.409 Y116.321 E0.08192
G1 X107.949 Y114.861 E0.19202
G1 X108.503 Y114.361 E0.06945
G1 X109.765 Y115.623 E0.16607
G1 X110.235 Y115.039 E0.06976
