; generated by Slic3r 1.2.9 on 2015-07-02 at 15:56:50

; external perimeters extrusion width = 0.50mm
; perimeters extrusion width = 0.50mm
; infill extrusion width = 0.50mm
; solid infill extrusion width = 0.50mm
; top infill extrusion width = 0.50mm

M107
M190 S57 ; set bed temperature
G28 ; home all axes
M83;
G10 P0 S195 R160                       ; Set tool 0 operating and standby temperatures
T0

G21 ; set units to millimeters
G90 ; use absolute coordinates
M83 ; use relative distances for extrusion
G1 E-3.50000 F2400.00000
G1 Z0.300 F9000.000
G1 X65.138 Y67.631 F9000.000
G1 E3.50000 F2400.00000
G1 X65.637 Y67.213 E0.05975 F1200.000
G1 X65.923 Y67.013 E0.03204
G1 X66.486 Y66.687 E0.05968
G1 X66.803 Y66.540 E0.03202
G1 X67.414 Y66.317 E0.05971
G1 X67.751 Y66.227 E0.03201
G1 X68.392 Y66.114 E0.05972
G1 X69.058 Y66.069 E0.06120
G1 X117.743 Y65.974 E4.46688
G1 X118.170 Y65.974 E0.03919
G1 X118.691 Y66.011 E0.04796
G1 X119.108 Y66.069 E0.03857 F1200.000
G1 X119.618 Y66.178 E0.04792
G1 X120.022 Y66.294 E0.03854
G1 X120.513 Y66.474 E0.04795
G1 X120.896 Y66.645 E0.03852
G1 X121.357 Y66.891 E0.04796
G1 X121.713 Y67.114 E0.03854
G1 X122.135 Y67.422 E0.04795
G1 X122.651 Y67.868 E0.06254
G1 X126.944 Y72.036 E0.54900
G1 X127.183 Y72.274 E0.03092
G1 X127.564 Y72.720 E0.05380
G1 X127.802 Y73.059 E0.03798
G1 X128.107 Y73.580 E0.05547
G1 X128.275 Y73.939 E0.03630
G1 X136.240 Y91.257 E1.74895
G1 X136.425 Y91.776 E0.05058
G1 X136.526 Y92.168 E0.03716
G1 X136.626 Y92.737 E0.05301
G1 X136.671 Y93.426 E0.06327
G1 X136.671 Y106.481 E1.19785
G1 X136.626 Y107.151 E0.06163
G1 X136.547 Y107.657 E0.04699
G1 X136.423 Y108.130 E0.04481
G1 X136.250 Y108.631 E0.04870
G1 X136.054 Y109.058 E0.04310
G1 X135.786 Y109.537 E0.05036
G1 X135.528 Y109.908 E0.04144
G1 X135.168 Y110.347 E0.05206
G1 X134.863 Y110.654 E0.03972
G1 X134.417 Y111.035 E0.05384
G1 X133.887 Y111.398 E0.05889
G1 X98.373 Y133.158 E3.82147
G1 X97.961 Y133.388 E0.04329
G1 X97.477 Y133.610 E0.04890
G1 X97.209 Y133.710 E0.02618
G1 X96.698 Y133.860 E0.04891
G1 X96.419 Y133.920 E0.02620
G1 X95.891 Y133.996 E0.04888
G1 X95.340 Y134.026 E0.05064
G1 X69.390 Y134.026 E2.38093
G1 X68.839 Y133.996 E0.05064
G1 X68.312 Y133.920 E0.04890
G1 X68.033 Y133.860 E0.02618
G1 X67.521 Y133.710 E0.04891
G1 X67.254 Y133.610 E0.02621
G1 X66.769 Y133.388 E0.04887
G1 X66.519 Y133.252 E0.02618
G1 X66.070 Y132.963 E0.04890
G1 X65.842 Y132.792 E0.02618
G1 X65.439 Y132.443 E0.04890
G1 X65.237 Y132.242 E0.02618
G1 X64.888 Y131.839 E0.04890
G1 X64.717 Y131.610 E0.02618
G1 X64.429 Y131.162 E0.04890
G1 X64.292 Y130.912 E0.02618
G1 X64.071 Y130.427 E0.04890
G1 X63.971 Y130.159 E0.02618
G1 X63.821 Y129.648 E0.04890
G1 X63.760 Y129.369 E0.02622
G1 X63.685 Y128.842 E0.04886
G1 X63.655 Y128.318 E0.04808
G1 X63.330 Y84.889 E3.98482
G1 X63.329 Y71.805 E1.20042
G1 X63.374 Y71.132 E0.06190
G1 X63.487 Y70.491 E0.05971
G1 X63.577 Y70.154 E0.03202
G1 X63.800 Y69.542 E0.05971
G1 X63.948 Y69.226 E0.03202
G1 X64.273 Y68.662 E0.05971
G1 X64.473 Y68.376 E0.03203
G1 X64.891 Y67.878 E0.05966
G1 X65.085 Y67.685 E0.02514
G1 E-3.50000 F2400.00000
G1 X95.803 Y129.017 F9000.000
G1 E3.50000 F2400.00000
G1 X95.583 Y129.117 E0.02223 F900.000
G1 X95.300 Y129.155 E0.02622
G1 X69.431 Y129.155 E2.37348
G1 X69.148 Y129.117 E0.02622
G1 X68.924 Y129.015 E0.02250
G1 X68.739 Y128.855 E0.02250
G1 X68.607 Y128.648 E0.02250
G1 X68.538 Y128.413 E0.02250
G1 X68.526 Y128.250 E0.01501
G1 X68.526 Y120.888 E0.67542
G1 X69.166 Y121.192 E0.06498
G1 X69.612 Y121.321 E0.04266
G1 X70.074 Y121.377 E0.04266
G1 X70.539 Y121.359 E0.04266
G1 X70.994 Y121.266 E0.04266
G1 X71.429 Y121.101 E0.04266
G1 X71.832 Y120.868 E0.04266
G1 X72.192 Y120.574 E0.04266
G1 X72.500 Y120.226 E0.04266
G1 X72.749 Y119.833 E0.04266
G1 X72.931 Y119.405 E0.04266
G1 X73.042 Y118.954 E0.04266
G1 X73.080 Y118.490 E0.04266
G1 X73.042 Y118.027 E0.04266
G1 X72.931 Y117.575 E0.04266
G1 X72.749 Y117.148 E0.04266
G1 X72.500 Y116.755 E0.04266
G1 X72.192 Y116.407 E0.04266
G1 X71.832 Y116.113 E0.04266
G1 X71.429 Y115.880 E0.04266
G1 X70.994 Y115.715 E0.04266
G1 X70.535 Y115.622 E0.04297
G1 X70.060 Y115.605 E0.04362
G1 X69.612 Y115.660 E0.04139
G1 X69.166 Y115.789 E0.04266
G1 X68.526 Y116.092 E0.06498
G1 X68.526 Y114.332 E0.16156
G1 X68.562 Y114.054 E0.02568
G1 X68.667 Y113.823 E0.02326
G1 X68.742 Y113.723 E0.01145
G1 X68.923 Y113.567 E0.02197
G1 X69.146 Y113.464 E0.02253
G1 X69.266 Y113.438 E0.01130
G1 X72.491 Y113.426 E0.29585
G1 X72.756 Y113.459 E0.02453
G1 X72.963 Y113.546 E0.02055
G1 X73.140 Y113.685 E0.02068
G1 X73.680 Y114.353 E0.07882
G1 X74.167 Y114.892 E0.06666
G1 X74.692 Y115.403 E0.06716
G1 X75.248 Y115.878 E0.06716
G1 X75.834 Y116.317 E0.06716
G1 X76.447 Y116.718 E0.06716
G1 X77.084 Y117.078 E0.06716
G1 X77.744 Y117.396 E0.06716
G1 X78.422 Y117.672 E0.06716
G1 X79.116 Y117.903 E0.06716
G1 X79.824 Y118.089 E0.06716
G1 X80.543 Y118.230 E0.06716
G1 X81.269 Y118.324 E0.06716
G1 X81.999 Y118.371 E0.06716
G1 X82.731 Y118.371 E0.06717
G1 X83.462 Y118.324 E0.06716
G1 X84.188 Y118.230 E0.06716
G1 X84.906 Y118.089 E0.06716
G1 X85.614 Y117.903 E0.06716
G1 X86.309 Y117.672 E0.06716
G1 X86.987 Y117.396 E0.06716
G1 X87.646 Y117.078 E0.06716
G1 X88.283 Y116.718 E0.06716
G1 X88.896 Y116.317 E0.06716
G1 X89.482 Y115.878 E0.06716
G1 X90.038 Y115.403 E0.06717
G1 X90.563 Y114.892 E0.06716
G1 X91.050 Y114.354 E0.06663
G1 X91.596 Y113.679 E0.07961
G1 X91.768 Y113.546 E0.01992
G1 X91.864 Y113.498 E0.00986
G1 X92.087 Y113.436 E0.02125
G1 X92.240 Y113.426 E0.01402
G1 X95.302 Y113.426 E0.28093
G1 X95.584 Y113.464 E0.02619
G1 X95.808 Y113.567 E0.02253
G1 X95.907 Y113.642 E0.01145
G1 X96.064 Y113.823 E0.02197
G1 X96.122 Y113.929 E0.01110
G1 X96.193 Y114.165 E0.02262
G1 X96.205 Y116.126 E0.17987
G1 X95.779 Y115.880 E0.04510
G1 X95.344 Y115.715 E0.04266
G1 X94.885 Y115.622 E0.04297
G1 X94.410 Y115.605 E0.04362
G1 X93.962 Y115.660 E0.04139
G1 X93.516 Y115.789 E0.04266
G1 X93.096 Y115.988 E0.04266
G1 X92.713 Y116.252 E0.04266
G1 X92.378 Y116.574 E0.04266
G1 X92.098 Y116.946 E0.04266
G1 X91.882 Y117.358 E0.04266
G1 X91.735 Y117.799 E0.04266
G1 X91.660 Y118.258 E0.04266
G1 X91.660 Y118.723 E0.04266
G1 X91.735 Y119.182 E0.04266
G1 X91.882 Y119.623 E0.04266
G1 X92.098 Y120.035 E0.04266
G1 X92.378 Y120.406 E0.04266
G1 X92.713 Y120.729 E0.04266
G1 X93.096 Y120.993 E0.04266
G1 X93.516 Y121.192 E0.04266
G1 X93.962 Y121.321 E0.04266
G1 X94.424 Y121.377 E0.04266
G1 X94.889 Y121.359 E0.04266
G1 X95.344 Y121.266 E0.04266
G1 X95.779 Y121.101 E0.04266
G1 X96.205 Y120.855 E0.04510
G1 X96.205 Y123.155 E0.21101
G1 X74.334 Y123.155 E2.00660
G1 X73.973 Y123.190 E0.03337
G1 X73.571 Y123.312 E0.03851
G1 X73.201 Y123.510 E0.03851
G1 X72.876 Y123.776 E0.03851
G1 X72.610 Y124.101 E0.03851
G1 X72.412 Y124.471 E0.03851
G1 X72.290 Y124.873 E0.03851
G1 X72.255 Y125.235 E0.03337
G1 X72.255 Y125.846 E0.05611
G1 X72.290 Y126.208 E0.03337
G1 X72.412 Y126.610 E0.03851
G1 X72.610 Y126.980 E0.03851
G1 X72.876 Y127.304 E0.03851
G1 X73.201 Y127.571 E0.03851
G1 X73.571 Y127.769 E0.03851
G1 X73.973 Y127.890 E0.03851
G1 X74.334 Y127.926 E0.03337
G1 X96.205 Y127.926 E2.00660
G1 X96.205 Y128.250 E0.02971
G1 X96.167 Y128.533 E0.02622
G1 X96.063 Y128.759 E0.02276
G1 X95.991 Y128.855 E0.01101
G1 X95.863 Y128.971 E0.01590
G1 E-3.50000 F2400.00000
G1 X96.672 Y123.788 F9000.000
G1 E3.50000 F2400.00000
G1 X96.463 Y123.875 E0.02084 F900.000
G1 X96.319 Y123.890 E0.01323
G1 X74.371 Y123.890 E2.01380
G1 X74.117 Y123.915 E0.02340
G1 X73.854 Y123.995 E0.02522
G1 X73.611 Y124.125 E0.02522
G1 X73.399 Y124.299 E0.02522
G1 X73.225 Y124.512 E0.02522
G1 X73.095 Y124.754 E0.02522
G1 X73.015 Y125.017 E0.02522
G1 X72.990 Y125.271 E0.02340
G1 X72.990 Y125.810 E0.04948
G1 X73.015 Y126.064 E0.02340
G1 X73.095 Y126.327 E0.02522
G1 X73.225 Y126.569 E0.02522
G1 X73.399 Y126.782 E0.02522
G1 X73.611 Y126.956 E0.02522
G1 X73.854 Y127.086 E0.02522
G1 X74.117 Y127.165 E0.02522
G1 X74.371 Y127.190 E0.02340
G1 X96.321 Y127.190 E2.01392
G1 X96.457 Y127.204 E0.01257
G1 X96.569 Y127.238 E0.01076
G1 X96.763 Y127.368 E0.02141
G1 X96.838 Y127.458 E0.01076
G1 X96.927 Y127.674 E0.02141
G1 X96.940 Y128.276 E0.05528
G1 X96.923 Y128.518 E0.02225
G1 X96.874 Y128.741 E0.02093
G1 X96.798 Y128.946 E0.02005
G1 X96.685 Y129.156 E0.02190
G1 X96.549 Y129.338 E0.02084
G1 X96.394 Y129.492 E0.02004
G1 X96.204 Y129.636 E0.02190
G1 X96.004 Y129.745 E0.02084
G1 X95.791 Y129.825 E0.02093
G1 X95.568 Y129.873 E0.02093
G1 X95.326 Y129.890 E0.02225
G1 X69.405 Y129.890 E2.37830
G1 X69.163 Y129.873 E0.02225
G1 X68.940 Y129.825 E0.02093
G1 X68.726 Y129.745 E0.02093
G1 X68.526 Y129.636 E0.02093
G1 X68.343 Y129.499 E0.02093
G1 X68.182 Y129.338 E0.02093
G1 X68.045 Y129.155 E0.02093
G1 X67.936 Y128.955 E0.02093
G1 X67.856 Y128.741 E0.02093
G1 X67.808 Y128.518 E0.02093
G1 X67.790 Y128.276 E0.02225
G1 X67.790 Y119.254 E0.82776
G1 X68.126 Y119.172 E0.03173
G1 X68.372 Y119.640 E0.04857
G1 X68.580 Y119.917 E0.03177
G1 X68.830 Y120.157 E0.03177
G1 X69.115 Y120.354 E0.03177
G1 X69.427 Y120.502 E0.03177
G1 X69.760 Y120.598 E0.03177
G1 X70.104 Y120.640 E0.03177
G1 X70.450 Y120.626 E0.03177
G1 X70.789 Y120.557 E0.03177
G1 X71.112 Y120.434 E0.03177
G1 X71.412 Y120.261 E0.03177
G1 X71.681 Y120.042 E0.03177
G1 X71.910 Y119.783 E0.03177
G1 X72.095 Y119.490 E0.03177
G1 X72.231 Y119.172 E0.03177
G1 X72.314 Y118.836 E0.03177
G1 X72.342 Y118.490 E0.03177
G1 X72.314 Y118.145 E0.03177
G1 X72.231 Y117.809 E0.03177
G1 X72.095 Y117.491 E0.03177
G1 X71.910 Y117.198 E0.03177
G1 X71.681 Y116.939 E0.03177
G1 X71.412 Y116.720 E0.03177
G1 X71.112 Y116.547 E0.03177
G1 X70.789 Y116.424 E0.03177
G1 X70.448 Y116.355 E0.03187
G1 X70.092 Y116.342 E0.03272
G1 X69.760 Y116.383 E0.03069
G1 X69.427 Y116.479 E0.03177
G1 X69.115 Y116.627 E0.03177
G1 X68.830 Y116.824 E0.03177
G1 X68.580 Y117.064 E0.03177
G1 X68.372 Y117.341 E0.03177
G1 X68.126 Y117.809 E0.04857
G1 X67.790 Y117.727 E0.03173
G1 X67.790 Y114.305 E0.31394
G1 X67.808 Y114.060 E0.02255
G1 X67.854 Y113.847 E0.02000
G1 X67.938 Y113.622 E0.02196
G1 X68.047 Y113.423 E0.02090
G1 X68.185 Y113.240 E0.02102
G1 X68.340 Y113.085 E0.02005
G1 X68.523 Y112.947 E0.02102
G1 X68.723 Y112.837 E0.02097
G1 X68.937 Y112.757 E0.02097
G1 X69.160 Y112.708 E0.02097
G1 X69.402 Y112.690 E0.02226
G1 X72.516 Y112.690 E0.28568
G1 X72.742 Y112.706 E0.02083
G1 X72.952 Y112.749 E0.01961
G1 X73.154 Y112.819 E0.01967
G1 X73.336 Y112.911 E0.01870
G1 X73.513 Y113.031 E0.01959
G1 X73.676 Y113.178 E0.02016
G1 X74.239 Y113.875 E0.08223
G1 X74.697 Y114.382 E0.06265
G1 X75.188 Y114.859 E0.06282
G1 X75.708 Y115.304 E0.06282
G1 X76.256 Y115.715 E0.06282
G1 X76.830 Y116.089 E0.06282
G1 X77.426 Y116.426 E0.06282
G1 X78.042 Y116.724 E0.06282
G1 X78.677 Y116.982 E0.06282
G1 X79.326 Y117.198 E0.06282
G1 X79.989 Y117.372 E0.06282
G1 X80.661 Y117.503 E0.06282
G1 X81.340 Y117.591 E0.06282
G1 X82.023 Y117.635 E0.06282
G1 X82.708 Y117.635 E0.06282
G1 X83.391 Y117.591 E0.06282
G1 X84.070 Y117.503 E0.06282
G1 X84.742 Y117.372 E0.06282
G1 X85.404 Y117.198 E0.06282
G1 X86.054 Y116.982 E0.06282
G1 X86.688 Y116.724 E0.06282
G1 X87.305 Y116.426 E0.06282
G1 X87.901 Y116.089 E0.06282
G1 X88.474 Y115.715 E0.06282
G1 X89.022 Y115.304 E0.06282
G1 X89.542 Y114.859 E0.06282
G1 X90.033 Y114.382 E0.06282
G1 X90.491 Y113.875 E0.06264
G1 X91.062 Y113.171 E0.08317
G1 X91.217 Y113.031 E0.01915
G1 X91.394 Y112.911 E0.01967
G1 X91.576 Y112.819 E0.01870
G1 X91.779 Y112.749 E0.01967
G1 X91.988 Y112.706 E0.01961
G1 X92.215 Y112.690 E0.02083
G1 X95.328 Y112.690 E0.28568
G1 X95.570 Y112.708 E0.02226
G1 X95.794 Y112.757 E0.02097
G1 X96.008 Y112.837 E0.02097
G1 X96.208 Y112.947 E0.02097
G1 X96.391 Y113.085 E0.02102
G1 X96.545 Y113.240 E0.02005
G1 X96.683 Y113.423 E0.02102
G1 X96.793 Y113.622 E0.02090
G1 X96.876 Y113.847 E0.02196
G1 X96.922 Y114.060 E0.02001
G1 X96.940 Y114.302 E0.02229
G1 X96.940 Y117.752 E0.31651
G1 X96.587 Y117.824 E0.03306
G1 X96.445 Y117.491 E0.03324
G1 X96.260 Y117.198 E0.03177
G1 X96.030 Y116.939 E0.03177
G1 X95.762 Y116.720 E0.03177
G1 X95.462 Y116.547 E0.03177
G1 X95.139 Y116.424 E0.03177
G1 X94.798 Y116.355 E0.03187
G1 X94.442 Y116.342 E0.03272
G1 X94.110 Y116.383 E0.03069
G1 X93.777 Y116.479 E0.03177
G1 X93.465 Y116.627 E0.03177
G1 X93.180 Y116.824 E0.03177
G1 X92.930 Y117.064 E0.03177
G1 X92.722 Y117.341 E0.03177
G1 X92.561 Y117.647 E0.03177
G1 X92.451 Y117.976 E0.03177
G1 X92.396 Y118.317 E0.03177
G1 X92.396 Y118.664 E0.03177
G1 X92.451 Y119.005 E0.03177
G1 X92.561 Y119.334 E0.03177
G1 X92.722 Y119.640 E0.03177
G1 X92.930 Y119.917 E0.03177
G1 X93.180 Y120.157 E0.03177
G1 X93.465 Y120.354 E0.03177
G1 X93.777 Y120.502 E0.03177
G1 X94.110 Y120.598 E0.03177
G1 X94.454 Y120.640 E0.03177
G1 X94.800 Y120.626 E0.03177
G1 X95.139 Y120.557 E0.03177
G1 X95.462 Y120.434 E0.03177
G1 X95.762 Y120.261 E0.03177
G1 X96.030 Y120.042 E0.03177
G1 X96.260 Y119.783 E0.03177
G1 X96.445 Y119.490 E0.03177
G1 X96.587 Y119.157 E0.03324
G1 X96.940 Y119.229 E0.03306
G1 X96.940 Y123.269 E0.37072
G1 X96.893 Y123.518 E0.02325
G1 X96.838 Y123.622 E0.01081
G1 X96.730 Y123.740 E0.01464
G1 X96.475 Y123.675 F9000.000
G1 X95.837 Y122.170 F9000.000
G1 X94.954 Y122.256 E0.16981 F600.000
G1 X94.137 Y122.272 E0.15653
G1 E-3.50000 F2400.00000
G1 X95.643 Y128.508 F9000.000
G1 E3.50000 F2400.00000
G1 X95.278 Y128.540 E0.07021 F600.000
G1 X74.316 Y128.540 E4.01475
G1 X74.193 Y128.535 E0.02362
G1 X73.933 Y128.427 E0.05390
G1 X73.931 Y128.433 F9000.000
G1 X73.415 Y128.158 E0.05365 F600.000
G1 X73.179 Y128.001 E0.02600
G1 X69.447 Y128.673 F9000.000
G1 X69.007 Y128.233 E0.05711 F900.000
G1 X68.975 Y127.160 E0.09860
G1 X70.512 Y128.697 E0.19955
G1 X71.556 Y128.700 E0.09585
G1 X68.975 Y126.119 E0.33510
G1 X68.975 Y125.078 E0.09559
G1 X72.386 Y128.488 E0.44285
G1 X72.086 Y127.148 E0.12613
G1 X68.975 Y124.037 E0.40395
G1 X68.975 Y122.996 E0.09559
G1 X71.805 Y125.826 E0.36752
G1 X71.869 Y124.848 E0.08997
G1 X68.975 Y121.955 E0.37572
G1 X69.889 Y121.828 E0.08473
G1 X72.163 Y124.101 E0.29525
G1 X72.604 Y123.501 E0.06838
G1 X70.831 Y121.729 E0.23015
G1 X71.599 Y121.455 E0.07482
G1 X73.205 Y123.061 E0.20851
G1 X73.952 Y122.768 E0.07373
G1 X72.228 Y121.043 E0.22394
G1 X72.750 Y120.524 E0.06759
G1 X74.931 Y122.706 E0.28323
G1 X75.972 Y122.706 E0.09559
G1 X73.159 Y119.892 E0.36534
G1 X73.430 Y119.122 E0.07497
G1 X77.014 Y122.706 E0.46537
G1 X78.055 Y122.706 E0.09559
G1 X73.517 Y118.168 E0.58917
G1 X73.153 Y116.763 E0.13331
G1 X79.096 Y122.706 E0.77166
G1 X80.137 Y122.706 E0.09559
G1 X71.306 Y113.875 E1.14661
G1 X72.355 Y113.883 E0.09626
G1 X81.178 Y122.706 E1.14566
G1 X82.219 Y122.706 E0.09559
G1 X77.275 Y117.762 E0.64197
G1 X78.916 Y118.361 F9000.000
G1 X83.260 Y122.706 E0.56409 F900.000
G1 X84.301 Y122.706 E0.09559
G1 X80.262 Y118.666 E0.52453
G1 X81.431 Y118.795 E0.10805
G1 X85.342 Y122.706 E0.50783
G1 X86.383 Y122.706 E0.09559
G1 X82.498 Y118.820 E0.50455
G1 X83.475 Y118.756 E0.08992
G1 X87.424 Y122.706 E0.51284
G1 X88.465 Y122.706 E0.09559
G1 X84.382 Y118.622 E0.53024
G1 X85.233 Y118.432 E0.08008
G1 X89.507 Y122.706 E0.55489
G1 X90.548 Y122.706 E0.09559
G1 X86.035 Y118.193 E0.58595
G1 X88.188 Y117.223 F9000.000
G1 X93.662 Y122.697 E0.71080 F900.000
G1 X92.630 Y122.706 E0.09478
G1 X87.509 Y117.585 E0.66491
G1 X86.792 Y117.909 E0.07223
G1 X91.589 Y122.706 E0.62279
G1 X91.265 Y119.259 F9000.000
G1 X88.831 Y116.825 E0.31601 F900.000
G1 X89.440 Y116.393 E0.06857
G1 X91.239 Y118.192 E0.23358
G1 X91.451 Y117.362 E0.07861
G1 X90.017 Y115.928 E0.18621
G1 X90.561 Y115.431 E0.06766
G1 X91.812 Y116.683 E0.16252
G1 X92.293 Y116.122 E0.06779
G1 X91.073 Y114.902 E0.15843
