; generated by Slic3r 1.1.7 on 2015-06-19 at 10:06:05

; perimeters extrusion width = 0.50mm
; infill extrusion width = 0.50mm
; solid infill extrusion width = 0.50mm
; top infill extrusion width = 0.50mm

G21 ; set units to millimeters
M107
M190 S57 ; wait for bed temperature to be reached
G28 ; home all axes
M83;
G10 P0 S195 R160                       ; Set tool 0 operating and standby temperatures
T0

G90 ; use absolute coordinates
M83 ; use relative distances for extrusion
G1 F2400.000 E-3.50000
G1 Z0.300 F9000.000
G1 X77.826 Y78.073 F9000.000
G1 E3.50000 F2400.000
G1 X78.572 Y77.408 E0.09165 F1200.000
G1 X79.421 Y76.882 E0.09166
G1 X79.730 Y76.738 E0.03125
G1 X80.349 Y76.512 E0.06047
G1 X81.327 Y76.309 E0.09165
G1 X82.000 Y76.264 E0.06187
G1 X118.326 Y76.279 E3.33289
G1 X119.314 Y76.422 E0.09165 F1200.000
G1 X120.263 Y76.735 E0.09164
G1 X121.143 Y77.208 E0.09166
G1 X121.422 Y77.403 E0.03123
G1 X121.933 Y77.833 E0.06129
G1 X122.592 Y78.572 E0.09085
G1 X123.118 Y79.421 E0.09165
G1 X123.488 Y80.349 E0.09166
G1 X123.691 Y81.327 E0.09165
G1 X123.736 Y82.000 E0.06187
G1 X123.721 Y118.326 E3.33289
G1 X123.692 Y118.665 E0.03123
G1 X123.578 Y119.314 E0.06049
G1 X123.490 Y119.643 E0.03121
G1 X123.265 Y120.263 E0.06052
G1 X123.121 Y120.571 E0.03119
G1 X122.792 Y121.143 E0.06053
G1 X122.597 Y121.421 E0.03121
G1 X122.174 Y121.927 E0.06052
G1 X121.428 Y122.592 E0.09165
G1 X120.579 Y123.118 E0.09164
G1 X119.651 Y123.488 E0.09166
G1 X119.322 Y123.576 E0.03120
G1 X118.673 Y123.691 E0.06053
G1 X118.334 Y123.721 E0.03122
G1 X118.000 Y123.736 E0.03067
G1 X81.674 Y123.721 E3.33289
G1 X80.686 Y123.578 E0.09165
G1 X80.357 Y123.490 E0.03125
G1 X79.737 Y123.265 E0.06048
G1 X79.428 Y123.121 E0.03128
G1 X78.857 Y122.792 E0.06044
G1 X78.578 Y122.596 E0.03131
G1 X78.073 Y122.174 E0.06042
G1 X77.408 Y121.428 E0.09165
G1 X76.882 Y120.579 E0.09165
G1 X76.738 Y120.269 E0.03133
G1 X76.512 Y119.651 E0.06040
G1 X76.309 Y118.673 E0.09165
G1 X76.264 Y118.000 E0.06187
G1 X76.279 Y81.674 E3.33289
G1 X76.422 Y80.686 E0.09165
G1 X76.735 Y79.737 E0.09165
G1 X77.208 Y78.857 E0.09165
G1 X77.403 Y78.578 E0.03127
G1 X77.778 Y78.130 E0.05359
G1 F2400.000 E-3.50000
G1 X91.192 Y96.346 F9000.000
G1 E3.50000 F2400.000
G1 X90.730 Y96.704 E0.05366 F900.000
G1 X90.204 Y96.961 E0.05368
G1 X89.638 Y97.108 E0.05368
G1 X89.053 Y97.138 E0.05369
G1 X88.475 Y97.049 E0.05367
G1 X87.926 Y96.846 E0.05370
G1 X87.430 Y96.536 E0.05367
G1 X87.006 Y96.133 E0.05367
G1 X86.672 Y95.653 E0.05368
G1 X86.441 Y95.116 E0.05367
G1 X86.323 Y94.543 E0.05367
G1 X86.323 Y93.957 E0.05369
G1 X86.441 Y93.384 E0.05369
G1 X86.619 Y92.969 E0.04145
G1 X86.672 Y92.847 E0.01222
G1 X87.006 Y92.367 E0.05368
G1 X87.430 Y91.964 E0.05367
G1 X87.927 Y91.654 E0.05368
G1 X88.475 Y91.451 E0.05367
G1 X89.054 Y91.362 E0.05370
G1 X89.505 Y91.385 E0.04145
G1 X89.638 Y91.392 E0.01222 F900.000
G1 X90.204 Y91.539 E0.05369
G1 X90.730 Y91.796 E0.05367
G1 X91.192 Y92.154 E0.05368
G1 X91.573 Y92.598 E0.05366
G1 X91.857 Y93.110 E0.05369
G1 X92.032 Y93.668 E0.05369
G1 X92.078 Y94.118 E0.04144
G1 X92.091 Y94.250 E0.01222
G1 X92.032 Y94.832 E0.05368
G1 X91.857 Y95.390 E0.05367
G1 X91.573 Y95.902 E0.05369
G1 X91.241 Y96.289 E0.04681
G1 X90.683 Y95.810 F9000.000
G1 X90.338 Y96.076 E0.03995 F900.000
G1 X89.947 Y96.268 E0.03995
G1 X89.526 Y96.377 E0.03995
G1 X89.091 Y96.399 E0.03996
G1 X88.661 Y96.333 E0.03995
G1 X88.252 Y96.182 E0.03996
G1 X87.883 Y95.952 E0.03995
G1 X87.567 Y95.652 E0.03995
G1 X87.318 Y95.294 E0.03995
G1 X87.147 Y94.894 E0.03995
G1 X87.059 Y94.468 E0.03995
G1 X87.059 Y94.032 E0.03996
G1 X87.147 Y93.606 E0.03995
G1 X87.318 Y93.206 E0.03995
G1 X87.567 Y92.848 E0.03995
G1 X87.883 Y92.548 E0.03995
G1 X88.252 Y92.318 E0.03995
G1 X88.661 Y92.167 E0.03995
G1 X89.033 Y92.110 E0.03460
G1 X89.526 Y92.123 E0.04521 F900.000
G1 X89.947 Y92.232 E0.03996
G1 X90.338 Y92.424 E0.03995
G1 X90.683 Y92.690 E0.03995
G1 X90.966 Y93.021 E0.03994
G1 X91.178 Y93.401 E0.03996
G1 X91.308 Y93.817 E0.03996
G1 X91.346 Y94.192 E0.03459
G1 X91.308 Y94.683 E0.04521
G1 X91.178 Y95.099 E0.03995
G1 X90.966 Y95.479 E0.03996
G1 X90.732 Y95.753 E0.03307
G1 F2400.000 E-3.50000
G1 X88.957 Y91.623 F9000.000
G1 X107.909 Y94.250 F9000.000
G1 E3.50000 F2400.000
G1 X107.968 Y93.668 E0.05368 F900.000
G1 X108.143 Y93.110 E0.05367
G1 X108.427 Y92.598 E0.05369
G1 X108.808 Y92.154 E0.05369
G1 X109.270 Y91.796 E0.05366
G1 X109.796 Y91.539 E0.05368
G1 X110.362 Y91.392 E0.05368
G1 X110.946 Y91.362 E0.05369
G1 X111.393 Y91.431 E0.04145
G1 X111.525 Y91.451 E0.01222 F900.000
G1 X112.073 Y91.654 E0.05370
G1 X112.570 Y91.964 E0.05367
G1 X112.994 Y92.367 E0.05368
G1 X113.328 Y92.847 E0.05368
G1 X113.559 Y93.384 E0.05368
G1 X113.677 Y93.957 E0.05367
G1 X113.677 Y94.543 E0.05369
G1 X113.559 Y95.116 E0.05369
G1 X113.328 Y95.653 E0.05367
G1 X112.994 Y96.133 E0.05368
G1 X112.570 Y96.536 E0.05367
G1 X112.073 Y96.846 E0.05368
G1 X111.525 Y97.049 E0.05368
G1 X111.078 Y97.118 E0.04148
G1 X110.946 Y97.138 E0.01222
G1 X110.362 Y97.108 E0.05367
G1 X109.796 Y96.961 E0.05369
G1 X109.270 Y96.704 E0.05368
G1 X108.808 Y96.346 E0.05368
G1 X108.427 Y95.902 E0.05366
G1 X108.143 Y95.390 E0.05369
G1 X107.968 Y94.832 E0.05369
G1 X107.916 Y94.325 E0.04678
G1 X108.648 Y94.250 F9000.000
G1 X108.692 Y93.817 E0.03995 F900.000
G1 X108.822 Y93.401 E0.03995
G1 X109.034 Y93.021 E0.03996
G1 X109.317 Y92.690 E0.03996
G1 X109.662 Y92.424 E0.03995
G1 X110.053 Y92.232 E0.03995
G1 X110.474 Y92.123 E0.03995
G1 X110.851 Y92.104 E0.03460
G1 X111.339 Y92.167 E0.04521 F900.000
G1 X111.748 Y92.318 E0.03996
G1 X112.117 Y92.548 E0.03995
G1 X112.391 Y92.808 E0.03459
G1 X112.682 Y93.206 E0.04521
G1 X112.853 Y93.606 E0.03995
G1 X112.941 Y94.032 E0.03995
G1 X112.941 Y94.468 E0.03996
G1 X112.853 Y94.894 E0.03996
G1 X112.705 Y95.241 E0.03459
G1 X112.433 Y95.652 E0.04521
G1 X112.117 Y95.952 E0.03995
G1 X111.748 Y96.182 E0.03995
G1 X111.339 Y96.333 E0.03995
G1 X110.909 Y96.399 E0.03996
G1 X110.474 Y96.377 E0.03995
G1 X110.053 Y96.268 E0.03996
G1 X109.662 Y96.076 E0.03995
G1 X109.317 Y95.810 E0.03995
G1 X109.034 Y95.479 E0.03994
G1 X108.822 Y95.099 E0.03996
G1 X108.692 Y94.683 E0.03996
G1 X108.656 Y94.325 E0.03307
G1 F2400.000 E-3.50000
G1 X111.005 Y91.636 F9000.000
G1 X105.286 Y87.464 F9000.000
G1 E3.50000 F2400.000
G1 X105.286 Y114.736 E2.50215 F900.000
G1 X94.714 Y114.736 E0.96992
G1 X94.714 Y87.464 E2.50215
G1 X105.211 Y87.464 E0.96304
G1 X104.550 Y88.200 F9000.000
G1 X104.550 Y114.000 E2.36716 F900.000
G1 X95.450 Y114.000 E0.83493
G1 X95.450 Y88.200 E2.36716
G1 X104.475 Y88.200 E0.82805
G1 X105.050 Y88.200 F9000.000
G1 X118.659 Y81.447 F9000.000
G1 X118.745 Y81.570 E0.01376 F900.000
G1 X118.808 Y81.706 E0.01375
G1 X118.847 Y81.851 E0.01375
G1 X118.864 Y82.050 E0.01832
G1 X118.864 Y117.950 E3.29392
G1 X118.847 Y118.149 E0.01832
G1 X118.808 Y118.294 E0.01375
G1 X118.745 Y118.430 E0.01376
G1 X118.659 Y118.553 E0.01376
G1 X118.553 Y118.659 E0.01375
G1 X118.430 Y118.745 E0.01376
G1 X118.294 Y118.808 E0.01375
G1 X118.149 Y118.847 E0.01375
G1 X117.950 Y118.864 E0.01832
G1 X82.050 Y118.864 E3.29392
G1 X81.851 Y118.847 E0.01832
G1 X81.706 Y118.808 E0.01375
G1 X81.570 Y118.745 E0.01376
G1 X81.447 Y118.659 E0.01375
G1 X81.341 Y118.553 E0.01376
G1 X81.255 Y118.430 E0.01376
G1 X81.192 Y118.294 E0.01375
G1 X81.153 Y118.149 E0.01376
G1 X81.136 Y117.950 E0.01832
G1 X81.136 Y82.050 E3.29392
G1 X81.153 Y81.851 E0.01832
G1 X81.192 Y81.706 E0.01375
G1 X81.255 Y81.570 E0.01376
G1 X81.341 Y81.447 E0.01375
G1 X81.447 Y81.341 E0.01376
G1 X81.570 Y81.255 E0.01376
G1 X81.706 Y81.192 E0.01375
G1 X81.851 Y81.153 E0.01376
G1 X82.050 Y81.136 E0.01832
G1 X117.950 Y81.136 E3.29392
G1 X118.149 Y81.153 E0.01832
G1 X118.294 Y81.192 E0.01376
G1 X118.430 Y81.255 E0.01376
G1 X118.606 Y81.394 E0.02056
G1 X119.261 Y81.025 F9000.000
G1 X119.384 Y81.201 E0.01966 F900.000
G1 X119.502 Y81.453 E0.02556
G1 X119.574 Y81.722 E0.02556
G1 X119.600 Y82.017 E0.02717
G1 X119.600 Y117.983 E3.29981
G1 X119.574 Y118.278 E0.02717
G1 X119.502 Y118.547 E0.02556
G1 X119.384 Y118.799 E0.02557
G1 X119.225 Y119.027 E0.02556
G1 X119.027 Y119.224 E0.02556
G1 X118.799 Y119.384 E0.02557
G1 X118.547 Y119.502 E0.02556
G1 X118.278 Y119.574 E0.02556
G1 X117.983 Y119.600 E0.02717
G1 X82.017 Y119.600 E3.29981
G1 X81.722 Y119.574 E0.02717
G1 X81.453 Y119.502 E0.02556
G1 X81.201 Y119.384 E0.02556
G1 X80.973 Y119.225 E0.02556
G1 X80.776 Y119.027 E0.02557
G1 X80.616 Y118.799 E0.02557
G1 X80.498 Y118.547 E0.02556
G1 X80.426 Y118.278 E0.02557
G1 X80.400 Y117.983 E0.02717
G1 X80.400 Y82.017 E3.29981
G1 X80.426 Y81.722 E0.02717
G1 X80.498 Y81.453 E0.02556
G1 X80.616 Y81.201 E0.02557
G1 X80.775 Y80.973 E0.02556
G1 X80.973 Y80.776 E0.02557
G1 X81.201 Y80.616 E0.02557
G1 X81.453 Y80.498 E0.02556
G1 X81.722 Y80.426 E0.02557
G1 X82.017 Y80.400 E0.02717
G1 X117.983 Y80.400 E3.29981
G1 X118.278 Y80.426 E0.02717
G1 X118.547 Y80.498 E0.02556 F900.000
G1 X118.799 Y80.616 E0.02557
G1 X119.027 Y80.776 E0.02556
G1 X119.217 Y80.965 E0.02459
G1 X118.542 Y80.513 F9000.000
G1 X118.147 Y81.690 F9000.000
G1 X118.310 Y81.853 E0.02120 F900.000
G1 X118.351 Y82.935 E0.09937
G1 X117.065 Y81.649 E0.16691
G1 X116.023 Y81.649 E0.09557
G1 X118.351 Y83.977 E0.30207
G1 X118.351 Y85.019 E0.09557
G1 X114.981 Y81.649 E0.43722
G1 X113.940 Y81.649 E0.09557
G1 X118.351 Y86.060 E0.57238
G1 X118.351 Y87.102 E0.09557
G1 X112.898 Y81.649 E0.70754
G1 X111.857 Y81.649 E0.09557
G1 X118.351 Y88.143 E0.84270
G1 X118.351 Y89.185 E0.09557
G1 X110.815 Y81.649 E0.97786
G1 X109.773 Y81.649 E0.09557
G1 X118.351 Y90.227 E1.11301
G1 X118.351 Y91.268 E0.09557
G1 X108.732 Y81.649 E1.24817
G1 X107.690 Y81.649 E0.09557
G1 X118.351 Y92.310 E1.38333
G1 X118.351 Y93.352 E0.09557
G1 X106.648 Y81.649 E1.51849
G1 X105.607 Y81.649 E0.09557
G1 X118.351 Y94.393 E1.65365
G1 X118.351 Y95.435 E0.09557
G1 X104.565 Y81.649 E1.78880
G1 X103.523 Y81.649 E0.09557
G1 X118.351 Y96.477 E1.92396
G1 X118.351 Y97.518 E0.09557
G1 X114.042 Y93.210 E0.55907
G1 X114.190 Y94.399 E0.10994
G1 X118.351 Y98.560 E0.53993
G1 X118.351 Y99.602 E0.09557
G1 X114.042 Y95.292 E0.55916
G1 X113.710 Y96.003 E0.07192
G1 X118.351 Y100.643 E0.60214
G1 X118.351 Y101.685 E0.09557
G1 X113.257 Y96.591 E0.66093
G1 X112.691 Y97.066 E0.06784
G1 X118.351 Y102.726 E0.73446
G1 X118.351 Y103.768 E0.09557
G1 X112.003 Y97.420 E0.82375
G1 X111.165 Y97.624 E0.07910
G1 X118.351 Y104.810 E0.93244
G1 X118.351 Y105.851 E0.09557
G1 X110.060 Y97.560 E1.07584
G1 X107.475 Y94.975 F9000.000
G1 X105.799 Y93.299 E0.21743 F900.000
G1 X105.799 Y94.341 E0.09557
G1 X118.351 Y106.893 E1.62870
G1 X118.351 Y107.935 E0.09557
G1 X105.799 Y95.383 E1.62870
G1 X105.799 Y96.424 E0.09557
G1 X118.351 Y108.976 E1.62870
G1 X118.351 Y110.018 E0.09557
G1 X105.799 Y97.466 E1.62870
G1 X105.799 Y98.507 E0.09557
G1 X118.351 Y111.060 E1.62870
G1 X118.351 Y112.101 E0.09557
G1 X105.799 Y99.549 E1.62870
G1 X105.799 Y100.591 E0.09557
G1 X118.351 Y113.143 E1.62870
G1 X118.351 Y114.185 E0.09557
G1 X105.799 Y101.632 E1.62870
G1 X105.799 Y102.674 E0.09557
G1 X118.351 Y115.226 E1.62870
G1 X118.351 Y116.268 E0.09557
G1 X105.799 Y103.716 E1.62870
G1 X105.799 Y104.757 E0.09557
G1 X118.351 Y117.309 E1.62870
G1 X118.229 Y118.229 E0.08509
G1 X105.799 Y105.799 E1.61283
G1 X105.799 Y106.841 E0.09557
G1 X117.309 Y118.351 E1.49354
G1 X116.268 Y118.351 E0.09557
G1 X105.799 Y107.882 E1.35839
G1 X105.799 Y108.924 E0.09557
G1 X115.226 Y118.351 E1.22323
G1 X114.185 Y118.351 E0.09557
G1 X105.799 Y109.965 E1.08807
G1 X105.799 Y111.007 E0.09557
G1 X113.143 Y118.351 E0.95291
G1 X112.101 Y118.351 E0.09557
G1 X105.799 Y112.049 E0.81775
G1 X105.799 Y113.090 E0.09557
G1 X111.060 Y118.351 E0.68260
G1 X110.018 Y118.351 E0.09557
G1 X105.799 Y114.132 E0.54744
G1 X105.799 Y115.174 E0.09557
G1 X108.976 Y118.351 E0.41228
G1 X107.935 Y118.351 E0.09557
G1 X104.833 Y115.249 E0.40252
G1 X103.791 Y115.249 E0.09557
G1 X106.893 Y118.351 E0.40252
G1 X105.851 Y118.351 E0.09557
G1 X102.749 Y115.249 E0.40252
G1 X101.708 Y115.249 E0.09557
G1 X104.810 Y118.351 E0.40252
G1 X103.768 Y118.351 E0.09557
G1 X100.666 Y115.249 E0.40252
G1 X99.624 Y115.249 E0.09557
G1 X102.726 Y118.351 E0.40252
G1 X101.685 Y118.351 E0.09557
G1 X98.583 Y115.249 E0.40252
G1 X97.541 Y115.249 E0.09557
G1 X100.643 Y118.351 E0.40252
G1 X99.602 Y118.351 E0.09557
G1 X96.499 Y115.249 E0.40252
G1 X95.458 Y115.249 E0.09557
G1 X98.560 Y118.351 E0.40252
G1 X97.518 Y118.351 E0.09557
G1 X81.649 Y102.482 E2.05912
G1 X81.649 Y103.523 E0.09557
G1 X96.477 Y118.351 E1.92396
G1 X95.435 Y118.351 E0.09557
G1 X81.649 Y104.565 E1.78881
G1 X81.649 Y105.607 E0.09557
G1 X94.393 Y118.351 E1.65365
G1 X93.352 Y118.351 E0.09557
G1 X81.649 Y106.648 E1.51849
G1 X81.649 Y107.690 E0.09557
G1 X92.310 Y118.351 E1.38333
G1 X91.268 Y118.351 E0.09557
G1 X81.649 Y108.732 E1.24817
G1 X81.649 Y109.773 E0.09557
G1 X90.227 Y118.351 E1.11302
G1 X89.185 Y118.351 E0.09557
G1 X81.649 Y110.815 E0.97786
G1 X81.649 Y111.857 E0.09557
G1 X88.143 Y118.351 E0.84270
G1 X87.102 Y118.351 E0.09557
G1 X81.649 Y112.898 E0.70754
G1 X81.649 Y113.940 E0.09557
G1 X86.060 Y118.351 E0.57238
G1 X85.019 Y118.351 E0.09557
G1 X81.649 Y114.981 E0.43723
G1 X81.649 Y116.023 E0.09557
G1 X83.977 Y118.351 E0.30207
G1 X82.935 Y118.351 E0.09557
G1 X81.649 Y117.065 E0.16691
G1 X81.690 Y118.147 E0.09937
G1 X81.853 Y118.310 E0.02120
G1 X94.201 Y113.992 F9000.000
G1 X81.649 Y101.440 E1.62870 F900.000
G1 X81.649 Y100.398 E0.09557
G1 X94.201 Y112.951 E1.62870
G1 X94.201 Y111.909 E0.09557
G1 X81.649 Y99.357 E1.62870
G1 X81.649 Y98.315 E0.09557
G1 X94.201 Y110.867 E1.62870
G1 X94.201 Y109.826 E0.09557
G1 X81.649 Y97.274 E1.62870
G1 X81.649 Y96.232 E0.09557
G1 X94.201 Y108.784 E1.62870
G1 X94.201 Y107.742 E0.09557
G1 X81.649 Y95.190 E1.62870
G1 X81.649 Y94.149 E0.09557
G1 X94.201 Y106.701 E1.62870
G1 X94.201 Y105.659 E0.09557
G1 X81.649 Y93.107 E1.62870
G1 X81.649 Y92.065 E0.09557
G1 X94.201 Y104.617 E1.62870
G1 X94.201 Y103.576 E0.09557
G1 X88.073 Y97.447 E0.79519
G1 X89.306 Y97.639 E0.11450
G1 X94.201 Y102.534 E0.63518
G1 X94.201 Y101.493 E0.09557
G1 X90.201 Y97.493 E0.51902
G1 X90.928 Y97.178 E0.07269
G1 X94.201 Y100.451 E0.42467
G1 X94.201 Y99.409 E0.09557
G1 X91.527 Y96.735 E0.34694
G1 X92.009 Y96.175 E0.06777
G1 X94.201 Y98.368 E0.28449
G1 X94.201 Y97.326 E0.09557
G1 X92.364 Y95.489 E0.23835
G1 X92.567 Y94.650 E0.07920
G1 X94.201 Y96.284 E0.21206
G1 X94.201 Y95.243 E0.09557
G1 X92.539 Y93.581 E0.21561
G1 X94.201 Y93.159 F9000.000
G1 X82.691 Y81.649 E1.49354 F900.000
G1 X81.771 Y81.771 E0.08509
G1 X94.201 Y94.201 E1.61283
G1 X94.201 Y92.118 E0.19114
G1 X83.732 Y81.649 E1.35839
G1 X84.774 Y81.649 E0.09557
G1 X94.201 Y91.076 E1.22323
G1 X94.201 Y90.035 E0.09557
G1 X85.815 Y81.649 E1.08807
G1 X86.857 Y81.649 E0.09557
G1 X94.201 Y88.993 E0.95291
G1 X94.201 Y87.951 E0.09557
G1 X87.899 Y81.649 E0.81775
G1 X88.940 Y81.649 E0.09557
G1 X94.243 Y86.951 E0.68798
G1 X95.284 Y86.951 E0.09557
G1 X89.982 Y81.649 E0.68798
G1 X91.024 Y81.649 E0.09557
G1 X96.326 Y86.951 E0.68798
G1 X97.367 Y86.951 E0.09557
G1 X92.065 Y81.649 E0.68798
G1 X93.107 Y81.649 E0.09557
G1 X98.409 Y86.951 E0.68798
G1 X99.451 Y86.951 E0.09557
G1 X94.149 Y81.649 E0.68798
G1 X95.190 Y81.649 E0.09557
G1 X100.492 Y86.951 E0.68798
G1 X101.534 Y86.951 E0.09557
G1 X96.232 Y81.649 E0.68798
G1 X97.274 Y81.649 E0.09557
G1 X102.576 Y86.951 E0.68798
G1 X103.617 Y86.951 E0.09557
G1 X98.315 Y81.649 E0.68798
G1 X99.357 Y81.649 E0.09557
G1 X104.659 Y86.951 E0.68798
G1 X105.701 Y86.951 E0.09557
G1 X100.398 Y81.649 E0.68798
G1 X101.440 Y81.649 E0.09557
G1 X110.654 Y90.863 E1.19558
G1 X109.766 Y91.016 E0.08273
