; generated by Slic3r 1.1.7 on 2015-06-19 at 12:30:13

; perimeters extrusion width = 0.50mm
; infill extrusion width = 0.50mm
; solid infill extrusion width = 0.50mm
; top infill extrusion width = 0.50mm

G21 ; set units to millimeters
M107
M190 S57 ; wait for bed temperature to be reached
G28 ; home all axes
M83;
G10 P0 S195 R160                       ; Set tool 0 operating and standby temperatures
T0

G90 ; use absolute coordinates
M83 ; use relative distances for extrusion
G1 F2400.000 E-3.50000
G1 Z0.300 F9000.000
G1 X80.888 Y82.437 F9000.000
G1 E3.50000 F2400.000
G1 X81.081 Y82.277 E0.02298 F1200.000
G1 X81.871 Y81.776 E0.08584
G1 X82.533 Y81.496 E0.06599
G1 X93.156 Y78.036 E1.02508
G1 X94.313 Y77.852 E0.10748
G1 X105.687 Y77.852 E1.04351
G1 X106.844 Y78.036 E0.10748
G1 X116.492 Y81.178 E0.93099 F1200.000
G1 X117.902 Y81.669 E0.13700
G1 X118.129 Y81.776 E0.02304
G1 X118.919 Y82.277 E0.08584
G1 X119.112 Y82.437 E0.02298
G1 X119.752 Y83.120 E0.08585
G1 X119.899 Y83.323 E0.02302
G1 X120.350 Y84.143 E0.08584
G1 X120.442 Y84.376 E0.02301
G1 X120.675 Y85.282 E0.08586
G1 X120.736 Y85.999 E0.06597
G1 X120.728 Y98.194 E1.11892
G1 X120.606 Y99.050 E0.07939
G1 X120.404 Y99.700 E0.06246
G1 X112.192 Y119.747 E1.98762
G1 X111.499 Y120.677 E0.10643
G1 X110.686 Y121.358 E0.09729
G1 X110.418 Y121.524 E0.02894
G1 X109.741 Y121.840 E0.06850
G1 X109.348 Y121.972 E0.03801
G1 X108.713 Y122.100 E0.05947
G1 X108.075 Y122.148 E0.05869
G1 X91.501 Y122.124 E1.52068
G1 X90.663 Y121.975 E0.07807
G1 X90.462 Y121.911 E0.01936
G1 X89.591 Y121.529 E0.08727
G1 X88.660 Y120.836 E0.10646
G1 X88.508 Y120.684 E0.01978
G1 X87.980 Y120.023 E0.07761
G1 X87.813 Y119.755 E0.02901
G1 X87.564 Y119.255 E0.05124
G1 X79.434 Y99.205 E1.98506
G1 X79.291 Y98.437 E0.07164
G1 X79.264 Y97.962 E0.04369
G1 X79.294 Y85.531 E1.14056
G1 X79.325 Y85.282 E0.02299
G1 X79.558 Y84.376 E0.08587
G1 X79.650 Y84.143 E0.02299
G1 X80.100 Y83.323 E0.08579
G1 X80.248 Y83.120 E0.02305
G1 X80.837 Y82.492 E0.07900
G1 F2400.000 E-3.50000
G1 X90.934 Y94.589 F9000.000
G1 E3.50000 F2400.000
G1 X90.496 Y94.907 E0.04972 F900.000
G1 X90.001 Y95.128 E0.04969
G1 X89.471 Y95.240 E0.04974
G1 X88.929 Y95.240 E0.04970
G1 X88.399 Y95.128 E0.04970
G1 X87.904 Y94.907 E0.04973
G1 X87.466 Y94.589 E0.04970
G1 X87.103 Y94.186 E0.04972
G1 X86.832 Y93.716 E0.04974
G1 X86.665 Y93.201 E0.04969
G1 X86.608 Y92.663 E0.04970
G1 X86.665 Y92.123 E0.04975
G1 X86.832 Y91.608 E0.04970
G1 X87.103 Y91.139 E0.04968
G1 X87.466 Y90.736 E0.04974
G1 X87.904 Y90.418 E0.04973
G1 X88.399 Y90.197 E0.04969
G1 X88.929 Y90.085 E0.04973
G1 X89.471 Y90.085 E0.04970
G1 X89.873 Y90.170 E0.03770
G1 X90.001 Y90.197 E0.01199 F900.000
G1 X90.496 Y90.418 E0.04974
G1 X90.934 Y90.736 E0.04969
G1 X91.297 Y91.139 E0.04973
G1 X91.568 Y91.609 E0.04974
G1 X91.735 Y92.124 E0.04969
G1 X91.792 Y92.663 E0.04974
G1 X91.735 Y93.201 E0.04968
G1 X91.568 Y93.717 E0.04974
G1 X91.297 Y94.186 E0.04969
G1 X90.984 Y94.533 E0.04286
G1 X90.439 Y94.039 F9000.000
G1 X90.126 Y94.267 E0.03553 F900.000
G1 X89.772 Y94.424 E0.03552
G1 X89.394 Y94.505 E0.03554
G1 X89.006 Y94.505 E0.03552
G1 X88.628 Y94.424 E0.03552
G1 X88.274 Y94.267 E0.03553
G1 X87.961 Y94.039 E0.03552
G1 X87.702 Y93.751 E0.03553
G1 X87.508 Y93.416 E0.03554
G1 X87.388 Y93.048 E0.03552
G1 X87.348 Y92.663 E0.03552
G1 X87.388 Y92.277 E0.03554
G1 X87.508 Y91.909 E0.03552
G1 X87.701 Y91.574 E0.03552
G1 X87.961 Y91.286 E0.03554
G1 X88.274 Y91.058 E0.03553
G1 X88.628 Y90.901 E0.03552
G1 X89.006 Y90.820 E0.03553
G1 X89.394 Y90.820 E0.03552 F900.000
G1 X89.772 Y90.901 E0.03552
G1 X90.126 Y91.058 E0.03554
G1 X90.439 Y91.286 E0.03552
G1 X90.698 Y91.574 E0.03553
G1 X90.892 Y91.909 E0.03554
G1 X91.012 Y92.277 E0.03552
G1 X91.052 Y92.663 E0.03553
G1 X91.012 Y93.048 E0.03551
G1 X90.892 Y93.416 E0.03554
G1 X90.699 Y93.751 E0.03552
G1 X90.490 Y93.983 E0.02866
G1 F2400.000 E-3.50000
G1 X88.939 Y90.439 F9000.000
G1 X108.208 Y92.662 F9000.000
G1 E3.50000 F2400.000
G1 X108.265 Y92.124 E0.04968 F900.000
G1 X108.432 Y91.608 E0.04974
G1 X108.703 Y91.139 E0.04969
G1 X109.066 Y90.736 E0.04974
G1 X109.504 Y90.418 E0.04973
G1 X109.999 Y90.197 E0.04969
G1 X110.529 Y90.085 E0.04973
G1 X111.071 Y90.085 E0.04970
G1 X111.473 Y90.170 E0.03770
G1 X111.601 Y90.197 E0.01199 F900.000
G1 X112.096 Y90.418 E0.04974
G1 X112.534 Y90.736 E0.04970
G1 X112.897 Y91.139 E0.04972
G1 X113.168 Y91.609 E0.04974
G1 X113.335 Y92.124 E0.04969
G1 X113.392 Y92.662 E0.04970
G1 X113.335 Y93.202 E0.04975
G1 X113.208 Y93.592 E0.03771
G1 X113.168 Y93.717 E0.01200
G1 X112.897 Y94.186 E0.04968
G1 X112.534 Y94.589 E0.04975
G1 X112.096 Y94.907 E0.04973
G1 X111.601 Y95.128 E0.04969
G1 X111.071 Y95.240 E0.04974
G1 X110.529 Y95.240 E0.04970
G1 X109.999 Y95.128 E0.04969
G1 X109.504 Y94.907 E0.04974
G1 X109.066 Y94.589 E0.04969
G1 X108.703 Y94.186 E0.04973
G1 X108.432 Y93.716 E0.04974
G1 X108.265 Y93.201 E0.04969
G1 X108.216 Y92.737 E0.04285
G1 X108.948 Y92.662 F9000.000
G1 X108.988 Y92.277 E0.03552 F900.000
G1 X109.108 Y91.909 E0.03554
G1 X109.301 Y91.574 E0.03552
G1 X109.525 Y91.326 E0.03064
G1 X109.874 Y91.058 E0.04034
G1 X110.228 Y90.901 E0.03552
G1 X110.606 Y90.820 E0.03553
G1 X110.994 Y90.820 E0.03552 F900.000
G1 X111.372 Y90.901 E0.03552
G1 X111.726 Y91.058 E0.03553
G1 X112.039 Y91.286 E0.03552
G1 X112.298 Y91.574 E0.03553
G1 X112.465 Y91.863 E0.03064
G1 X112.612 Y92.277 E0.04032
G1 X112.652 Y92.662 E0.03552
G1 X112.612 Y93.048 E0.03554
G1 X112.492 Y93.416 E0.03552
G1 X112.299 Y93.751 E0.03552
G1 X112.039 Y94.039 E0.03554
G1 X111.726 Y94.267 E0.03553
G1 X111.372 Y94.424 E0.03552
G1 X110.994 Y94.505 E0.03554
G1 X110.606 Y94.505 E0.03552
G1 X110.228 Y94.424 E0.03552
G1 X109.874 Y94.267 E0.03554
G1 X109.561 Y94.039 E0.03552
G1 X109.302 Y93.751 E0.03553
G1 X109.108 Y93.416 E0.03554
G1 X108.988 Y93.048 E0.03552
G1 X108.956 Y92.737 E0.02865
G1 F2400.000 E-3.50000
G1 X110.687 Y90.442 F9000.000
G1 X105.286 Y85.877 F9000.000
G1 E3.50000 F2400.000
G1 X105.286 Y113.148 E2.50215 F900.000
G1 X94.714 Y113.148 E0.96992
G1 X94.714 Y85.877 E2.50215
G1 X105.211 Y85.877 E0.96304
G1 X104.550 Y86.613 F9000.000
G1 X104.550 Y112.413 E2.36716 F900.000
G1 X95.450 Y112.413 E0.83493
G1 X95.450 Y86.613 E2.36716
G1 X104.475 Y86.613 E0.82805
G1 X105.050 Y86.613 F9000.000
G1 X115.864 Y86.097 F9000.000
G1 X115.864 Y97.927 E1.08542 F900.000
G1 X108.184 Y111.979 E1.46927
G1 X108.054 Y112.271 E0.02931
G1 X107.965 Y112.620 E0.03304
G1 X107.939 Y112.938 E0.02928
G1 X107.939 Y117.277 E0.39812
G1 X92.061 Y117.277 E1.45688
G1 X92.061 Y112.938 E0.39811
G1 X92.035 Y112.619 E0.02930
G1 X91.946 Y112.270 E0.03305
G1 X91.816 Y111.979 E0.02929
G1 X84.136 Y97.927 E1.46926
G1 X84.136 Y86.097 E1.08542
G1 X94.494 Y82.723 E0.99950
G1 X105.506 Y82.723 E1.01042
G1 X115.793 Y86.074 E0.99262
G1 X116.523 Y85.711 F9000.000
G1 X116.578 Y85.850 E0.01372 F900.000
G1 X116.600 Y86.024 E0.01604
G1 X116.591 Y98.059 E1.10428
G1 X116.519 Y98.263 E0.01980
G1 X108.841 Y112.312 E1.46897
G1 X108.751 Y112.512 E0.02011
G1 X108.693 Y112.742 E0.02175
G1 X108.675 Y112.960 E0.02010
G1 X108.675 Y117.392 E0.40660
G1 X108.658 Y117.545 E0.01414
G1 X108.614 Y117.671 E0.01226
G1 X108.542 Y117.785 E0.01226
G1 X108.447 Y117.880 E0.01238
G1 X108.334 Y117.951 E0.01226
G1 X108.208 Y117.995 E0.01227
G1 X108.055 Y118.012 E0.01414
G1 X91.946 Y118.012 E1.47800
G1 X91.792 Y117.995 E0.01416
G1 X91.666 Y117.951 E0.01227
G1 X91.553 Y117.880 E0.01227
G1 X91.458 Y117.785 E0.01237
G1 X91.386 Y117.671 E0.01227
G1 X91.342 Y117.545 E0.01227
G1 X91.325 Y117.392 E0.01417
G1 X91.325 Y112.960 E0.40658
G1 X91.307 Y112.742 E0.02011
G1 X91.249 Y112.512 E0.02175
G1 X91.159 Y112.312 E0.02011
G1 X83.481 Y98.263 E1.46897
G1 X83.409 Y98.059 E0.01980
G1 X83.400 Y86.024 E1.10428
G1 X83.422 Y85.850 E0.01604
G1 X83.477 Y85.711 E0.01372
G1 X83.565 Y85.590 E0.01372
G1 X83.680 Y85.495 E0.01372
G1 X83.838 Y85.420 E0.01604
G1 X94.377 Y81.988 E1.01694
G1 X105.623 Y81.988 E1.03185
G1 X116.162 Y85.420 E1.01694
G1 X116.320 Y85.495 E0.01604
G1 X116.479 Y85.651 E0.02041
G1 X116.446 Y85.839 F9000.000
G1 X115.300 Y86.453 F9000.000
G1 X115.351 Y86.504 E0.00664 F900.000
G1 X115.351 Y87.564 E0.09725
G1 X113.728 Y85.941 E0.21061
G1 X112.156 Y85.429 E0.15169
G1 X115.351 Y88.624 E0.41458
G1 X115.351 Y89.684 E0.09725
G1 X110.584 Y84.917 E0.61856
G1 X109.012 Y84.405 E0.15169
G1 X115.351 Y90.744 E0.82253
G1 X115.351 Y91.804 E0.09725
G1 X107.440 Y83.893 E1.02650
G1 X105.868 Y83.381 E0.15169
G1 X115.351 Y92.864 E1.23047
G1 X115.351 Y93.924 E0.09725
G1 X113.887 Y92.459 E0.19001
G1 X113.800 Y93.432 E0.08964
G1 X115.351 Y94.984 E0.20128
G1 X115.351 Y96.044 E0.09725
G1 X113.491 Y94.184 E0.24135
G1 X113.041 Y94.793 E0.06954
G1 X115.351 Y97.104 E0.29977
G1 X115.221 Y98.034 E0.08616
G1 X112.463 Y95.275 E0.35793
G1 X111.749 Y95.621 E0.07280
G1 X114.847 Y98.719 E0.40199
G1 X114.472 Y99.404 E0.07166
G1 X110.821 Y95.753 E0.47372
G1 X109.455 Y95.447 E0.12847
G1 X114.098 Y100.090 E0.60239
G1 X113.723 Y100.775 E0.07166
G1 X105.799 Y92.851 E1.02818
G1 X105.799 Y91.791 E0.09725
G1 X107.997 Y93.989 E0.28517
G1 X107.696 Y92.628 E0.12789
G1 X105.799 Y90.731 E0.24611
G1 X105.799 Y89.671 E0.09725
G1 X107.854 Y91.726 E0.26667
G1 X108.190 Y91.002 E0.07325
G1 X105.799 Y88.611 E0.31019
G1 X105.799 Y87.551 E0.09725
G1 X108.663 Y90.416 E0.37169
G1 X109.268 Y89.961 E0.06945
G1 X105.799 Y86.491 E0.45018
G1 X105.799 Y85.432 E0.09725
G1 X110.033 Y89.666 E0.54938
G1 X110.999 Y89.572 E0.08904
G1 X104.664 Y83.236 E0.82201
G1 X103.604 Y83.236 E0.09725
G1 X105.731 Y85.364 E0.27601
G1 X104.671 Y85.364 E0.09725
G1 X102.544 Y83.236 E0.27601
G1 X101.484 Y83.236 E0.09725
G1 X103.611 Y85.364 E0.27601
G1 X102.551 Y85.364 E0.09725
G1 X100.424 Y83.236 E0.27601
G1 X99.364 Y83.236 E0.09725
G1 X101.491 Y85.364 E0.27601
G1 X100.431 Y85.364 E0.09725
G1 X98.304 Y83.236 E0.27601
G1 X97.244 Y83.236 E0.09725
G1 X99.371 Y85.364 E0.27601
G1 X98.311 Y85.364 E0.09725
G1 X96.184 Y83.236 E0.27601
G1 X95.124 Y83.236 E0.09725
G1 X97.252 Y85.364 E0.27601
G1 X96.192 Y85.364 E0.09725
G1 X94.190 Y83.362 E0.25973
G1 X93.390 Y83.622 E0.07715
G1 X95.132 Y85.364 E0.22594
G1 X94.201 Y85.493 E0.08620
G1 X92.591 Y83.883 E0.20892
G1 X91.791 Y84.143 E0.07715
G1 X94.201 Y86.553 E0.31266
G1 X94.201 Y87.613 E0.09725
G1 X90.992 Y84.404 E0.41640
G1 X90.192 Y84.664 E0.07715
G1 X94.201 Y88.673 E0.52014
G1 X94.201 Y89.733 E0.09725
G1 X89.393 Y84.924 E0.62388
G1 X88.593 Y85.185 E0.07715
G1 X94.201 Y90.793 E0.72762
G1 X94.201 Y91.852 E0.09725
G1 X87.794 Y85.445 E0.83136
G1 X86.994 Y85.706 E0.07715
G1 X94.201 Y92.912 E0.93510
G1 X94.201 Y93.972 E0.09725
G1 X92.238 Y92.009 E0.25475
G1 X92.263 Y93.094 E0.09957
G1 X94.201 Y95.032 E0.25151
G1 X94.201 Y96.092 E0.09725
G1 X92.038 Y93.929 E0.28068
G1 X91.631 Y94.582 E0.07059
G1 X94.201 Y97.152 E0.33348
G1 X94.201 Y98.212 E0.09725
G1 X91.095 Y95.106 E0.40300
G1 X90.428 Y95.499 E0.07103
G1 X94.201 Y99.272 E0.48954
G1 X94.201 Y100.332 E0.09725
G1 X89.605 Y95.736 E0.59630
G1 X88.478 Y95.669 E0.10359
G1 X94.201 Y101.392 E0.74254
G1 X94.201 Y102.452 E0.09725
G1 X84.649 Y92.900 E1.23944
G1 X84.649 Y93.960 E0.09725
G1 X94.201 Y103.512 E1.23944
G1 X94.201 Y104.572 E0.09725
G1 X84.649 Y95.019 E1.23944
G1 X84.649 Y96.079 E0.09725
G1 X94.201 Y105.632 E1.23944
G1 X94.201 Y106.691 E0.09725
G1 X84.649 Y97.139 E1.23944
G1 X85.135 Y98.685 E0.14868
G1 X94.201 Y107.751 E1.17638
G1 X94.201 Y108.811 E0.09725
G1 X86.412 Y101.023 E1.01061
G1 X87.690 Y103.360 F9000.000
G1 X94.201 Y109.871 E0.84484 F900.000
G1 X94.201 Y110.931 E0.09725
G1 X88.968 Y105.698 E0.67907
G1 X90.245 Y108.035 F9000.000
G1 X94.201 Y111.991 E0.51330 F900.000
G1 X94.201 Y113.051 E0.09725
G1 X91.523 Y110.373 E0.34754
G1 X92.515 Y112.425 F9000.000
G1 X96.854 Y116.764 E0.56291 F900.000
G1 X95.794 Y116.764 E0.09725
G1 X92.574 Y113.544 E0.41778
G1 X92.574 Y114.604 E0.09725
G1 X94.734 Y116.764 E0.28025
G1 X93.674 Y116.764 E0.09725
G1 X92.574 Y115.664 E0.14272
G1 X92.574 Y116.724 E0.09725
G1 X92.614 Y116.764 E0.00519
G1 X94.811 Y113.661 F9000.000
G1 X97.914 Y116.764 E0.40252 F900.000
G1 X98.974 Y116.764 E0.09725
G1 X95.871 Y113.661 E0.40252
G1 X96.931 Y113.661 E0.09725
G1 X100.033 Y116.764 E0.40252
G1 X101.093 Y116.764 E0.09725
G1 X97.991 Y113.661 E0.40252
G1 X99.051 Y113.661 E0.09725
G1 X102.153 Y116.764 E0.40252
G1 X103.213 Y116.764 E0.09725
G1 X100.111 Y113.661 E0.40252
G1 X101.171 Y113.661 E0.09725
G1 X104.273 Y116.764 E0.40252
G1 X105.333 Y116.764 E0.09725
G1 X102.231 Y113.661 E0.40252
G1 X103.291 Y113.661 E0.09725
G1 X106.393 Y116.764 E0.40252
G1 X107.420 Y116.730 E0.09423
G1 X104.351 Y113.661 E0.39818
G1 X105.411 Y113.661 E0.09725
G1 X107.426 Y115.677 E0.26150
G1 X107.426 Y114.617 E0.09725
G1 X105.799 Y112.990 E0.21113
G1 X105.799 Y111.930 E0.09725
G1 X107.426 Y113.557 E0.21113
G1 X107.458 Y112.529 E0.09435
G1 X105.799 Y110.870 E0.21529
G1 X105.799 Y109.810 E0.09725
G1 X107.730 Y111.741 E0.25052
G1 X108.104 Y111.055 E0.07166
G1 X105.799 Y108.750 E0.29913
G1 X105.799 Y107.690 E0.09725
G1 X108.479 Y110.370 E0.34773
G1 X108.853 Y109.685 E0.07166
G1 X105.799 Y106.630 E0.39633
G1 X105.799 Y105.570 E0.09725
G1 X109.228 Y108.999 E0.44494
G1 X109.603 Y108.314 E0.07166
G1 X105.799 Y104.510 E0.49354
G1 X105.799 Y103.450 E0.09725
G1 X109.977 Y107.629 E0.54214
G1 X110.352 Y106.943 E0.07166
G1 X105.799 Y102.390 E0.59075
G1 X105.799 Y101.330 E0.09725
G1 X110.726 Y106.258 E0.63935
G1 X111.101 Y105.572 E0.07166
G1 X105.799 Y100.271 E0.68795
G1 X105.799 Y99.211 E0.09725
G1 X111.475 Y104.887 E0.73656
G1 X111.850 Y104.202 E0.07166
G1 X105.799 Y98.151 E0.78516
G1 X105.799 Y97.091 E0.09725
G1 X112.225 Y103.516 E0.83376
G1 X112.599 Y102.831 E0.07166
G1 X105.799 Y96.031 E0.88237
G1 X105.799 Y94.971 E0.09725
G1 X112.974 Y102.146 E0.93097
G1 X113.348 Y101.460 E0.07166
G1 X105.799 Y93.911 E0.97957
G1 F2400.000 E-3.50000
G1 X89.875 Y89.646 F9000.000
G1 E3.50000 F2400.000
G1 X86.195 Y85.966 E0.47746 F900.000
G1 X85.395 Y86.227 E0.07715
G1 X88.764 Y89.595 E0.43709
G1 X87.946 Y89.837 E0.07826
G1 X84.649 Y86.540 E0.42783
G1 X84.649 Y87.600 E0.09725
G1 X87.283 Y90.234 E0.34183
G1 X86.751 Y90.762 E0.06877
G1 X84.649 Y88.660 E0.27282
G1 X84.649 Y89.720 E0.09725
G1 X86.353 Y91.423 E0.22105
G1 X86.134 Y92.265 E0.07975
G1 X84.649 Y90.780 E0.19267
G1 X84.649 Y91.840 E0.09725
G1 X86.180 Y93.371 E0.19868
G1 F2400.000 E-3.50000
G1 Z0.600 F9000.000
G1 X91.356 Y92.204 F9000.000
G1 E3.50000 F2400.000
G1 X91.404 Y92.662 E0.02873 F1800.000
G1 X91.368 Y93.008 E0.02170
G1 X91.356 Y93.121 E0.00704
G1 X91.214 Y93.559 E0.02873
G1 X90.983 Y93.958 E0.02874
G1 X90.675 Y94.300 E0.02874
G1 X90.302 Y94.571 E0.02874
G1 X89.881 Y94.759 E0.02874
G1 X89.541 Y94.831 E0.02170
G1 X89.430 Y94.855 E0.00704
G1 X88.970 Y94.855 E0.02873
G1 X88.519 Y94.759 E0.02873
G1 X88.098 Y94.571 E0.02874
G1 X87.725 Y94.300 E0.02873
G1 X87.417 Y93.958 E0.02874
G1 X87.243 Y93.657 E0.02169
G1 X87.186 Y93.559 E0.00704
G1 X87.044 Y93.121 E0.02874
G1 X86.996 Y92.663 E0.02873
G1 X87.032 Y92.317 E0.02170
G1 X87.044 Y92.204 E0.00704
G1 X87.186 Y91.766 E0.02873
G1 X87.417 Y91.367 E0.02873
G1 X87.725 Y91.025 E0.02874
G1 X88.098 Y90.754 E0.02874
G1 X88.519 Y90.566 E0.02873
G1 X88.970 Y90.470 E0.02874
G1 X89.430 Y90.470 E0.02873
G1 X89.771 Y90.543 E0.02169
G1 X89.881 Y90.566 E0.00704 F1800.000
G1 X90.302 Y90.754 E0.02874
G1 X90.675 Y91.025 E0.02873
G1 X90.983 Y91.367 E0.02874
G1 X91.214 Y91.766 E0.02874
G1 X91.333 Y92.133 E0.02406
G1 X90.864 Y92.309 F9000.000
G1 X90.901 Y92.662 E0.02218 F1800.000
G1 X90.871 Y92.956 E0.01842
G1 X90.754 Y93.355 E0.02588
G1 X90.576 Y93.663 E0.02218
G1 X90.338 Y93.927 E0.02218
G1 X90.051 Y94.136 E0.02218
