; generated by Slic3r 1.1.7 on 2015-06-19 at 11:35:19

; perimeters extrusion width = 0.50mm
; infill extrusion width = 0.50mm
; solid infill extrusion width = 0.50mm
; top infill extrusion width = 0.50mm

G21 ; set units to millimeters
M107
M190 S57 ; wait for bed temperature to be reached
G28 ; home all axes
M83;
G10 P0 S195 R160                       ; Set tool 0 operating and standby temperatures
T0

G90 ; use absolute coordinates
M83 ; use relative distances for extrusion
G1 F2400.000 E-3.50000
G1 Z0.300 F9000.000
G1 X81.158 Y82.472 F9000.000
G1 E3.50000 F2400.000
G1 X81.390 Y82.273 E0.02801 F1200.000
G1 X81.870 Y81.923 E0.05452
G1 X82.659 Y81.493 E0.08247
G1 X83.224 Y81.271 E0.05567
G1 X93.041 Y78.079 E0.94717
G1 X93.628 Y77.942 E0.05533
G1 X94.226 Y77.868 E0.05521
G1 X94.631 Y77.852 E0.03722
G1 X105.565 Y77.857 E1.00321
G1 X106.164 Y77.909 E0.05521 F1200.000
G1 X106.755 Y78.024 E0.05520
G1 X107.146 Y78.134 E0.03722
G1 X116.514 Y81.185 E0.90399
G1 X117.333 Y81.490 E0.08022
G1 X117.863 Y81.759 E0.05451
G1 X118.604 Y82.268 E0.08247
G1 X118.836 Y82.467 E0.02806
G1 X119.256 Y82.886 E0.05445
G1 X119.804 Y83.599 E0.08250
G1 X120.234 Y84.388 E0.08246
G1 X120.535 Y85.235 E0.08248
G1 X120.606 Y85.532 E0.02800
G1 X120.700 Y86.119 E0.05452
G1 X120.736 Y86.725 E0.05567
G1 X120.723 Y98.017 E1.03612
G1 X120.592 Y98.963 E0.08757
G1 X120.511 Y99.277 E0.02973
G1 X120.370 Y99.718 E0.04246
G1 X112.556 Y119.769 E1.97452
G1 X111.581 Y121.183 E0.15755
G1 X110.077 Y122.011 E0.15755
G1 X109.075 Y122.148 E0.09279
G1 X90.925 Y122.148 E1.66527
G1 X89.254 Y121.753 E0.15755
G1 X87.936 Y120.653 E0.15755
G1 X87.444 Y119.769 E0.09279
G1 X79.491 Y99.286 E2.01608
G1 X79.305 Y98.349 E0.08757
G1 X79.264 Y97.706 E0.05911
G1 X79.276 Y86.432 E1.03447
G1 X79.300 Y86.127 E0.02804
G1 X79.392 Y85.540 E0.05448
G1 X79.646 Y84.678 E0.08249
G1 X80.031 Y83.868 E0.08232
G1 X80.540 Y83.125 E0.08261
G1 X81.106 Y82.526 E0.07559
G1 F2400.000 E-3.50000
G1 X90.934 Y94.589 F9000.000
G1 E3.50000 F2400.000
G1 X90.496 Y94.907 E0.04973 F900.000
G1 X90.001 Y95.128 E0.04971
G1 X89.471 Y95.240 E0.04972
G1 X88.929 Y95.240 E0.04972
G1 X88.399 Y95.127 E0.04972
G1 X87.904 Y94.907 E0.04971
G1 X87.466 Y94.589 E0.04971
G1 X87.103 Y94.186 E0.04973
G1 X86.832 Y93.717 E0.04970
G1 X86.665 Y93.202 E0.04971
G1 X86.608 Y92.663 E0.04972
G1 X86.665 Y92.124 E0.04973
G1 X86.832 Y91.608 E0.04972
G1 X87.103 Y91.139 E0.04971
G1 X87.466 Y90.736 E0.04970
G1 X87.904 Y90.418 E0.04973
G1 X88.399 Y90.197 E0.04971
G1 X88.929 Y90.085 E0.04971
G1 X89.471 Y90.085 E0.04972
G1 X89.866 Y90.169 E0.03710
G1 X90.001 Y90.198 E0.01262 F900.000
G1 X90.496 Y90.418 E0.04971
G1 X90.934 Y90.736 E0.04971
G1 X91.297 Y91.139 E0.04973
G1 X91.568 Y91.608 E0.04970
G1 X91.735 Y92.124 E0.04971
G1 X91.792 Y92.662 E0.04972
G1 X91.735 Y93.201 E0.04973
G1 X91.568 Y93.717 E0.04972
G1 X91.297 Y94.186 E0.04971
G1 X90.985 Y94.533 E0.04282
G1 X90.439 Y94.039 F9000.000
G1 X90.126 Y94.267 E0.03553 F900.000
G1 X89.772 Y94.424 E0.03552
G1 X89.394 Y94.505 E0.03553
G1 X89.006 Y94.505 E0.03553
G1 X88.687 Y94.437 E0.03000
G1 X88.274 Y94.267 E0.04095
G1 X87.961 Y94.039 E0.03552
G1 X87.702 Y93.751 E0.03553
G1 X87.508 Y93.416 E0.03552
G1 X87.388 Y93.048 E0.03552
G1 X87.348 Y92.663 E0.03553
G1 X87.388 Y92.277 E0.03553
G1 X87.508 Y91.909 E0.03553
G1 X87.702 Y91.574 E0.03553
G1 X87.961 Y91.286 E0.03552
G1 X88.225 Y91.094 E0.03001
G1 X88.628 Y90.901 E0.04095
G1 X89.006 Y90.820 E0.03553
G1 X89.394 Y90.820 E0.03553 F900.000
G1 X89.713 Y90.888 E0.03000
G1 X90.126 Y91.058 E0.04095
G1 X90.439 Y91.286 E0.03553
G1 X90.658 Y91.529 E0.03001
G1 X90.892 Y91.909 E0.04094
G1 X91.012 Y92.277 E0.03553
G1 X91.052 Y92.662 E0.03553
G1 X91.012 Y93.048 E0.03553
G1 X90.892 Y93.416 E0.03553
G1 X90.698 Y93.751 E0.03553
G1 X90.490 Y93.983 E0.02864
G1 F2400.000 E-3.50000
G1 X88.939 Y90.439 F9000.000
G1 X108.208 Y92.663 F9000.000
G1 E3.50000 F2400.000
G1 X108.265 Y92.124 E0.04973 F900.000
G1 X108.432 Y91.608 E0.04972
G1 X108.703 Y91.139 E0.04971
G1 X109.066 Y90.736 E0.04970
G1 X109.504 Y90.418 E0.04973
G1 X109.999 Y90.197 E0.04970
G1 X110.529 Y90.085 E0.04971
G1 X111.071 Y90.085 E0.04972
G1 X111.466 Y90.169 E0.03710
G1 X111.601 Y90.198 E0.01262 F900.000
G1 X112.096 Y90.418 E0.04972
G1 X112.534 Y90.736 E0.04971
G1 X112.897 Y91.139 E0.04973
G1 X113.168 Y91.608 E0.04970
G1 X113.335 Y92.123 E0.04971
G1 X113.392 Y92.662 E0.04972
G1 X113.335 Y93.201 E0.04973
G1 X113.168 Y93.717 E0.04972
G1 X112.897 Y94.186 E0.04971
G1 X112.534 Y94.589 E0.04970
G1 X112.096 Y94.907 E0.04973
G1 X111.601 Y95.128 E0.04971
G1 X111.071 Y95.240 E0.04972
G1 X110.529 Y95.240 E0.04972
G1 X109.999 Y95.127 E0.04972
G1 X109.504 Y94.907 E0.04971
G1 X109.066 Y94.589 E0.04970
G1 X108.703 Y94.186 E0.04973
G1 X108.432 Y93.717 E0.04970
G1 X108.265 Y93.201 E0.04971
G1 X108.216 Y92.737 E0.04284
G1 X108.948 Y92.663 F9000.000
G1 X108.988 Y92.277 E0.03553 F900.000
G1 X109.108 Y91.909 E0.03553
G1 X109.302 Y91.574 E0.03553
G1 X109.561 Y91.286 E0.03552
G1 X109.874 Y91.058 E0.03553
G1 X110.228 Y90.901 E0.03552
G1 X110.606 Y90.820 E0.03553
G1 X110.994 Y90.820 E0.03553 F900.000
G1 X111.313 Y90.888 E0.03000
G1 X111.726 Y91.058 E0.04095
G1 X112.039 Y91.286 E0.03552
G1 X112.258 Y91.529 E0.03001
G1 X112.492 Y91.909 E0.04094
G1 X112.612 Y92.277 E0.03552
G1 X112.652 Y92.662 E0.03553
G1 X112.618 Y92.988 E0.03001
G1 X112.492 Y93.416 E0.04095
G1 X112.298 Y93.751 E0.03553
G1 X112.039 Y94.039 E0.03552
G1 X111.726 Y94.267 E0.03553
G1 X111.372 Y94.424 E0.03552
G1 X110.994 Y94.505 E0.03553
G1 X110.606 Y94.505 E0.03553
G1 X110.228 Y94.424 E0.03553
G1 X109.874 Y94.267 E0.03553
G1 X109.561 Y94.039 E0.03552
G1 X109.302 Y93.751 E0.03553
G1 X109.108 Y93.416 E0.03552
G1 X108.988 Y93.048 E0.03553
G1 X108.956 Y92.737 E0.02865
G1 F2400.000 E-3.50000
G1 X110.687 Y90.442 F9000.000
G1 X105.286 Y85.877 F9000.000
G1 E3.50000 F2400.000
G1 X105.286 Y113.148 E2.50215 F900.000
G1 X94.714 Y113.148 E0.96992
G1 X94.714 Y85.877 E2.50215
G1 X105.211 Y85.877 E0.96304
G1 X104.550 Y86.613 F9000.000
G1 X104.550 Y112.413 E2.36716 F900.000
G1 X95.450 Y112.413 E0.83493
G1 X95.450 Y86.613 E2.36716
G1 X104.475 Y86.613 E0.82805
G1 X105.050 Y86.613 F9000.000
G1 X84.303 Y86.219 F9000.000
G1 X84.494 Y86.028 E0.02470 F900.000
G1 X84.775 Y85.889 E0.02879
G1 X94.335 Y82.775 E0.92252
G1 X94.540 Y82.729 E0.01931
G1 X94.661 Y82.723 E0.01105
G1 X105.339 Y82.723 E0.97976
G1 X105.549 Y82.744 E0.01933
G1 X115.225 Y85.889 E0.93354
G1 X115.506 Y86.028 E0.02879
G1 X115.697 Y86.219 E0.02470
G1 X115.819 Y86.459 E0.02470
G1 X115.864 Y86.769 E0.02879
G1 X115.864 Y97.659 E0.99915
G1 X115.848 Y97.849 E0.01751
G1 X115.813 Y97.988 E0.01315
G1 X115.736 Y98.163 E0.01751
G1 X108.301 Y111.766 E1.42237
G1 X108.108 Y112.200 E0.04359
G1 X107.979 Y112.707 E0.04799
G1 X107.939 Y113.181 E0.04360
G1 X107.939 Y117.277 E0.37584
G1 X92.061 Y117.277 E1.45688
G1 X92.061 Y113.181 E0.37581
G1 X92.021 Y112.707 E0.04363
G1 X91.892 Y112.201 E0.04795
G1 X91.699 Y111.766 E0.04363
G1 X84.264 Y98.163 E1.42235
G1 X84.187 Y97.988 E0.01751
G1 X84.152 Y97.849 E0.01315
G1 X84.136 Y97.659 E0.01751
G1 X84.136 Y86.769 E0.99914
G1 X84.181 Y86.459 E0.02879
G1 X84.264 Y86.283 E0.01784
G1 F2400.000 E-3.50000
G1 X91.325 Y118.012 F9000.000
G1 E3.50000 F2400.000
G1 X91.325 Y113.212 E0.44049 F900.000
G1 X91.293 Y112.830 E0.03517
G1 X91.194 Y112.442 E0.03669
G1 X91.039 Y112.092 E0.03516
G1 X83.604 Y98.488 E1.42237
G1 X83.489 Y98.230 E0.02596
G1 X83.424 Y97.972 E0.02443
G1 X83.400 Y97.690 E0.02597
G1 X83.400 Y86.740 E1.00461
G1 X83.421 Y86.475 E0.02445
G1 X83.479 Y86.231 E0.02301
G1 X83.575 Y85.999 E0.02300
G1 X83.706 Y85.785 E0.02300
G1 X83.869 Y85.595 E0.02301
G1 X84.060 Y85.432 E0.02300
G1 X84.273 Y85.301 E0.02300
G1 X84.519 Y85.198 E0.02445
G1 X94.125 Y82.069 E0.92694
G1 X94.463 Y81.997 E0.03170
G1 X94.641 Y81.988 E0.01637
G1 X105.359 Y81.988 E0.98330
G1 X105.702 Y82.023 E0.03172
G1 X115.481 Y85.198 E0.94327
G1 X115.727 Y85.301 E0.02445
G1 X115.940 Y85.432 E0.02301
G1 X116.131 Y85.595 E0.02300
G1 X116.294 Y85.785 E0.02301
G1 X116.425 Y85.999 E0.02300
G1 X116.521 Y86.231 E0.02300
G1 X116.579 Y86.475 E0.02300
G1 X116.600 Y86.740 E0.02445
G1 X116.600 Y97.690 E1.00461
G1 X116.576 Y97.972 E0.02596
G1 X116.511 Y98.230 E0.02443
G1 X116.396 Y98.488 E0.02596
G1 X108.961 Y112.092 E1.42237
G1 X108.806 Y112.442 E0.03515
G1 X108.707 Y112.830 E0.03670
G1 X108.675 Y113.211 E0.03515
G1 X108.675 Y118.012 E0.44050
G1 X91.400 Y118.012 E1.58499
G1 X91.575 Y117.579 F9000.000
G1 X92.574 Y116.724 F9000.000
G1 X92.614 Y116.764 E0.00519 F900.000
G1 X93.671 Y116.764 E0.09702
G1 X92.574 Y115.666 E0.14240
G1 X92.574 Y114.609 E0.09702
G1 X94.729 Y116.764 E0.27961
G1 X95.786 Y116.764 E0.09702
G1 X92.574 Y113.551 E0.41682
G1 X92.470 Y112.389 E0.10702
G1 X96.844 Y116.764 E0.56756
G1 X97.901 Y116.764 E0.09702
G1 X94.799 Y113.661 E0.40252
G1 X95.857 Y113.661 E0.09702
G1 X98.959 Y116.764 E0.40252
G1 X100.016 Y116.764 E0.09702
G1 X96.914 Y113.661 E0.40252
G1 X97.972 Y113.661 E0.09702
G1 X101.074 Y116.764 E0.40252
G1 X102.131 Y116.764 E0.09702
G1 X99.029 Y113.661 E0.40252
G1 X100.086 Y113.661 E0.09702
G1 X103.189 Y116.764 E0.40252
G1 X104.246 Y116.764 E0.09702
G1 X101.144 Y113.661 E0.40252
G1 X102.201 Y113.661 E0.09702
G1 X105.304 Y116.764 E0.40252
G1 X106.361 Y116.764 E0.09702
G1 X103.259 Y113.661 E0.40252
G1 X104.316 Y113.661 E0.09702
G1 X107.402 Y116.747 E0.40042
G1 X107.426 Y115.714 E0.09486
G1 X105.374 Y113.661 E0.26629
G1 X105.799 Y113.029 E0.06991
G1 X107.426 Y114.656 E0.21113
G1 X107.426 Y113.599 E0.09702
G1 X105.799 Y111.972 E0.21113
G1 X105.799 Y110.914 E0.09702
G1 X107.478 Y112.593 E0.21790
G1 X107.730 Y111.788 E0.07746
G1 X105.799 Y109.857 E0.25054
G1 X105.799 Y108.799 E0.09702
G1 X108.087 Y111.087 E0.29687
G1 X108.461 Y110.403 E0.07149
G1 X105.799 Y107.742 E0.34536
G1 X105.799 Y106.684 E0.09702
G1 X108.834 Y109.720 E0.39385
G1 X109.208 Y109.036 E0.07149
G1 X105.799 Y105.627 E0.44234
G1 X105.799 Y104.569 E0.09702
G1 X109.582 Y108.352 E0.49083
G1 X109.955 Y107.668 E0.07149
G1 X105.799 Y103.512 E0.53932
G1 X105.799 Y102.454 E0.09702
G1 X110.329 Y106.985 E0.58781
G1 X110.703 Y106.301 E0.07149
G1 X105.799 Y101.397 E0.63630
G1 X105.799 Y100.339 E0.09702
G1 X111.077 Y105.617 E0.68479
G1 X111.450 Y104.933 E0.07149
G1 X105.799 Y99.282 E0.73328
G1 X105.799 Y98.225 E0.09702
G1 X111.824 Y104.250 E0.78177
G1 X112.198 Y103.566 E0.07149
G1 X105.799 Y97.167 E0.83026
G1 X105.799 Y96.110 E0.09702
G1 X112.571 Y102.882 E0.87875
G1 X112.945 Y102.198 E0.07149
G1 X105.799 Y95.052 E0.92724
G1 X105.799 Y93.995 E0.09702
G1 X113.319 Y101.515 E0.97574
G1 X113.692 Y100.831 E0.07149
G1 X105.799 Y92.937 E1.02423
G1 X108.118 Y94.198 F9000.000
G1 X105.799 Y91.880 E0.30086 F900.000
G1 X105.799 Y90.822 E0.09702
G1 X107.698 Y92.722 E0.24644
G1 X107.831 Y91.797 E0.08570
G1 X105.799 Y89.765 E0.26369
G1 X105.799 Y88.707 E0.09702
G1 X108.154 Y91.063 E0.30564
G1 X108.617 Y90.468 E0.06914
G1 X105.799 Y87.650 E0.36563
G1 X105.799 Y86.592 E0.09702
G1 X109.206 Y90.000 E0.44212
G1 X109.948 Y89.684 E0.07395
G1 X103.500 Y83.236 E0.83656
G1 X104.558 Y83.236 E0.09702
G1 X110.893 Y89.572 E0.82201
G1 X112.346 Y89.968 E0.13822
G1 X105.707 Y83.328 E0.86145
G1 X107.276 Y83.839 E0.15134
G1 X115.351 Y91.915 E1.04782
G1 X115.351 Y90.857 E0.09702
G1 X108.844 Y84.350 E0.84432
G1 X110.412 Y84.861 E0.15134
G1 X115.351 Y89.800 E0.64083
G1 X115.351 Y88.742 E0.09702
G1 X111.981 Y85.372 E0.43733
G1 X113.549 Y85.883 E0.15134
G1 X115.351 Y87.685 E0.23383
G1 X115.305 Y86.582 E0.10130
G1 X115.147 Y86.423 E0.02060
G1 X113.451 Y91.072 F9000.000
G1 X115.351 Y92.972 E0.24656 F900.000
G1 X113.899 Y92.578 E0.13805
G1 X115.351 Y94.030 E0.18840
G1 X115.351 Y95.087 E0.09702
G1 X113.775 Y93.511 E0.20457
G1 X113.454 Y94.248 E0.07374
G1 X115.351 Y96.145 E0.24615
G1 X115.351 Y97.202 E0.09702
G1 X112.994 Y94.845 E0.30582
G1 X112.407 Y95.316 E0.06902
G1 X115.187 Y98.096 E0.36074
G1 X114.814 Y98.779 E0.07149
G1 X111.671 Y95.637 E0.40771
G1 X110.730 Y95.753 E0.08702
G1 X114.440 Y99.463 E0.48136
G1 X114.066 Y100.147 E0.07149
G1 X109.295 Y95.376 E0.61906
G1 X102.443 Y83.236 F9000.000
G1 X104.570 Y85.364 E0.27601 F900.000
G1 X103.513 Y85.364 E0.09702
G1 X101.385 Y83.236 E0.27601
G1 X100.328 Y83.236 E0.09702
G1 X102.455 Y85.364 E0.27601
G1 X101.398 Y85.364 E0.09702
G1 X99.271 Y83.236 E0.27601
G1 X98.213 Y83.236 E0.09702
G1 X100.340 Y85.364 E0.27601
G1 X99.283 Y85.364 E0.09702
G1 X97.156 Y83.236 E0.27601
G1 X96.098 Y83.236 E0.09702
G1 X98.225 Y85.364 E0.27601
G1 X97.168 Y85.364 E0.09702
G1 X95.041 Y83.236 E0.27601
G1 X94.133 Y83.387 E0.08438
G1 X96.110 Y85.364 E0.25652
G1 X95.053 Y85.364 E0.09702
G1 X93.335 Y83.646 E0.22286
G1 X92.537 Y83.905 E0.07699
G1 X94.201 Y85.569 E0.21589
G1 X94.201 Y86.627 E0.09702
G1 X91.739 Y84.165 E0.31944
G1 X90.941 Y84.424 E0.07699
G1 X94.201 Y87.684 E0.42299
G1 X94.201 Y88.742 E0.09702
G1 X90.143 Y84.684 E0.52654
G1 X89.345 Y84.943 E0.07699
G1 X94.201 Y89.799 E0.63009
G1 X94.201 Y90.857 E0.09702
G1 X88.547 Y85.202 E0.73365
G1 X87.749 Y85.462 E0.07699
G1 X94.201 Y91.914 E0.83720
G1 X94.201 Y92.972 E0.09702
G1 X86.951 Y85.721 E0.94075
G1 X86.153 Y85.981 E0.07699
G1 X89.803 Y89.631 E0.47359
G1 X88.719 Y89.605 E0.09943
G1 X85.355 Y86.240 E0.43656
G1 X84.676 Y86.619 E0.07130
G1 X87.910 Y89.853 E0.41961
G1 X87.255 Y90.255 E0.07055
G1 X84.649 Y87.649 E0.33813
G1 X84.649 Y88.707 E0.09702
G1 X86.729 Y90.787 E0.26994
G1 X86.342 Y91.457 E0.07101
G1 X84.649 Y89.764 E0.21964
G1 X84.649 Y90.822 E0.09702
G1 X86.130 Y92.303 E0.19216
G1 X86.199 Y93.429 E0.10357
G1 X84.649 Y91.879 E0.20114
G1 X84.649 Y92.937 E0.09702
G1 X94.201 Y102.489 E1.23944
G1 X94.201 Y103.546 E0.09702
G1 X84.649 Y93.994 E1.23944
G1 X84.649 Y95.051 E0.09702
G1 X94.201 Y104.604 E1.23944
G1 X94.201 Y105.661 E0.09702
G1 X84.649 Y96.109 E1.23944
G1 X84.649 Y97.166 E0.09702
G1 X94.201 Y106.719 E1.23944
G1 X94.201 Y107.776 E0.09702
G1 X85.165 Y98.740 E1.17253
G1 X86.439 Y101.072 F9000.000
G1 X94.201 Y108.834 E1.00715 F900.000
G1 X94.201 Y109.891 E0.09702
G1 X87.714 Y103.404 E0.84176
G1 X88.988 Y105.736 F9000.000
G1 X94.201 Y110.948 E0.67638 F900.000
G1 X94.201 Y112.006 E0.09702
G1 X90.263 Y108.068 E0.51099
G1 X91.538 Y110.400 F9000.000
G1 X94.201 Y113.063 E0.34561 F900.000
G1 X88.428 Y95.658 F9000.000
G1 X94.201 Y101.431 E0.74904 F900.000
G1 X94.201 Y100.374 E0.09702
G1 X89.571 Y95.744 E0.60078
G1 X90.398 Y95.513 E0.07874
G1 X94.201 Y99.316 E0.49352
G1 X94.201 Y98.259 E0.09702
G1 X91.068 Y95.126 E0.40652
G1 X91.608 Y94.608 E0.06862
G1 X94.201 Y97.201 E0.33651
G1 X94.201 Y96.144 E0.09702
G1 X92.019 Y93.962 E0.28314
G1 X92.258 Y93.143 E0.07826
G1 X94.201 Y95.086 E0.25219
G1 X94.201 Y94.029 E0.09702
G1 X92.246 Y92.074 E0.25366
G1 F2400.000 E-3.50000
G1 Z0.600 F9000.000
G1 X89.430 Y94.855 F9000.000
G1 E3.50000 F2400.000
G1 X88.970 Y94.855 E0.02873 F1800.000
G1 X88.519 Y94.759 E0.02874
G1 X88.098 Y94.571 E0.02874
G1 X87.725 Y94.300 E0.02874
G1 X87.417 Y93.958 E0.02874
G1 X87.186 Y93.559 E0.02874
G1 X87.044 Y93.121 E0.02873
G1 X86.996 Y92.663 E0.02874
G1 X87.044 Y92.204 E0.02874
G1 X87.186 Y91.766 E0.02874
G1 X87.417 Y91.367 E0.02873
G1 X87.725 Y91.025 E0.02874
G1 X88.098 Y90.754 E0.02874
G1 X88.519 Y90.566 E0.02874
G1 X88.970 Y90.470 E0.02874
G1 X89.430 Y90.470 E0.02874
G1 X89.751 Y90.539 E0.02042
G1 X89.881 Y90.566 E0.00832 F1800.000
G1 X90.302 Y90.754 E0.02874
G1 X90.675 Y91.025 E0.02874
G1 X90.983 Y91.367 E0.02874
G1 X91.214 Y91.766 E0.02874
G1 X91.356 Y92.204 E0.02873
G1 X91.404 Y92.662 E0.02874
G1 X91.356 Y93.121 E0.02874
G1 X91.214 Y93.559 E0.02874
G1 X90.983 Y93.958 E0.02873
G1 X90.675 Y94.300 E0.02874
