; generated by Slic3r 1.1.7 on 2015-06-19 at 16:09:36

; perimeters extrusion width = 0.50mm
; infill extrusion width = 0.50mm
; solid infill extrusion width = 0.50mm
; top infill extrusion width = 0.50mm

G21 ; set units to millimeters
M107
M190 S57 ; wait for bed temperature to be reached
G28 ; home all axes
M83;
G10 P0 S195 R160                       ; Set tool 0 operating and standby temperatures
T0

G90 ; use absolute coordinates
M83 ; use relative distances for extrusion
G1 F2400.000 E-3.50000
G1 Z0.300 F9000.000
G1 X82.785 Y83.741 F9000.000
G1 E3.50000 F2400.000
G1 X83.868 Y83.178 E0.11201 F1200.000
G1 X93.478 Y80.048 E0.92731
G1 X94.635 Y79.864 E0.10748
G1 X105.365 Y79.864 E0.98451
G1 X106.522 Y80.048 E0.10748
G1 X116.132 Y83.178 E0.92731 F1200.000
G1 X117.599 Y84.071 E0.15755
G1 X118.511 Y85.526 E0.15755
G1 X118.711 Y86.730 E0.11201
G1 X118.711 Y97.688 E1.00534
G1 X118.415 Y99.144 E0.13639
G1 X110.490 Y117.857 E1.86451
G1 X109.475 Y119.242 E0.15755
G1 X107.947 Y120.026 E0.15755
G1 X107.050 Y120.136 E0.08294
G1 X92.950 Y120.136 E1.29368
G1 X91.279 Y119.741 E0.15755
G1 X89.961 Y118.640 E0.15755
G1 X89.510 Y117.857 E0.08294
G1 X81.585 Y99.144 E1.86451
G1 X81.289 Y97.688 E0.13639
G1 X81.289 Y86.730 E1.00534
G1 X81.684 Y85.059 E0.15755
G1 X82.737 Y83.799 E0.15067
G1 F2400.000 E-3.50000
G1 X90.510 Y93.960 F9000.000
G1 E3.50000 F2400.000
G1 X90.229 Y94.190 E0.03331 F900.000
G1 X89.909 Y94.361 E0.03331
G1 X89.561 Y94.466 E0.03331
G1 X89.251 Y94.497 E0.02858
G1 X88.839 Y94.466 E0.03796
G1 X88.491 Y94.361 E0.03331
G1 X88.171 Y94.190 E0.03331
G1 X87.890 Y93.960 E0.03331
G1 X87.660 Y93.679 E0.03331
G1 X87.489 Y93.359 E0.03331
G1 X87.384 Y93.011 E0.03331
G1 X87.348 Y92.650 E0.03331
G1 X87.384 Y92.289 E0.03330
G1 X87.474 Y91.991 E0.02858
G1 X87.660 Y91.621 E0.03796
G1 X87.890 Y91.340 E0.03331
G1 X88.171 Y91.110 E0.03331
G1 X88.491 Y90.939 E0.03331
G1 X88.839 Y90.834 E0.03331
G1 X89.200 Y90.798 E0.03331
G1 X89.510 Y90.829 E0.02857
G1 X89.909 Y90.939 E0.03796 F900.000
G1 X90.229 Y91.110 E0.03331
G1 X90.510 Y91.340 E0.03331
G1 X90.740 Y91.621 E0.03331
G1 X90.911 Y91.941 E0.03331
G1 X91.016 Y92.289 E0.03331
G1 X91.047 Y92.599 E0.02858
G1 X91.016 Y93.011 E0.03796
G1 X90.911 Y93.359 E0.03331
G1 X90.740 Y93.679 E0.03331
G1 X90.557 Y93.902 E0.02643
G1 F2400.000 E-3.50000
G1 X89.528 Y90.415 F9000.000
G1 X108.948 Y92.650 F9000.000
G1 E3.50000 F2400.000
G1 X108.984 Y92.289 E0.03331 F900.000
G1 X109.089 Y91.941 E0.03331
G1 X109.260 Y91.621 E0.03331
G1 X109.490 Y91.340 E0.03331
G1 X109.771 Y91.110 E0.03331
G1 X110.091 Y90.939 E0.03331
G1 X110.439 Y90.834 E0.03331
G1 X110.800 Y90.798 E0.03331
G1 X111.110 Y90.829 E0.02857
G1 X111.509 Y90.939 E0.03796 F900.000
G1 X111.829 Y91.110 E0.03331
G1 X112.110 Y91.340 E0.03331
G1 X112.340 Y91.621 E0.03331
G1 X112.511 Y91.941 E0.03331
G1 X112.616 Y92.289 E0.03331
G1 X112.647 Y92.599 E0.02858
G1 X112.616 Y93.011 E0.03796
G1 X112.511 Y93.359 E0.03331
G1 X112.364 Y93.633 E0.02858
G1 X112.110 Y93.960 E0.03796
G1 X111.829 Y94.190 E0.03331
G1 X111.509 Y94.361 E0.03331
G1 X111.161 Y94.466 E0.03331
G1 X110.800 Y94.502 E0.03331
G1 X110.439 Y94.466 E0.03330
G1 X110.091 Y94.361 E0.03331
G1 X109.771 Y94.190 E0.03331
G1 X109.490 Y93.960 E0.03331
G1 X109.260 Y93.679 E0.03331
G1 X109.089 Y93.359 E0.03331
G1 X108.984 Y93.011 E0.03331
G1 X108.955 Y92.725 E0.02643
G1 F2400.000 E-3.50000
G1 X111.285 Y90.454 F9000.000
G1 X105.286 Y99.864 F9000.000
G1 E3.50000 F2400.000
G1 X105.286 Y113.136 E1.21764 F900.000
G1 X94.714 Y113.136 E0.96992
G1 X94.714 Y99.864 E1.21764
G1 X105.211 Y99.864 E0.96304
G1 X104.550 Y100.600 F9000.000
G1 X104.550 Y112.400 E1.08266 F900.000
G1 X95.450 Y112.400 E0.83493
G1 X95.450 Y100.600 E1.08266
G1 X104.475 Y100.600 E0.82805
G1 X105.050 Y100.600 F9000.000
G1 X113.337 Y93.169 F9000.000
G1 X113.839 Y93.243 E0.04658 F900.000
G1 X113.839 Y97.397 E0.38113
G1 X105.914 Y111.897 E1.51612
G1 X105.914 Y115.264 E0.30892
G1 X94.086 Y115.264 E1.08530
G1 X94.086 Y111.897 E0.30892
G1 X86.161 Y97.397 E1.51612
G1 X86.161 Y93.243 E0.38113
G1 X86.663 Y93.169 E0.04658
G1 X86.806 Y93.642 E0.04532
G1 X87.046 Y94.090 E0.04660
G1 X87.368 Y94.482 E0.04660
G1 X87.760 Y94.804 E0.04660
G1 X88.208 Y95.044 E0.04661
G1 X88.695 Y95.191 E0.04661
G1 X89.200 Y95.241 E0.04659
G1 X89.705 Y95.191 E0.04661
G1 X90.192 Y95.044 E0.04661
G1 X90.640 Y94.804 E0.04660
G1 X91.032 Y94.482 E0.04660
G1 X91.354 Y94.090 E0.04660
G1 X91.594 Y93.642 E0.04661
G1 X91.741 Y93.155 E0.04661
G1 X91.791 Y92.650 E0.04659
G1 X91.741 Y92.145 E0.04661
G1 X91.594 Y91.658 E0.04661
G1 X91.354 Y91.210 E0.04660
G1 X91.032 Y90.818 E0.04660
G1 X90.936 Y90.739 E0.01138
G1 X90.640 Y90.496 E0.03522
G1 X90.192 Y90.256 E0.04661
G1 X89.705 Y90.109 E0.04661
G1 X89.200 Y90.059 E0.04659
G1 X88.694 Y90.109 E0.04661
G1 X88.208 Y90.256 E0.04661
G1 X87.760 Y90.496 E0.04660
G1 X87.368 Y90.818 E0.04660
G1 X87.046 Y91.210 E0.04660
G1 X86.806 Y91.658 E0.04661
G1 X86.663 Y92.131 E0.04532
G1 X86.161 Y92.057 E0.04658
G1 X86.161 Y87.555 E0.41305
G1 X94.815 Y84.736 E0.83512
G1 X105.185 Y84.736 E0.95143
G1 X113.839 Y87.555 E0.83512
G1 X113.839 Y92.057 E0.41305
G1 X113.337 Y92.131 E0.04658
G1 X113.194 Y91.658 E0.04532
G1 X112.954 Y91.210 E0.04660
G1 X112.632 Y90.818 E0.04660
G1 X112.240 Y90.496 E0.04660
G1 X111.792 Y90.256 E0.04661
G1 X111.305 Y90.109 E0.04661
G1 X110.800 Y90.059 E0.04659
G1 X110.294 Y90.109 E0.04662
G1 X109.808 Y90.256 E0.04661
G1 X109.360 Y90.496 E0.04660
G1 X108.968 Y90.818 E0.04660
G1 X108.646 Y91.210 E0.04660
G1 X108.406 Y91.658 E0.04661
G1 X108.259 Y92.145 E0.04661
G1 X108.209 Y92.650 E0.04659
G1 X108.259 Y93.156 E0.04661
G1 X108.406 Y93.642 E0.04661
G1 X108.646 Y94.090 E0.04660
G1 X108.968 Y94.482 E0.04660
G1 X109.360 Y94.804 E0.04660
G1 X109.808 Y95.044 E0.04661
G1 X110.295 Y95.191 E0.04661
G1 X110.800 Y95.241 E0.04659
G1 X111.305 Y95.191 E0.04661
G1 X111.792 Y95.044 E0.04661
G1 X112.240 Y94.804 E0.04660
G1 X112.632 Y94.482 E0.04660
G1 X112.954 Y94.090 E0.04660
G1 X113.194 Y93.642 E0.04661
G1 X113.315 Y93.241 E0.03843
G1 X114.575 Y87.021 F9000.000
G1 X114.575 Y97.585 E0.96932 F900.000
G1 X106.650 Y112.085 E1.51612
G1 X106.650 Y116.000 E0.35917
G1 X93.350 Y116.000 E1.22028
G1 X93.350 Y112.085 E0.35917
G1 X85.425 Y97.585 E1.51612
G1 X85.425 Y87.021 E0.96932
G1 X94.698 Y84.000 E0.89483
G1 X105.302 Y84.000 E0.97286
G1 X114.504 Y86.997 E0.88795
G1 X114.281 Y87.425 F9000.000
G1 X105.361 Y113.649 F9000.000
G1 X105.401 Y113.689 E0.00519 F900.000
G1 X105.375 Y114.737 E0.09623
G1 X104.286 Y113.649 E0.14124
G1 X103.211 Y113.649 E0.09863
G1 X104.313 Y114.751 E0.14301
G1 X103.238 Y114.751 E0.09863
G1 X102.136 Y113.649 E0.14301
G1 X101.061 Y113.649 E0.09863
G1 X102.163 Y114.751 E0.14301
G1 X101.089 Y114.751 E0.09863
G1 X99.986 Y113.649 E0.14301
G1 X98.911 Y113.649 E0.09863
G1 X100.014 Y114.751 E0.14301
G1 X98.939 Y114.751 E0.09863
G1 X97.837 Y113.649 E0.14301
G1 X96.762 Y113.649 E0.09863
G1 X97.864 Y114.751 E0.14301
G1 X96.789 Y114.751 E0.09863
G1 X95.687 Y113.649 E0.14301
G1 X94.625 Y113.663 E0.09739
G1 X95.714 Y114.751 E0.14124
G1 X94.639 Y114.751 E0.09863
G1 X94.599 Y114.711 E0.00519
G1 F2400.000 E-3.50000
G1 X105.804 Y111.019 F9000.000
G1 E3.50000 F2400.000
G1 X106.152 Y109.658 E0.07385 F600.000
G1 F2400.000 E-3.50000
G1 X94.196 Y111.019 F9000.000
G1 E3.50000 F2400.000
G1 X93.848 Y109.658 E0.07385 F600.000
G1 X93.201 Y109.209 F9000.000
G1 X93.268 Y109.276 E0.00866 F900.000
G1 X94.113 Y109.060 E0.08002
G1 X91.923 Y106.870 E0.28420
G1 X90.644 Y104.530 F9000.000
G1 X94.201 Y108.087 E0.46153 F900.000
G1 X94.201 Y107.027 E0.09733
G1 X89.366 Y102.191 E0.62744
G1 X88.087 Y99.852 F9000.000
G1 X94.201 Y105.966 E0.79335 F900.000
G1 X94.201 Y104.905 E0.09733
G1 X86.808 Y97.512 E0.95925
G1 X86.674 Y96.317 E0.11035
G1 X94.201 Y103.844 E0.97668
G1 F2400.000 E-3.50000
G1 X99.255 Y99.351 F9000.000
G1 E3.50000 F2400.000
G1 X92.280 Y92.375 E0.90512 F900.000
G1 X92.213 Y93.369 E0.09139
G1 X98.195 Y99.351 E0.77617
G1 X97.134 Y99.351 E0.09733
G1 X91.914 Y94.131 E0.67729
G1 X91.474 Y94.752 E0.06982
G1 X96.073 Y99.351 E0.59669
G1 X95.012 Y99.351 E0.09733
G1 X90.905 Y95.244 E0.53287
G1 X90.183 Y95.583 E0.07319
G1 X94.201 Y99.601 E0.52135
G1 X94.201 Y100.662 E0.09733
G1 X89.288 Y95.748 E0.63753
G1 X87.985 Y95.507 E0.12154
G1 X94.201 Y101.722 E0.80653
G1 X94.201 Y102.783 E0.09733
G1 X86.674 Y95.256 E0.97668
G1 X86.674 Y89.952 F9000.000
G1 X87.098 Y90.376 E0.05496 F900.000
G1 X87.719 Y89.936 E0.06982
G1 X86.674 Y88.891 E0.13556
G1 X86.747 Y87.904 E0.09087
G1 X88.481 Y89.637 E0.22495
G1 X89.475 Y89.570 E0.09139
G1 X87.547 Y87.643 E0.25007
G1 X88.347 Y87.382 E0.07721
G1 X100.316 Y99.351 E1.55302
G1 X101.377 Y99.351 E0.09733
G1 X89.148 Y87.122 E1.58684
G1 X89.948 Y86.861 E0.07721
G1 X102.438 Y99.351 E1.62066
G1 X103.499 Y99.351 E0.09733
G1 X90.748 Y86.600 E1.65448
G1 X91.548 Y86.340 E0.07721
G1 X104.560 Y99.351 E1.68830
G1 X110.482 Y95.726 F9000.000
G1 X112.865 Y98.109 E0.30931 F900.000
G1 X113.240 Y97.423 E0.07172
G1 X111.489 Y95.672 E0.22724
G1 X112.256 Y95.378 E0.07534
G1 X113.326 Y96.448 E0.13891
G1 X113.326 Y95.388 E0.09733
G1 X112.881 Y94.942 E0.05779
G1 X112.490 Y98.795 F9000.000
G1 X98.944 Y85.249 E1.75771 F900.000
G1 X97.883 Y85.249 E0.09733
G1 X112.116 Y99.481 E1.84671
G1 X111.741 Y100.167 E0.07172
G1 X96.822 Y85.249 E1.93571
G1 X95.762 Y85.249 E0.09733
G1 X111.366 Y100.853 E2.02471
G1 X110.991 Y101.539 E0.07172
G1 X94.749 Y85.297 E2.10747
G1 X93.949 Y85.558 E0.07721
G1 X110.616 Y102.225 E2.16265
G1 X110.241 Y102.911 E0.07172
G1 X93.149 Y85.818 E2.21784
G1 X92.348 Y86.079 E0.07721
G1 X109.866 Y103.597 E2.27302
G1 X109.491 Y104.283 E0.07172
G1 X105.799 Y100.590 E0.47910
G1 X105.799 Y101.651 E0.09733
G1 X109.116 Y104.969 E0.43045
G1 X108.741 Y105.655 E0.07172
G1 X105.799 Y102.712 E0.38181
G1 X105.799 Y103.773 E0.09733
G1 X108.367 Y106.341 E0.33316
G1 X107.992 Y107.026 E0.07172
G1 X105.799 Y104.834 E0.28452
G1 X105.799 Y105.895 E0.09733
G1 X107.617 Y107.712 E0.23587
G1 X107.242 Y108.398 E0.07172
G1 X105.799 Y106.955 E0.18723
G1 X105.799 Y108.016 E0.09733
G1 X106.867 Y109.084 E0.13859
G1 X107.724 Y92.969 F9000.000
G1 X100.005 Y85.249 E1.00165 F900.000
G1 X101.066 Y85.249 E0.09733
G1 X107.778 Y91.961 E0.87094
G1 X108.072 Y91.194 E0.07534
G1 X102.127 Y85.249 E0.77146
G1 X103.187 Y85.249 E0.09733
G1 X108.508 Y90.569 E0.69034
G1 X109.070 Y90.070 E0.06894
G1 X104.248 Y85.249 E0.62559
G1 X105.408 Y85.348 E0.10684
G1 X109.786 Y89.726 E0.56808
G1 X110.676 Y89.555 E0.08313
G1 X106.982 Y85.861 E0.47939
G1 X108.555 Y86.373 E0.15182
G1 X111.949 Y89.768 E0.44043
G1 X113.326 Y90.084 E0.12960
G1 X110.128 Y86.886 E0.41493
G1 X111.702 Y87.398 E0.15182
G1 X113.326 Y89.023 E0.21079
G1 X113.326 Y87.962 E0.09733
G1 X113.275 Y87.911 E0.00664
G1 F2400.000 E-3.50000
G1 Z0.600 F9000.000
G1 X91.361 Y92.220 F9000.000
G1 E3.50000 F2400.000
G1 X91.404 Y92.650 E0.02694 F1800.000
G1 X91.372 Y92.970 E0.02006
G1 X91.361 Y93.080 E0.00689
G1 X91.236 Y93.493 E0.02694
G1 X91.032 Y93.874 E0.02694
G1 X90.758 Y94.208 E0.02694
G1 X90.424 Y94.482 E0.02694
G1 X90.141 Y94.634 E0.02006
G1 X90.043 Y94.686 E0.00689
G1 X89.630 Y94.811 E0.02694
G1 X89.200 Y94.854 E0.02694
G1 X88.770 Y94.811 E0.02694
G1 X88.357 Y94.686 E0.02694
G1 X87.976 Y94.482 E0.02694
G1 X87.642 Y94.208 E0.02694
G1 X87.368 Y93.874 E0.02694
G1 X87.164 Y93.493 E0.02694
G1 X87.039 Y93.080 E0.02694
G1 X86.996 Y92.650 E0.02694
G1 X87.039 Y92.220 E0.02694
G1 X87.164 Y91.807 E0.02694
G1 X87.368 Y91.426 E0.02694
G1 X87.642 Y91.092 E0.02694
G1 X87.976 Y90.818 E0.02694
G1 X88.357 Y90.614 E0.02694
G1 X88.770 Y90.489 E0.02694
G1 X89.200 Y90.446 E0.02694
G1 X89.520 Y90.478 E0.02006
G1 X89.630 Y90.489 E0.00689 F1800.000
G1 X90.043 Y90.614 E0.02694
G1 X90.424 Y90.818 E0.02694
G1 X90.758 Y91.092 E0.02694
G1 X91.032 Y91.426 E0.02694
G1 X91.236 Y91.807 E0.02694
G1 X91.340 Y92.148 E0.02226
G1 X90.869 Y92.318 F9000.000
G1 X90.901 Y92.650 E0.02080 F1800.000
G1 X90.869 Y92.982 E0.02080
G1 X90.772 Y93.301 E0.02080
G1 X90.615 Y93.595 E0.02080
G1 X90.403 Y93.853 E0.02080
G1 X90.145 Y94.065 E0.02080
G1 X89.851 Y94.222 E0.02080
G1 X89.590 Y94.301 E0.01698
G1 X89.200 Y94.351 E0.02455
G1 X88.868 Y94.319 E0.02080
G1 X88.549 Y94.222 E0.02080
G1 X88.255 Y94.065 E0.02080
G1 X87.997 Y93.853 E0.02080
G1 X87.785 Y93.595 E0.02080
G1 X87.628 Y93.301 E0.02080
G1 X87.531 Y92.982 E0.02080
G1 X87.499 Y92.650 E0.02080
G1 X87.531 Y92.318 E0.02080
G1 X87.628 Y91.999 E0.02080
G1 X87.785 Y91.705 E0.02080
G1 X87.997 Y91.447 E0.02080
G1 X88.255 Y91.235 E0.02080
G1 X88.549 Y91.078 E0.02080
G1 X88.868 Y90.981 E0.02080
G1 X89.139 Y90.955 E0.01698
G1 X89.532 Y90.981 E0.02455 F1800.000
G1 X89.851 Y91.078 E0.02080
G1 X90.145 Y91.235 E0.02080
G1 X90.403 Y91.447 E0.02080
G1 X90.615 Y91.705 E0.02080
G1 X90.772 Y91.999 E0.02080
G1 X90.847 Y92.246 E0.01612
G1 F2400.000 E-3.50000
G1 X89.027 Y90.577 F9000.000
G1 X108.596 Y92.650 F9000.000
G1 E3.50000 F2400.000
G1 X108.639 Y92.220 E0.02694 F1800.000
G1 X108.764 Y91.807 E0.02694
G1 X108.968 Y91.426 E0.02694
G1 X109.242 Y91.092 E0.02694
G1 X109.576 Y90.818 E0.02694
G1 X109.957 Y90.614 E0.02694
G1 X110.370 Y90.489 E0.02694
G1 X110.800 Y90.446 E0.02694
G1 X111.120 Y90.478 E0.02006
G1 X111.230 Y90.489 E0.00689 F1800.000
G1 X111.643 Y90.614 E0.02694
G1 X112.024 Y90.818 E0.02694
G1 X112.358 Y91.092 E0.02694
G1 X112.632 Y91.426 E0.02694
G1 X112.836 Y91.807 E0.02694
G1 X112.961 Y92.220 E0.02694
G1 X113.004 Y92.650 E0.02694
G1 X112.961 Y93.080 E0.02694
G1 X112.836 Y93.493 E0.02694
G1 X112.632 Y93.874 E0.02694
G1 X112.358 Y94.208 E0.02694
G1 X112.024 Y94.482 E0.02694
G1 X111.741 Y94.634 E0.02006
G1 X111.643 Y94.686 E0.00689
G1 X111.230 Y94.811 E0.02694
G1 X110.800 Y94.854 E0.02694
G1 X110.370 Y94.811 E0.02694
G1 X109.957 Y94.686 E0.02694
G1 X109.576 Y94.482 E0.02694
G1 X109.242 Y94.208 E0.02694
G1 X108.968 Y93.874 E0.02694
G1 X108.764 Y93.493 E0.02694
G1 X108.639 Y93.080 E0.02694
G1 X108.604 Y92.725 E0.02226
G1 X109.099 Y92.650 F9000.000
G1 X109.131 Y92.318 E0.02080 F1800.000
G1 X109.228 Y91.999 E0.02080
G1 X109.386 Y91.705 E0.02080
G1 X109.597 Y91.447 E0.02080
G1 X109.855 Y91.235 E0.02080
G1 X110.149 Y91.078 E0.02080
G1 X110.468 Y90.981 E0.02080
G1 X110.739 Y90.955 E0.01698
G1 X111.132 Y90.981 E0.02455 F1800.000
G1 X111.451 Y91.078 E0.02080
G1 X111.745 Y91.235 E0.02080
G1 X112.003 Y91.447 E0.02080
G1 X112.215 Y91.705 E0.02080
G1 X112.372 Y91.999 E0.02080
G1 X112.469 Y92.318 E0.02080
G1 X112.501 Y92.650 E0.02080
G1 X112.469 Y92.982 E0.02080
G1 X112.372 Y93.301 E0.02080
G1 X112.215 Y93.595 E0.02080
G1 X112.003 Y93.853 E0.02080
G1 X111.745 Y94.065 E0.02080
G1 X111.505 Y94.193 E0.01698
G1 X111.132 Y94.319 E0.02455
G1 X110.800 Y94.351 E0.02080
G1 X110.468 Y94.319 E0.02080
G1 X110.149 Y94.222 E0.02080
G1 X109.855 Y94.065 E0.02080
G1 X109.597 Y93.853 E0.02080
G1 X109.385 Y93.595 E0.02080
G1 X109.228 Y93.301 E0.02080
G1 X109.131 Y92.982 E0.02080
G1 X109.106 Y92.725 E0.01612
G1 F2400.000 E-3.50000
G1 X110.844 Y90.575 F9000.000
G1 X104.900 Y100.250 F9000.000
G1 E3.50000 F2400.000
G1 X104.900 Y112.750 E0.77953 F1800.000
G1 X95.100 Y112.750 E0.61116
G1 X95.100 Y100.250 E0.77953
G1 X104.825 Y100.250 E0.60648
G1 X104.400 Y100.750 F9000.000
G1 X104.400 Y112.250 E0.71717 F1800.000
G1 X95.600 Y112.250 E0.54879
G1 X95.600 Y100.750 E0.71717
G1 X104.325 Y100.750 E0.54412
G1 X104.900 Y100.750 F9000.000
G1 X106.300 Y115.650 F9000.000
G1 X93.700 Y115.650 E0.78577 F1800.000
G1 X93.700 Y111.996 E0.22788
G1 X85.775 Y97.496 E1.03051
G1 X85.775 Y87.275 E0.63742
G1 X94.754 Y84.350 E0.58891
G1 X105.246 Y84.350 E0.65432
G1 X114.225 Y87.275 E0.58891
G1 X114.225 Y97.496 E0.63742
