; generated by Slic3r 1.2.9 on 2015-06-23 at 14:21:31

; external perimeters extrusion width = 0.50mm
; perimeters extrusion width = 0.50mm
; infill extrusion width = 0.50mm
; solid infill extrusion width = 0.50mm
; top infill extrusion width = 0.50mm

M107
M190 S57 ; set bed temperature
G28 ; home all axes
M83;
G10 P0 S195 R160                       ; Set tool 0 operating and standby temperatures
T0

G21 ; set units to millimeters
G90 ; use absolute coordinates
M83 ; use relative distances for extrusion
G1 E-3.50000 F2400.00000
G1 Z0.300 F9000.000
G1 X82.851 Y78.684 F9000.000
G1 E3.50000 F2400.00000
G1 X83.098 Y78.437 E0.03202 F1200.000
G1 X83.597 Y78.018 E0.05975
G1 X83.883 Y77.818 E0.03204
G1 X84.446 Y77.493 E0.05968
G1 X84.763 Y77.345 E0.03202
G1 X85.374 Y77.123 E0.05971
G1 X85.704 Y77.034 E0.03133
G1 X86.352 Y76.920 E0.06040
G1 X86.700 Y76.889 E0.03201
G1 X87.025 Y76.875 E0.02988
G1 X112.975 Y76.875 E2.38093
G1 X113.301 Y76.889 E0.02990
G1 X113.648 Y76.920 E0.03199 F1200.000
G1 X114.289 Y77.033 E0.05975
G1 X114.627 Y77.123 E0.03207
G1 X115.238 Y77.346 E0.05966
G1 X115.554 Y77.493 E0.03202
G1 X116.118 Y77.818 E0.05971
G1 X116.403 Y78.018 E0.03199
G1 X116.902 Y78.437 E0.05975
G1 X117.149 Y78.684 E0.03199
G1 X117.567 Y79.182 E0.05974
G1 X117.767 Y79.468 E0.03205
G1 X118.093 Y80.032 E0.05968
G1 X118.240 Y80.348 E0.03199
G1 X118.463 Y80.960 E0.05975
G1 X118.553 Y81.296 E0.03199
G1 X118.666 Y81.938 E0.05974
G1 X118.711 Y82.611 E0.06187
G1 X118.711 Y95.666 E1.19785
G1 X118.670 Y96.309 E0.05907
G1 X118.567 Y96.922 E0.05708
G1 X118.484 Y97.246 E0.03064
G1 X118.280 Y97.834 E0.05708
G1 X118.123 Y98.187 E0.03550
G1 X110.310 Y115.162 E1.71453
G1 X110.168 Y115.468 E0.03092
G1 X109.853 Y116.016 E0.05804
G1 X109.642 Y116.318 E0.03373
G1 X109.224 Y116.816 E0.05974
G1 X108.936 Y117.103 E0.03727
G1 X104.613 Y121.296 E0.55254
G1 X103.960 Y121.832 E0.07756
G1 X103.504 Y122.137 E0.05031
G1 X103.120 Y122.354 E0.04044
G1 X102.624 Y122.588 E0.05036
G1 X102.212 Y122.747 E0.04044
G1 X101.687 Y122.906 E0.05036
G1 X101.256 Y123.002 E0.04052
G1 X100.714 Y123.083 E0.05029
G1 X100.274 Y123.115 E0.04046
G1 X99.726 Y123.115 E0.05034
G1 X99.286 Y123.083 E0.04044
G1 X98.743 Y123.002 E0.05036
G1 X98.313 Y122.906 E0.04044
G1 X97.788 Y122.747 E0.05036
G1 X86.242 Y118.274 E1.13598
G1 X85.691 Y118.007 E0.05620
G1 X85.414 Y117.835 E0.02993
G1 X84.760 Y117.313 E0.07675
G1 X84.601 Y117.153 E0.02072
G1 X84.080 Y116.500 E0.07665
G1 X83.964 Y116.316 E0.01997
G1 X83.598 Y115.556 E0.07740
G1 X83.462 Y115.152 E0.03908
G1 X83.338 Y114.528 E0.05836
G1 X81.340 Y96.407 E1.67273
G1 X81.289 Y95.666 E0.06812
G1 X81.289 Y82.611 E1.19785
G1 X81.334 Y81.937 E0.06190
G1 X81.447 Y81.296 E0.05971
G1 X81.535 Y80.967 E0.03133
G1 X81.760 Y80.348 E0.06040
G1 X81.907 Y80.032 E0.03202
G1 X82.233 Y79.468 E0.05971
G1 X82.433 Y79.182 E0.03203
G1 X82.803 Y78.741 E0.05278
G1 E-3.50000 F2400.00000
G1 X105.286 Y111.625 F9000.000
G1 E3.50000 F2400.00000
G1 X94.714 Y111.625 E0.96992 F900.000
G1 X94.714 Y100.354 E1.03414
G1 X105.286 Y100.354 E0.96992
G1 X105.286 Y111.550 E1.02726
G1 X104.550 Y110.889 F9000.000
G1 X95.450 Y110.889 E0.83493 F900.000
G1 X95.450 Y101.089 E0.89916
G1 X104.550 Y101.089 E0.83493
G1 X104.550 Y110.814 E0.89227
G1 X104.550 Y111.389 F9000.000
G1 E-3.50000 F2400.00000
G1 X90.931 Y93.069 F9000.000
G1 E3.50000 F2400.00000
G1 X90.482 Y93.390 E0.05074 F900.000
G1 X90.001 Y93.604 E0.04828
G1 X89.471 Y93.717 E0.04971
G1 X88.929 Y93.717 E0.04972
G1 X88.399 Y93.604 E0.04971
G1 X87.904 Y93.384 E0.04971
G1 X87.466 Y93.066 E0.04972
G1 X87.103 Y92.663 E0.04972
G1 X86.830 Y92.190 E0.05011
G1 X86.663 Y91.663 E0.05074
G1 X86.608 Y91.139 E0.04828
G1 X86.665 Y90.601 E0.04971
G1 X86.832 Y90.085 E0.04971
G1 X87.103 Y89.616 E0.04971
G1 X87.466 Y89.213 E0.04972
G1 X87.904 Y88.895 E0.04972
G1 X88.399 Y88.674 E0.04971
G1 X88.929 Y88.562 E0.04971
G1 X89.471 Y88.562 E0.04971 F900.000
G1 X90.001 Y88.674 E0.04972
G1 X90.496 Y88.895 E0.04971
G1 X90.934 Y89.213 E0.04972
G1 X91.297 Y89.616 E0.04972
G1 X91.568 Y90.085 E0.04971
G1 X91.735 Y90.601 E0.04972
G1 X91.792 Y91.139 E0.04971
G1 X91.735 Y91.678 E0.04971
G1 X91.568 Y92.194 E0.04972
G1 X91.297 Y92.663 E0.04971
G1 X90.982 Y93.013 E0.04323
G1 X90.438 Y92.517 F9000.000
G1 X90.114 Y92.749 E0.03655 F900.000
G1 X89.772 Y92.901 E0.03434
G1 X89.394 Y92.981 E0.03553
G1 X89.006 Y92.981 E0.03553
G1 X88.628 Y92.901 E0.03553
G1 X88.274 Y92.743 E0.03553
G1 X87.961 Y92.516 E0.03553
G1 X87.702 Y92.228 E0.03553
G1 X87.507 Y91.891 E0.03567
G1 X87.387 Y91.512 E0.03655
G1 X87.348 Y91.139 E0.03434
G1 X87.388 Y90.754 E0.03553
G1 X87.508 Y90.386 E0.03553
G1 X87.702 Y90.051 E0.03553
G1 X87.961 Y89.763 E0.03553
G1 X88.274 Y89.535 E0.03553
G1 X88.628 Y89.378 E0.03553
G1 X89.006 Y89.297 E0.03553
G1 X89.394 Y89.297 E0.03553 F900.000
G1 X89.772 Y89.378 E0.03553
G1 X90.126 Y89.535 E0.03553
G1 X90.439 Y89.763 E0.03553
G1 X90.698 Y90.051 E0.03553
G1 X90.892 Y90.386 E0.03553
G1 X91.012 Y90.754 E0.03553
G1 X91.052 Y91.139 E0.03553
G1 X91.012 Y91.525 E0.03553
G1 X90.892 Y91.893 E0.03553
G1 X90.698 Y92.228 E0.03553
G1 X90.489 Y92.461 E0.02879
G1 X90.506 Y92.910 F9000.000
G1 X108.210 Y91.155 F9000.000
G1 X108.263 Y90.605 E0.05074 F900.000
G1 X108.432 Y90.085 E0.05011
G1 X108.703 Y89.616 E0.04972
G1 X109.066 Y89.213 E0.04972
G1 X109.504 Y88.895 E0.04971
G1 X109.999 Y88.674 E0.04972
G1 X110.529 Y88.562 E0.04971
G1 X111.071 Y88.562 E0.04972 F900.000
G1 X111.601 Y88.674 E0.04971
G1 X112.096 Y88.895 E0.04971
G1 X112.534 Y89.213 E0.04972
G1 X112.897 Y89.616 E0.04971
G1 X113.168 Y90.085 E0.04971
G1 X113.335 Y90.601 E0.04972
G1 X113.392 Y91.139 E0.04971
G1 X113.335 Y91.678 E0.04972
G1 X113.168 Y92.194 E0.04972
G1 X112.897 Y92.663 E0.04971
G1 X112.531 Y93.069 E0.05011
G1 X112.082 Y93.390 E0.05074
G1 X111.601 Y93.604 E0.04828
G1 X111.071 Y93.717 E0.04971
G1 X110.529 Y93.717 E0.04972
G1 X109.999 Y93.604 E0.04971
G1 X109.504 Y93.384 E0.04971
G1 X109.066 Y93.066 E0.04972
G1 X108.703 Y92.663 E0.04972
G1 X108.432 Y92.194 E0.04971
G1 X108.265 Y91.678 E0.04971
G1 X108.218 Y91.230 E0.04140
G1 X108.949 Y91.152 F9000.000
G1 X108.988 Y90.756 E0.03655 F900.000
G1 X109.108 Y90.386 E0.03567
G1 X109.302 Y90.051 E0.03553
G1 X109.561 Y89.763 E0.03553
G1 X109.874 Y89.535 E0.03553
G1 X110.228 Y89.378 E0.03553
G1 X110.606 Y89.297 E0.03553
G1 X110.994 Y89.297 E0.03553 F900.000
G1 X111.372 Y89.378 E0.03553
G1 X111.726 Y89.535 E0.03553
G1 X112.039 Y89.763 E0.03553
G1 X112.298 Y90.051 E0.03553
G1 X112.492 Y90.386 E0.03553
G1 X112.612 Y90.754 E0.03553
G1 X112.652 Y91.139 E0.03553
G1 X112.612 Y91.525 E0.03553
G1 X112.492 Y91.893 E0.03553
G1 X112.298 Y92.228 E0.03553
G1 X112.038 Y92.517 E0.03567
G1 X111.714 Y92.749 E0.03655
G1 X111.372 Y92.901 E0.03434
G1 X110.994 Y92.981 E0.03553
G1 X110.606 Y92.981 E0.03553
G1 X110.228 Y92.901 E0.03553
G1 X109.874 Y92.743 E0.03553
G1 X109.561 Y92.516 E0.03553
G1 X109.302 Y92.228 E0.03553
G1 X109.108 Y91.893 E0.03553
G1 X108.988 Y91.525 E0.03553
G1 X108.957 Y91.227 E0.02746
G1 X108.610 Y90.943 F9000.000
G1 X86.366 Y82.058 F9000.000
G1 X86.472 Y81.952 E0.01375 F900.000
G1 X86.595 Y81.866 E0.01375
G1 X86.726 Y81.805 E0.01328
G1 X86.878 Y81.763 E0.01440
G1 X87.075 Y81.746 E0.01814
G1 X112.925 Y81.746 E2.37183
G1 X113.119 Y81.763 E0.01785
G1 X113.271 Y81.803 E0.01440
G1 X113.405 Y81.866 E0.01357
G1 X113.528 Y81.952 E0.01375
G1 X113.634 Y82.058 E0.01375
G1 X113.720 Y82.181 E0.01376
G1 X113.783 Y82.316 E0.01375
G1 X113.822 Y82.461 E0.01375
G1 X113.839 Y82.660 E0.01832
G1 X113.839 Y95.619 E1.18896
G1 X113.824 Y95.809 E0.01747
G1 X113.788 Y95.948 E0.01321
G1 X113.711 Y96.122 E0.01747
G1 X106.276 Y109.726 E1.42237
G1 X106.084 Y110.160 E0.04357
G1 X105.954 Y110.667 E0.04806
G1 X105.914 Y111.141 E0.04357
G1 X105.914 Y112.840 E0.15593
G1 X105.897 Y113.035 E0.01796
G1 X105.855 Y113.191 E0.01485
G1 X105.795 Y113.319 E0.01296
G1 X105.709 Y113.442 E0.01379
G1 X105.603 Y113.548 E0.01378
G1 X105.487 Y113.629 E0.01296
G1 X105.341 Y113.699 E0.01484
G1 X105.202 Y113.736 E0.01318
G1 X104.407 Y113.800 E0.07319
G1 X103.846 Y113.959 E0.05347
G1 X103.329 Y114.215 E0.05289
G1 X102.868 Y114.560 E0.05289
G1 X102.478 Y114.985 E0.05289
G1 X102.172 Y115.473 E0.05289
G1 X101.958 Y116.015 E0.05342
G1 X101.806 Y116.840 E0.07702
G1 X101.718 Y117.104 E0.02553
G1 X101.595 Y117.349 E0.02509
G1 X101.437 Y117.572 E0.02509
G1 X101.249 Y117.770 E0.02509
G1 X101.033 Y117.938 E0.02509
G1 X100.795 Y118.073 E0.02509
G1 X100.540 Y118.171 E0.02509
G1 X100.280 Y118.229 E0.02442
G1 X99.998 Y118.251 E0.02591
G1 X99.727 Y118.231 E0.02494
G1 X99.460 Y118.171 E0.02509
G1 X99.212 Y118.075 E0.02442
G1 X98.966 Y117.937 E0.02591
G1 X98.751 Y117.770 E0.02494
G1 X98.563 Y117.572 E0.02509
G1 X98.409 Y117.355 E0.02442
G1 X98.281 Y117.103 E0.02591
G1 X98.194 Y116.840 E0.02538
G1 X98.042 Y116.015 E0.07702
G1 X97.828 Y115.473 E0.05342
G1 X97.522 Y114.985 E0.05289
G1 X97.132 Y114.560 E0.05289
G1 X96.671 Y114.215 E0.05289
G1 X96.154 Y113.959 E0.05289
G1 X95.599 Y113.802 E0.05289
G1 X95.077 Y113.754 E0.04808
G1 X88.161 Y113.754 E0.63461
G1 X88.161 Y99.546 E1.30356
G1 X86.289 Y96.122 E0.35802
G1 X86.212 Y95.948 E0.01747
G1 X86.179 Y95.817 E0.01242
G1 X86.161 Y95.615 E0.01855
G1 X86.161 Y82.660 E1.18866
G1 X86.178 Y82.461 E0.01832
G1 X86.217 Y82.316 E0.01375
G1 X86.323 Y82.119 E0.02056
G1 X87.653 Y114.357 F9000.000
G1 X87.558 Y114.262 E0.01231 F900.000
G1 X87.486 Y114.148 E0.01231
G1 X87.442 Y114.021 E0.01235
G1 X87.425 Y113.867 E0.01421
G1 X87.425 Y99.734 E1.29671
G1 X85.629 Y96.448 E0.34359
G1 X85.515 Y96.190 E0.02592
G1 X85.451 Y95.941 E0.02351
G1 X85.425 Y95.648 E0.02701
G1 X85.425 Y82.628 E1.19461
G1 X85.451 Y82.333 E0.02717
G1 X85.523 Y82.064 E0.02556
G1 X85.641 Y81.811 E0.02556
G1 X85.800 Y81.583 E0.02556
G1 X85.998 Y81.386 E0.02556
G1 X86.226 Y81.226 E0.02556
G1 X86.472 Y81.111 E0.02497
G1 X86.748 Y81.036 E0.02621
G1 X87.042 Y81.011 E0.02711
G1 X112.958 Y81.011 E2.37772
G1 X113.246 Y81.036 E0.02658
G1 X113.522 Y81.109 E0.02621
G1 X113.774 Y81.226 E0.02550
G1 X114.002 Y81.386 E0.02556
G1 X114.199 Y81.583 E0.02556
G1 X114.359 Y81.811 E0.02556
G1 X114.477 Y82.064 E0.02556
G1 X114.549 Y82.333 E0.02556
G1 X114.575 Y82.628 E0.02717
G1 X114.575 Y95.649 E1.19472
G1 X114.552 Y95.931 E0.02592
G1 X114.485 Y96.190 E0.02450
G1 X114.371 Y96.448 E0.02592
G1 X106.936 Y110.051 E1.42237
G1 X106.781 Y110.401 E0.03512
G1 X106.682 Y110.790 E0.03678
G1 X106.650 Y111.171 E0.03512
G1 X106.650 Y112.872 E0.15605
G1 X106.624 Y113.165 E0.02698
G1 X106.548 Y113.445 E0.02667
G1 X106.435 Y113.688 E0.02459
G1 X106.275 Y113.917 E0.02560
G1 X106.077 Y114.114 E0.02559
G1 X105.858 Y114.268 E0.02460
G1 X105.595 Y114.392 E0.02667
G1 X105.328 Y114.463 E0.02538
G1 X104.538 Y114.528 E0.07269
G1 X104.112 Y114.648 E0.04065
G1 X103.717 Y114.844 E0.04045
G1 X103.364 Y115.108 E0.04045
G1 X103.065 Y115.433 E0.04045
G1 X102.831 Y115.806 E0.04045
G1 X102.669 Y116.218 E0.04064
G1 X102.520 Y117.024 E0.07514
G1 X102.399 Y117.388 E0.03519
G1 X102.227 Y117.729 E0.03504
G1 X102.007 Y118.041 E0.03504
G1 X101.743 Y118.317 E0.03504
G1 X101.442 Y118.552 E0.03504
G1 X101.110 Y118.739 E0.03504
G1 X100.753 Y118.877 E0.03504
G1 X100.389 Y118.958 E0.03426
G1 X99.999 Y118.988 E0.03586
G1 X99.619 Y118.960 E0.03498
G1 X99.247 Y118.877 E0.03504
G1 X98.898 Y118.743 E0.03426
G1 X98.557 Y118.551 E0.03586
G1 X98.257 Y118.317 E0.03498
G1 X97.993 Y118.041 E0.03504
G1 X97.778 Y117.736 E0.03426
G1 X97.600 Y117.387 E0.03586
G1 X97.480 Y117.024 E0.03514
G1 X97.331 Y116.218 E0.07514
G1 X97.169 Y115.806 E0.04064
G1 X96.935 Y115.433 E0.04045
G1 X96.636 Y115.108 E0.04045
G1 X96.283 Y114.844 E0.04045
G1 X95.888 Y114.648 E0.04045
G1 X95.464 Y114.528 E0.04045
G1 X95.043 Y114.489 E0.03876
G1 X88.048 Y114.489 E0.64180
G1 X87.888 Y114.471 E0.01482
G1 X87.716 Y114.397 E0.01717
G1 X87.673 Y114.224 F9000.000
G1 X105.674 Y110.190 F9000.000
G1 X105.806 Y109.501 E0.06440 F600.000
G1 X106.096 Y108.364 E0.10766
G1 X105.735 Y106.794 F9000.000
G1 X106.831 Y107.890 E0.14467 F900.000
G1 X107.205 Y107.205 E0.07279
G1 X105.735 Y105.735 E0.19405
G1 X105.735 Y104.677 E0.09879
G1 X107.579 Y106.521 E0.24342
G1 X107.953 Y105.837 E0.07279
G1 X105.735 Y103.619 E0.29279
G1 X105.735 Y102.560 E0.09879
G1 X108.327 Y105.152 E0.34216
G1 X108.701 Y104.468 E0.07279
G1 X105.735 Y101.502 E0.39154
G1 X105.735 Y100.444 F9000.000
G1 X109.075 Y103.784 E0.44091 F900.000
G1 X109.449 Y103.099 E0.07279
G1 X88.545 Y82.195 E2.75941
G1 X89.603 Y82.195 E0.09879
G1 X109.823 Y102.415 E2.66907
G1 X110.197 Y101.731 E0.07279
G1 X90.662 Y82.195 E2.57874
G1 X91.720 Y82.195 E0.09879
G1 X110.571 Y101.046 E2.48840
G1 X110.945 Y100.362 E0.07279
G1 X92.778 Y82.195 E2.39807
G1 X93.837 Y82.195 E0.09879
G1 X111.319 Y99.678 E2.30773
G1 X111.693 Y98.993 E0.07279
G1 X94.895 Y82.195 E2.21740
G1 X95.954 Y82.195 E0.09879
G1 X112.067 Y98.309 E2.12706
G1 X112.441 Y97.625 E0.07279
G1 X97.012 Y82.195 E2.03673
G1 X98.070 Y82.195 E0.09879
G1 X107.824 Y91.949 E1.28758
G1 X107.801 Y90.868 E0.10100
G1 X99.129 Y82.195 E1.14478
G1 X100.187 Y82.195 E0.09879
G1 X108.021 Y90.029 E1.03409
G1 X108.413 Y89.363 E0.07216
G1 X101.245 Y82.195 E0.94616
G1 X102.304 Y82.195 E0.09879
G1 X108.937 Y88.828 E0.87558
G1 X109.587 Y88.421 E0.07167
G1 X103.362 Y82.195 E0.82177
G1 X104.420 Y82.195 E0.09879
G1 X110.387 Y88.162 E0.78766
G1 X111.424 Y88.141 E0.09682
G1 X105.479 Y82.195 E0.78484
G1 X106.537 Y82.195 E0.09879
G1 X113.390 Y89.048 E0.90463
G1 X113.390 Y87.990 E0.09879
G1 X107.595 Y82.195 E0.76493
G1 X108.654 Y82.195 E0.09879
G1 X113.390 Y86.932 E0.62522
G1 X113.390 Y85.873 E0.09879
G1 X109.712 Y82.195 E0.48551
G1 X110.771 Y82.195 E0.09879
G1 X113.390 Y84.815 E0.34580
G1 X113.390 Y83.757 E0.09879
G1 X111.829 Y82.195 E0.20610
G1 X112.912 Y82.221 E0.10117
G1 X113.365 Y82.673 E0.05974
G1 X112.569 Y93.519 F9000.000
G1 X113.390 Y94.340 E0.10845 F900.000
G1 X113.390 Y95.399 E0.09879
G1 X111.900 Y93.908 E0.19672
G1 X111.078 Y94.145 E0.07981
G1 X113.189 Y96.256 E0.27865
G1 X112.815 Y96.940 E0.07279
G1 X109.969 Y94.094 E0.37574
G1 X105.196 Y99.905 F9000.000
G1 X87.487 Y82.195 E2.33769 F900.000
G1 X86.625 Y82.392 E0.08248
G1 X104.138 Y99.905 E2.31170
G1 X103.079 Y99.905 E0.09879
G1 X86.610 Y83.435 E2.17402
G1 X86.610 Y84.494 E0.09879
G1 X90.386 Y88.270 E0.49849
G1 X89.170 Y88.113 E0.11443
G1 X86.610 Y85.552 E0.33801
G1 X86.610 Y86.610 E0.09879
G1 X88.287 Y88.287 E0.22137
G1 X87.587 Y88.646 E0.07338
G1 X86.610 Y87.669 E0.12904
G1 X86.610 Y88.727 E0.09879
G1 X87.018 Y89.135 E0.05389
G1 X87.300 Y93.651 F9000.000
G1 X94.265 Y100.616 E0.91943 F900.000
G1 X94.612 Y99.905 F9000.000
G1 X88.874 Y94.166 E0.75748 F900.000
G1 X89.835 Y94.069 E0.09018
G1 X95.671 Y99.905 E0.77029
G1 X96.729 Y99.905 E0.09879
G1 X90.599 Y93.775 E0.80913
G1 X91.213 Y93.331 E0.07075
G1 X97.787 Y99.905 E0.86778
G1 X98.846 Y99.905 E0.09879
G1 X91.696 Y92.755 E0.94375
G1 X92.045 Y92.046 E0.07379
G1 X99.904 Y99.905 E1.03738
G1 X100.962 Y99.905 E0.09879
G1 X92.225 Y91.167 E1.15337
G1 X92.049 Y89.933 E0.11634
G1 X102.021 Y99.905 E1.31626
G1 E-3.50000 F2400.00000
G1 X104.665 Y112.074 F9000.000
G1 E3.50000 F2400.00000
G1 X105.465 Y112.874 E0.10559 F900.000
G1 X104.858 Y113.325 E0.07061
G1 X103.607 Y112.074 E0.16511
G1 X102.549 Y112.074 E0.09879
G1 X103.969 Y113.495 E0.18757
G1 X103.235 Y113.819 E0.07492
G1 X101.490 Y112.074 E0.23034
G1 X100.432 Y112.074 E0.09879
G1 X102.620 Y114.263 E0.28890
G1 X102.120 Y114.821 E0.06996
G1 X99.373 Y112.074 E0.36258
G1 X98.315 Y112.074 E0.09879
G1 X101.732 Y115.491 E0.45103
G1 X101.476 Y116.294 E0.07863
G1 X97.257 Y112.074 E0.55698
G1 X96.198 Y112.074 E0.09879
G1 X101.260 Y117.135 E0.66810
