; generated by Slic3r 1.1.7 on 2015-06-19 at 11:01:05

; perimeters extrusion width = 0.50mm
; infill extrusion width = 0.50mm
; solid infill extrusion width = 0.50mm
; top infill extrusion width = 0.50mm

G21 ; set units to millimeters
M107
M190 S57 ; wait for bed temperature to be reached
G28 ; home all axes
M83;
G10 P0 S195 R160                       ; Set tool 0 operating and standby temperatures
T0

G90 ; use absolute coordinates
M83 ; use relative distances for extrusion
G1 F2400.000 E-3.50000
G1 Z0.300 F9000.000
G1 X81.158 Y82.759 F9000.000
G1 E3.50000 F2400.000
G1 X81.390 Y82.561 E0.02803 F1200.000
G1 X81.870 Y82.211 E0.05451
G1 X82.659 Y81.780 E0.08247
G1 X83.224 Y81.558 E0.05567
G1 X93.041 Y78.366 E0.94717
G1 X93.628 Y78.229 E0.05534
G1 X94.222 Y78.156 E0.05490
G1 X94.631 Y78.139 E0.03753
G1 X105.565 Y78.145 E1.00322
G1 X106.164 Y78.197 E0.05518 F1200.000
G1 X106.755 Y78.311 E0.05522
G1 X107.146 Y78.421 E0.03722
G1 X116.514 Y81.473 E0.90399
G1 X117.333 Y81.777 E0.08022
G1 X117.863 Y82.047 E0.05451
G1 X118.604 Y82.555 E0.08247
G1 X118.837 Y82.754 E0.02807
G1 X119.256 Y83.173 E0.05440
G1 X119.804 Y83.886 E0.08252
G1 X120.234 Y84.676 E0.08248
G1 X120.535 Y85.523 E0.08248
G1 X120.606 Y85.820 E0.02800
G1 X120.700 Y86.406 E0.05452
G1 X120.736 Y87.012 E0.05567
G1 X120.722 Y98.310 E1.03663
G1 X120.590 Y99.261 E0.08808
G1 X120.509 Y99.578 E0.03000
G1 X120.312 Y100.152 E0.05568
G1 X112.340 Y118.388 E1.82602
G1 X111.867 Y119.268 E0.09166
G1 X111.672 Y119.546 E0.03119
G1 X111.249 Y120.052 E0.06053
G1 X110.503 Y120.717 E0.09164
G1 X110.224 Y120.912 E0.03124
G1 X109.654 Y121.243 E0.06050
G1 X108.726 Y121.613 E0.09165
G1 X108.398 Y121.700 E0.03112
G1 X107.748 Y121.816 E0.06061
G1 X107.075 Y121.861 E0.06187
G1 X92.599 Y121.846 E1.32814
G1 X92.262 Y121.817 E0.03112
G1 X91.611 Y121.703 E0.06060
G1 X90.662 Y121.390 E0.09165
G1 X90.354 Y121.246 E0.03121
G1 X89.782 Y120.917 E0.06053
G1 X88.998 Y120.299 E0.09164
G1 X88.757 Y120.058 E0.03122
G1 X88.333 Y119.553 E0.06051
G1 X87.807 Y118.704 E0.09166
G1 X87.623 Y118.305 E0.04031
G1 X79.493 Y99.586 E1.87248
G1 X79.412 Y99.269 E0.02997
G1 X79.306 Y98.644 E0.05817
G1 X79.264 Y97.998 E0.05946
G1 X79.276 Y86.719 E1.03480
G1 X79.300 Y86.415 E0.02800
G1 X79.392 Y85.828 E0.05451
G1 X79.646 Y84.966 E0.08249
G1 X80.031 Y84.155 E0.08232
G1 X80.540 Y83.412 E0.08262
G1 X81.106 Y82.814 E0.07557
G1 F2400.000 E-3.50000
G1 X90.985 Y94.828 F9000.000
G1 E3.50000 F2400.000
G1 X90.571 Y95.149 E0.04812 F900.000
G1 X90.100 Y95.380 E0.04809
G1 X89.971 Y95.413 E0.01221
G1 X89.592 Y95.512 E0.03592
G1 X89.069 Y95.538 E0.04809
G1 X88.550 Y95.459 E0.04811
G1 X88.059 Y95.277 E0.04812
G1 X87.614 Y94.999 E0.04810
G1 X87.234 Y94.638 E0.04811
G1 X86.934 Y94.208 E0.04810
G1 X86.727 Y93.726 E0.04811
G1 X86.622 Y93.212 E0.04811
G1 X86.622 Y92.688 E0.04811
G1 X86.727 Y92.174 E0.04811
G1 X86.934 Y91.692 E0.04811
G1 X87.234 Y91.262 E0.04811
G1 X87.614 Y90.901 E0.04810
G1 X88.059 Y90.623 E0.04812
G1 X88.550 Y90.441 E0.04811
G1 X89.069 Y90.362 E0.04809
G1 X89.202 Y90.369 E0.01221
G1 X89.593 Y90.388 E0.03592 F900.000
G1 X90.100 Y90.520 E0.04810
G1 X90.571 Y90.751 E0.04811
G1 X90.986 Y91.072 E0.04812
G1 X91.327 Y91.470 E0.04810
G1 X91.581 Y91.928 E0.04811
G1 X91.738 Y92.428 E0.04811
G1 X91.791 Y92.950 E0.04810
G1 X91.738 Y93.472 E0.04813
G1 X91.581 Y93.972 E0.04810
G1 X91.327 Y94.430 E0.04810
G1 X91.034 Y94.771 E0.04123
G1 X90.476 Y94.292 F9000.000
G1 X90.180 Y94.522 E0.03439 F900.000
G1 X89.843 Y94.687 E0.03438
G1 X89.480 Y94.781 E0.03439
G1 X89.049 Y94.791 E0.03963
G1 X88.736 Y94.743 E0.02904
G1 X88.384 Y94.613 E0.03438
G1 X88.066 Y94.415 E0.03438
G1 X87.795 Y94.156 E0.03438
G1 X87.581 Y93.849 E0.03438
G1 X87.433 Y93.504 E0.03438
G1 X87.357 Y93.137 E0.03438
G1 X87.357 Y92.763 E0.03438
G1 X87.433 Y92.396 E0.03438
G1 X87.581 Y92.051 E0.03438
G1 X87.795 Y91.744 E0.03438
G1 X88.066 Y91.485 E0.03438
G1 X88.384 Y91.287 E0.03438
G1 X88.793 Y91.148 E0.03964
G1 X89.106 Y91.100 E0.02903 F900.000
G1 X89.481 Y91.119 E0.03439
G1 X89.843 Y91.213 E0.03438
G1 X90.180 Y91.378 E0.03438
G1 X90.476 Y91.608 E0.03439
G1 X90.720 Y91.892 E0.03438
G1 X90.919 Y92.275 E0.03964
G1 X91.014 Y92.577 E0.02904
G1 X91.052 Y92.950 E0.03438
G1 X91.014 Y93.323 E0.03439
G1 X90.902 Y93.680 E0.03438
G1 X90.720 Y94.008 E0.03438
G1 X90.525 Y94.235 E0.02750
G1 F2400.000 E-3.50000
G1 X88.700 Y90.846 F9000.000
G1 X108.209 Y92.950 F9000.000
G1 E3.50000 F2400.000
G1 X108.262 Y92.428 E0.04813 F900.000
G1 X108.419 Y91.928 E0.04810
G1 X108.673 Y91.470 E0.04809
G1 X109.015 Y91.072 E0.04812
G1 X109.429 Y90.751 E0.04812
G1 X109.900 Y90.520 E0.04809
G1 X110.408 Y90.388 E0.04813
G1 X110.931 Y90.362 E0.04809
G1 X111.063 Y90.382 E0.01221
G1 X111.450 Y90.441 E0.03590 F900.000
G1 X111.941 Y90.623 E0.04812
G1 X112.386 Y90.901 E0.04810
G1 X112.766 Y91.262 E0.04811
G1 X113.066 Y91.692 E0.04810
G1 X113.273 Y92.174 E0.04811
G1 X113.378 Y92.688 E0.04811
G1 X113.378 Y93.212 E0.04811
G1 X113.273 Y93.726 E0.04811
G1 X113.066 Y94.208 E0.04810
G1 X112.766 Y94.638 E0.04811
G1 X112.386 Y94.999 E0.04810
G1 X111.941 Y95.277 E0.04812
G1 X111.450 Y95.459 E0.04811
G1 X110.931 Y95.538 E0.04809
G1 X110.407 Y95.512 E0.04813
G1 X109.900 Y95.380 E0.04810
G1 X109.429 Y95.149 E0.04811
G1 X109.014 Y94.828 E0.04812
G1 X108.673 Y94.430 E0.04810
G1 X108.419 Y93.972 E0.04811
G1 X108.262 Y93.472 E0.04812
G1 X108.216 Y93.025 E0.04122
G1 X108.948 Y92.950 F9000.000
G1 X108.986 Y92.577 E0.03439 F900.000
G1 X109.098 Y92.220 E0.03438
G1 X109.280 Y91.892 E0.03438
G1 X109.524 Y91.608 E0.03439
G1 X109.820 Y91.378 E0.03439
G1 X110.157 Y91.213 E0.03438
G1 X110.578 Y91.116 E0.03964
G1 X110.894 Y91.100 E0.02903 F900.000
G1 X111.264 Y91.157 E0.03438
G1 X111.616 Y91.287 E0.03439
G1 X111.934 Y91.485 E0.03438
G1 X112.205 Y91.744 E0.03438
G1 X112.419 Y92.051 E0.03438
G1 X112.567 Y92.396 E0.03438
G1 X112.643 Y92.763 E0.03438
G1 X112.643 Y93.137 E0.03438
G1 X112.567 Y93.504 E0.03438
G1 X112.419 Y93.849 E0.03438
G1 X112.205 Y94.156 E0.03438
G1 X111.884 Y94.445 E0.03963
G1 X111.616 Y94.613 E0.02904
G1 X111.264 Y94.743 E0.03438
G1 X110.894 Y94.800 E0.03438
G1 X110.520 Y94.781 E0.03439
G1 X110.157 Y94.687 E0.03438
G1 X109.820 Y94.522 E0.03438
G1 X109.524 Y94.292 E0.03439
G1 X109.280 Y94.008 E0.03438
G1 X109.098 Y93.680 E0.03438
G1 X108.986 Y93.323 E0.03439
G1 X108.956 Y93.025 E0.02750
G1 F2400.000 E-3.50000
G1 X110.633 Y90.805 F9000.000
G1 X105.286 Y86.164 F9000.000
G1 E3.50000 F2400.000
G1 X105.286 Y113.436 E2.50215 F900.000
G1 X94.714 Y113.436 E0.96992
G1 X94.714 Y86.164 E2.50215
G1 X105.211 Y86.164 E0.96304
G1 X104.550 Y86.900 F9000.000
G1 X104.550 Y112.700 E2.36716 F900.000
G1 X95.450 Y112.700 E0.83493
G1 X95.450 Y86.900 E2.36716
G1 X104.475 Y86.900 E0.82805
G1 X105.050 Y86.900 F9000.000
G1 X84.303 Y86.506 F9000.000
G1 X84.494 Y86.316 E0.02470 F900.000
G1 X84.775 Y86.176 E0.02879
G1 X94.335 Y83.062 E0.92252
G1 X94.540 Y83.017 E0.01932
G1 X94.661 Y83.011 E0.01104
G1 X105.339 Y83.011 E0.97976
G1 X105.549 Y83.031 E0.01933
G1 X115.225 Y86.176 E0.93354
G1 X115.506 Y86.316 E0.02879
G1 X115.697 Y86.506 E0.02470
G1 X115.819 Y86.746 E0.02470
G1 X115.864 Y87.057 E0.02879
G1 X115.864 Y97.950 E0.99946
G1 X115.848 Y98.141 E0.01761
G1 X115.812 Y98.281 E0.01322
G1 X115.734 Y98.456 E0.01761
G1 X108.305 Y111.955 E1.41376
G1 X108.110 Y112.392 E0.04386
G1 X107.979 Y112.902 E0.04827
G1 X107.939 Y113.378 E0.04383
G1 X107.939 Y116.075 E0.24752
G1 X107.922 Y116.274 E0.01832
G1 X107.883 Y116.419 E0.01376
G1 X107.820 Y116.555 E0.01376
G1 X107.734 Y116.678 E0.01375
G1 X107.628 Y116.784 E0.01376
G1 X107.505 Y116.870 E0.01375
G1 X107.369 Y116.933 E0.01376
G1 X107.224 Y116.972 E0.01375
G1 X107.025 Y116.989 E0.01832
G1 X92.975 Y116.989 E1.28917
G1 X92.776 Y116.972 E0.01832
G1 X92.631 Y116.933 E0.01376
G1 X92.495 Y116.870 E0.01375
G1 X92.372 Y116.784 E0.01376
G1 X92.266 Y116.678 E0.01375
G1 X92.180 Y116.555 E0.01376
G1 X92.117 Y116.419 E0.01375
G1 X92.078 Y116.274 E0.01376
G1 X92.061 Y116.075 E0.01832
G1 X92.061 Y113.378 E0.24750
G1 X92.021 Y112.901 E0.04389
G1 X91.890 Y112.392 E0.04822
G1 X91.695 Y111.955 E0.04388
G1 X84.266 Y98.456 E1.41375
G1 X84.188 Y98.281 E0.01761
G1 X84.152 Y98.141 E0.01322
G1 X84.136 Y97.950 E0.01762
G1 X84.136 Y87.057 E0.99945
G1 X84.181 Y86.746 E0.02879
G1 X84.264 Y86.570 E0.01784
G1 X83.676 Y86.122 F9000.000
G1 X83.869 Y85.882 E0.02826 F900.000
G1 X84.060 Y85.719 E0.02300
G1 X84.273 Y85.588 E0.02300
G1 X84.519 Y85.486 E0.02445
G1 X94.298 Y82.311 E0.94327
G1 X94.641 Y82.275 E0.03171
G1 X105.537 Y82.284 E0.99965
G1 X105.875 Y82.357 E0.03171 F900.000
G1 X115.481 Y85.486 E0.92693
G1 X115.727 Y85.588 E0.02445
G1 X115.940 Y85.719 E0.02301
G1 X116.131 Y85.882 E0.02300
G1 X116.294 Y86.073 E0.02300
G1 X116.425 Y86.287 E0.02300
G1 X116.521 Y86.518 E0.02300
G1 X116.579 Y86.762 E0.02300
G1 X116.600 Y87.028 E0.02445
G1 X116.600 Y97.981 E1.00494
G1 X116.576 Y98.264 E0.02611
G1 X116.510 Y98.524 E0.02457
G1 X116.394 Y98.784 E0.02611
G1 X108.964 Y112.283 E1.41376
G1 X108.807 Y112.635 E0.03536
G1 X108.707 Y113.025 E0.03691
G1 X108.675 Y113.409 E0.03535
G1 X108.675 Y116.108 E0.24762
G1 X108.649 Y116.403 E0.02717
G1 X108.577 Y116.672 E0.02557
G1 X108.459 Y116.924 E0.02557
G1 X108.300 Y117.152 E0.02556
G1 X108.102 Y117.350 E0.02557
G1 X107.874 Y117.509 E0.02556
G1 X107.622 Y117.627 E0.02557
G1 X107.353 Y117.699 E0.02556
G1 X107.058 Y117.725 E0.02717
G1 X92.942 Y117.725 E1.29507
G1 X92.647 Y117.699 E0.02717
G1 X92.378 Y117.627 E0.02556
G1 X92.126 Y117.509 E0.02556
G1 X91.898 Y117.349 E0.02557
G1 X91.701 Y117.152 E0.02556
G1 X91.541 Y116.924 E0.02557
G1 X91.423 Y116.672 E0.02556
G1 X91.351 Y116.403 E0.02557
G1 X91.325 Y116.107 E0.02718
G1 X91.325 Y113.409 E0.24761
G1 X91.293 Y113.025 E0.03537
G1 X91.193 Y112.635 E0.03690
G1 X91.036 Y112.283 E0.03537
G1 X83.606 Y98.784 E1.41376
G1 X83.490 Y98.524 E0.02611
G1 X83.424 Y98.264 E0.02457
G1 X83.400 Y97.981 E0.02612
G1 X83.400 Y87.028 E1.00493
G1 X83.421 Y86.762 E0.02445
G1 X83.479 Y86.518 E0.02301
G1 X83.575 Y86.287 E0.02300
G1 X83.637 Y86.186 E0.01081
G1 X105.685 Y82.597 F9000.000
G1 X115.147 Y86.710 F9000.000
G1 X115.305 Y86.869 E0.02060 F900.000
G1 X115.351 Y87.957 E0.09987
G1 X113.572 Y86.178 E0.23083
G1 X112.027 Y85.674 E0.14910
G1 X115.351 Y88.999 E0.43133
G1 X115.351 Y90.040 E0.09559
G1 X110.482 Y85.171 E0.63182
G1 X108.937 Y84.668 E0.14910
G1 X115.351 Y91.082 E0.83232
G1 X115.351 Y92.124 E0.09559
G1 X107.391 Y84.164 E1.03282
G1 X105.846 Y83.661 E0.14910
G1 X115.351 Y93.166 E1.23331
G1 X115.351 Y94.208 E0.09559
G1 X113.891 Y92.748 E0.18939
G1 X113.802 Y93.701 E0.08775
G1 X115.351 Y95.250 E0.20102
G1 X115.351 Y96.292 E0.09559
G1 X113.517 Y94.458 E0.23797
G1 X113.073 Y95.055 E0.06832
G1 X115.351 Y97.334 E0.29565
G1 X115.249 Y98.273 E0.08673
G1 X112.505 Y95.530 E0.35598
G1 X111.807 Y95.874 E0.07140
G1 X114.879 Y98.945 E0.39857
G1 X114.509 Y99.617 E0.07038
G1 X110.945 Y96.053 E0.46253
G1 X109.707 Y95.857 E0.11492
G1 X114.139 Y100.289 E0.57507
G1 X113.770 Y100.961 E0.07038
G1 X105.799 Y92.991 E1.03423
G1 X105.799 Y91.949 E0.09559
G1 X107.907 Y94.057 E0.27358
G1 X107.706 Y92.814 E0.11552
G1 X105.799 Y90.907 E0.24750
G1 X105.799 Y89.865 E0.09559
G1 X107.876 Y91.942 E0.26952
G1 X108.214 Y91.239 E0.07164
G1 X105.799 Y88.823 E0.31339
G1 X105.799 Y87.781 E0.09559
G1 X108.691 Y90.673 E0.37523
G1 X109.301 Y90.242 E0.06858
G1 X105.799 Y86.740 E0.45443
G1 X105.799 Y85.698 E0.09559
G1 X110.052 Y89.950 E0.55180
G1 X110.996 Y89.852 E0.08707
G1 X104.667 Y83.524 E0.82115
G1 X103.625 Y83.524 E0.09559
G1 X105.752 Y85.651 E0.27601
G1 X104.710 Y85.651 E0.09559
G1 X102.583 Y83.524 E0.27601
G1 X101.541 Y83.524 E0.09559
G1 X103.669 Y85.651 E0.27601
G1 X102.627 Y85.651 E0.09559
G1 X100.500 Y83.524 E0.27601
G1 X99.458 Y83.524 E0.09559
G1 X101.585 Y85.651 E0.27601
G1 X100.543 Y85.651 E0.09559
G1 X98.416 Y83.524 E0.27601
G1 X97.374 Y83.524 E0.09559
G1 X99.501 Y85.651 E0.27601
G1 X98.459 Y85.651 E0.09559
G1 X96.332 Y83.524 E0.27601
G1 X95.290 Y83.524 E0.09559
G1 X97.417 Y85.651 E0.27601
G1 X96.375 Y85.651 E0.09559
G1 X94.333 Y83.609 E0.26496
G1 X93.547 Y83.865 E0.07586
G1 X95.334 Y85.651 E0.23179
G1 X94.292 Y85.651 E0.09559
G1 X92.761 Y84.120 E0.19863
G1 X91.975 Y84.376 E0.07586
G1 X94.201 Y86.602 E0.28890
G1 X94.201 Y87.644 E0.09559
G1 X91.188 Y84.631 E0.39092
G1 X90.402 Y84.887 E0.07586
G1 X94.201 Y88.686 E0.49295
G1 X94.201 Y89.728 E0.09559
G1 X89.616 Y85.143 E0.59497
G1 X88.829 Y85.398 E0.07586
G1 X94.201 Y90.770 E0.69700
G1 X94.201 Y91.812 E0.09559
G1 X88.043 Y85.654 E0.79902
G1 X87.257 Y85.909 E0.07586
G1 X94.201 Y92.854 E0.90105
G1 X94.201 Y93.895 E0.09559
G1 X92.067 Y91.762 E0.27688
G1 X92.299 Y93.035 E0.11876
G1 X94.201 Y94.937 E0.24683
G1 X94.201 Y95.979 E0.09559
G1 X92.137 Y93.915 E0.26780
G1 X91.806 Y94.626 E0.07192
G1 X94.201 Y97.021 E0.31081
G1 X94.201 Y98.063 E0.09559
G1 X91.341 Y95.202 E0.37116
G1 X90.736 Y95.640 E0.06846
G1 X94.201 Y99.105 E0.44959
G1 X94.201 Y100.147 E0.09559
G1 X89.993 Y95.938 E0.54607
G1 X89.065 Y96.052 E0.08576
G1 X94.201 Y101.189 E0.66645
G1 X94.201 Y102.230 E0.09559
G1 X84.649 Y92.678 E1.23944
G1 X84.649 Y93.720 E0.09559
G1 X94.201 Y103.272 E1.23944
G1 X94.201 Y104.314 E0.09559
G1 X84.649 Y94.762 E1.23944
G1 X84.649 Y95.804 E0.09559
G1 X94.201 Y105.356 E1.23944
G1 X94.201 Y106.398 E0.09559
G1 X84.649 Y96.846 E1.23944
G1 X84.649 Y97.888 E0.09559
G1 X94.201 Y107.440 E1.23944
G1 X94.201 Y108.482 E0.09559
G1 X85.679 Y99.960 E1.10576
G1 X86.954 Y102.277 F9000.000
G1 X94.201 Y109.524 E0.94029 F900.000
G1 X94.201 Y110.565 E0.09559
G1 X88.230 Y104.594 E0.77483
G1 X89.505 Y106.911 F9000.000
G1 X94.201 Y111.607 E0.60937 F900.000
G1 X94.201 Y112.649 E0.09559
G1 X90.780 Y109.228 E0.44391
G1 X92.055 Y111.545 F9000.000
G1 X96.986 Y116.476 E0.63982 F900.000
G1 X98.028 Y116.476 E0.09559
G1 X95.501 Y113.949 E0.32791
G1 X96.543 Y113.949 E0.09559
G1 X99.070 Y116.476 E0.32791
G1 X100.112 Y116.476 E0.09559
G1 X97.585 Y113.949 E0.32791
G1 X98.626 Y113.949 E0.09559
G1 X101.154 Y116.476 E0.32791
G1 X102.195 Y116.476 E0.09559
G1 X99.668 Y113.949 E0.32791
G1 X100.710 Y113.949 E0.09559
G1 X103.237 Y116.476 E0.32791
G1 X104.279 Y116.476 E0.09559
G1 X101.752 Y113.949 E0.32791
G1 X102.794 Y113.949 E0.09559
G1 X105.321 Y116.476 E0.32791
G1 X106.363 Y116.476 E0.09559
G1 X103.836 Y113.949 E0.32791
G1 X104.878 Y113.949 E0.09559
G1 X107.293 Y116.364 E0.31341
G1 X107.426 Y115.455 E0.08428
G1 X105.799 Y113.828 E0.21113
G1 X105.799 Y112.786 E0.09559
G1 X107.426 Y114.414 E0.21113
G1 X107.426 Y113.372 E0.09559
G1 X105.799 Y111.745 E0.21113
G1 X105.799 Y110.703 E0.09559
G1 X107.562 Y112.465 E0.22871
G1 X107.852 Y111.714 E0.07391
G1 X105.799 Y109.661 E0.26640
G1 X105.799 Y108.619 E0.09559
G1 X108.222 Y111.042 E0.31439
G1 X108.592 Y110.370 E0.07038
G1 X105.799 Y107.577 E0.36237
G1 X105.799 Y106.535 E0.09559
G1 X108.962 Y109.698 E0.41036
G1 X109.331 Y109.026 E0.07038
G1 X105.799 Y105.493 E0.45835
G1 X105.799 Y104.451 E0.09559
G1 X109.701 Y108.354 E0.50634
G1 X110.071 Y107.682 E0.07038
G1 X105.799 Y103.410 E0.55433
G1 X105.799 Y102.368 E0.09559
G1 X110.441 Y107.010 E0.60232
G1 X110.811 Y106.338 E0.07038
G1 X105.799 Y101.326 E0.65031
G1 X105.799 Y100.284 E0.09559
G1 X111.181 Y105.666 E0.69830
G1 X111.550 Y104.994 E0.07038
G1 X105.799 Y99.242 E0.74629
G1 X105.799 Y98.200 E0.09559
G1 X111.920 Y104.322 E0.79428
G1 X112.290 Y103.650 E0.07038
G1 X105.799 Y97.158 E0.84227
G1 X105.799 Y96.116 E0.09559
G1 X112.660 Y102.978 E0.89026
G1 X113.030 Y102.305 E0.07038
G1 X105.799 Y95.075 E0.93825
G1 X105.799 Y94.033 E0.09559
G1 X113.400 Y101.633 E0.98624
G1 F2400.000 E-3.50000
G1 X95.944 Y116.476 F9000.000
