; generated by Slic3r 1.2.9 on 2015-06-22 at 14:57:20

; external perimeters extrusion width = 0.50mm
; perimeters extrusion width = 0.50mm
; infill extrusion width = 0.50mm
; solid infill extrusion width = 0.50mm
; top infill extrusion width = 0.50mm

M107
M190 S57 ; set bed temperature
G28 ; home all axes
M83;
G10 P0 S195 R160                       ; Set tool 0 operating and standby temperatures
T0

G21 ; set units to millimeters
G90 ; use absolute coordinates
M83 ; use relative distances for extrusion
G1 E-3.50000 F2400.00000
G1 Z0.300 F9000.000
G1 X82.851 Y78.687 F9000.000
G1 E3.50000 F2400.00000
G1 X83.098 Y78.441 E0.03199 F1200.000
G1 X83.597 Y78.022 E0.05974
G1 X83.883 Y77.822 E0.03205
G1 X84.446 Y77.497 E0.05968
G1 X84.756 Y77.352 E0.03133
G1 X85.374 Y77.127 E0.06040
G1 X85.711 Y77.036 E0.03201
G1 X86.352 Y76.923 E0.05972
G1 X86.700 Y76.893 E0.03201
G1 X87.025 Y76.879 E0.02988
G1 X112.975 Y76.879 E2.38093
G1 X113.301 Y76.893 E0.02990
G1 X113.648 Y76.923 E0.03202 F1200.000
G1 X114.289 Y77.036 E0.05971
G1 X114.627 Y77.127 E0.03206
G1 X115.238 Y77.349 E0.05967
G1 X115.554 Y77.497 E0.03202
G1 X116.118 Y77.822 E0.05971
G1 X116.403 Y78.022 E0.03199
G1 X116.902 Y78.441 E0.05975
G1 X117.149 Y78.687 E0.03199
G1 X117.567 Y79.186 E0.05974
G1 X117.767 Y79.472 E0.03201
G1 X118.093 Y80.035 E0.05972
G1 X118.240 Y80.351 E0.03199
G1 X118.463 Y80.963 E0.05975
G1 X118.553 Y81.300 E0.03199
G1 X118.666 Y81.941 E0.05974
G1 X118.711 Y82.614 E0.06187
G1 X118.711 Y95.670 E1.19785
G1 X118.697 Y95.986 E0.02902
G1 X118.634 Y96.602 E0.05679
G1 X118.486 Y97.244 E0.06046
G1 X118.388 Y97.566 E0.03096
G1 X118.126 Y98.186 E0.06174
G1 X110.313 Y115.161 E1.71451
G1 X110.014 Y115.766 E0.06185
G1 X109.646 Y116.317 E0.06083
G1 X109.440 Y116.584 E0.03095
G1 X108.981 Y117.063 E0.06081
G1 X104.691 Y121.227 E0.54860
G1 X104.175 Y121.673 E0.06252
G1 X103.753 Y121.981 E0.04796
G1 X103.397 Y122.204 E0.03853
G1 X102.936 Y122.451 E0.04796
G1 X102.553 Y122.622 E0.03852
G1 X102.062 Y122.801 E0.04796
G1 X101.658 Y122.917 E0.03857
G1 X101.147 Y123.026 E0.04792
G1 X100.731 Y123.085 E0.03852
G1 X100.210 Y123.121 E0.04797
G1 X99.790 Y123.121 E0.03852
G1 X99.269 Y123.085 E0.04797
G1 X98.853 Y123.026 E0.03852
G1 X98.342 Y122.917 E0.04796
G1 X97.938 Y122.801 E0.03852
G1 X97.447 Y122.622 E0.04796
G1 X97.064 Y122.450 E0.03854
G1 X96.603 Y122.204 E0.04795
G1 X96.247 Y121.981 E0.03853
G1 X95.825 Y121.673 E0.04796
G1 X95.309 Y121.227 E0.06253
G1 X91.019 Y117.063 E0.54860
G1 X90.560 Y116.584 E0.06086
G1 X90.354 Y116.317 E0.03091
G1 X89.980 Y115.756 E0.06184
G1 X89.687 Y115.161 E0.06083
G1 X81.874 Y98.186 E1.71451
G1 X81.612 Y97.566 E0.06174
G1 X81.514 Y97.244 E0.03096
G1 X81.368 Y96.613 E0.05942
G1 X81.292 Y95.811 E0.07385
G1 X81.289 Y82.614 E1.21084
G1 X81.304 Y82.289 E0.02990
G1 X81.334 Y81.941 E0.03201
G1 X81.447 Y81.300 E0.05971
G1 X81.537 Y80.963 E0.03202
G1 X81.760 Y80.351 E0.05971
G1 X81.907 Y80.035 E0.03200
G1 X82.233 Y79.472 E0.05974
G1 X82.433 Y79.186 E0.03199
G1 X82.803 Y78.745 E0.05286
G1 E-3.50000 F2400.00000
G1 X105.286 Y111.629 F9000.000
G1 E3.50000 F2400.00000
G1 X94.714 Y111.629 E0.96992 F900.000
G1 X94.714 Y100.357 E1.03414
G1 X105.286 Y100.357 E0.96992
G1 X105.286 Y111.554 E1.02726
G1 X104.550 Y110.893 F9000.000
G1 X95.450 Y110.893 E0.83493 F900.000
G1 X95.450 Y101.093 E0.89916
G1 X104.550 Y101.093 E0.83493
G1 X104.550 Y110.818 E0.89227
G1 X104.550 Y111.393 F9000.000
G1 E-3.50000 F2400.00000
G1 X90.817 Y93.152 F9000.000
G1 E3.50000 F2400.00000
G1 X90.571 Y93.342 E0.02857 F900.000
G1 X90.100 Y93.573 E0.04811
G1 X89.592 Y93.705 E0.04811
G1 X89.069 Y93.731 E0.04811
G1 X88.550 Y93.652 E0.04811
G1 X88.059 Y93.470 E0.04811
G1 X87.614 Y93.192 E0.04811
G1 X87.234 Y92.831 E0.04811
G1 X86.934 Y92.401 E0.04811
G1 X86.727 Y91.919 E0.04811
G1 X86.622 Y91.405 E0.04811
G1 X86.622 Y90.881 E0.04811
G1 X86.727 Y90.367 E0.04811
G1 X86.934 Y89.885 E0.04811
G1 X87.234 Y89.455 E0.04811
G1 X87.614 Y89.094 E0.04811
G1 X88.059 Y88.816 E0.04811
G1 X88.550 Y88.634 E0.04811
G1 X89.052 Y88.558 E0.04652 F900.000
G1 X89.588 Y88.580 E0.04924
G1 X90.100 Y88.713 E0.04855
G1 X90.571 Y88.944 E0.04811
G1 X90.985 Y89.265 E0.04811
G1 X91.327 Y89.663 E0.04811
G1 X91.581 Y90.121 E0.04811
G1 X91.738 Y90.621 E0.04811
G1 X91.791 Y91.143 E0.04811
G1 X91.738 Y91.665 E0.04811
G1 X91.581 Y92.165 E0.04811
G1 X91.327 Y92.624 E0.04811
G1 X90.985 Y93.021 E0.04811
G1 X90.876 Y93.106 E0.01266
G1 X90.367 Y92.570 F9000.000
G1 X90.180 Y92.715 E0.02171 F900.000
G1 X89.843 Y92.880 E0.03438
G1 X89.480 Y92.974 E0.03438
G1 X89.106 Y92.993 E0.03438
G1 X88.736 Y92.936 E0.03438
G1 X88.384 Y92.806 E0.03438
G1 X88.066 Y92.608 E0.03438
G1 X87.795 Y92.349 E0.03438
G1 X87.581 Y92.042 E0.03438
G1 X87.433 Y91.698 E0.03438
G1 X87.357 Y91.330 E0.03438
G1 X87.357 Y90.956 E0.03438
G1 X87.433 Y90.589 E0.03438
G1 X87.581 Y90.244 E0.03438
G1 X87.795 Y89.937 E0.03438
G1 X88.066 Y89.679 E0.03438
G1 X88.384 Y89.480 E0.03438
G1 X88.736 Y89.350 E0.03438
G1 X89.092 Y89.296 E0.03308 F900.000
G1 X89.479 Y89.312 E0.03551
G1 X89.843 Y89.406 E0.03454
G1 X90.180 Y89.571 E0.03438
G1 X90.476 Y89.801 E0.03438
G1 X90.720 Y90.085 E0.03438
G1 X90.902 Y90.413 E0.03438
G1 X91.014 Y90.770 E0.03438
G1 X91.052 Y91.143 E0.03438
G1 X91.014 Y91.516 E0.03438
G1 X90.902 Y91.873 E0.03438
G1 X90.720 Y92.201 E0.03438
G1 X90.426 Y92.524 E0.04008
G1 X90.410 Y92.803 F9000.000
G1 X108.209 Y91.143 F9000.000
G1 X108.262 Y90.621 E0.04811 F900.000
G1 X108.419 Y90.121 E0.04811
G1 X108.673 Y89.663 E0.04811
G1 X109.015 Y89.265 E0.04811
G1 X109.429 Y88.944 E0.04811
G1 X109.900 Y88.713 E0.04811
G1 X110.408 Y88.582 E0.04811
G1 X110.914 Y88.556 E0.04652 F900.000
G1 X111.445 Y88.633 E0.04924
G1 X111.941 Y88.816 E0.04855
G1 X112.386 Y89.094 E0.04811
G1 X112.766 Y89.455 E0.04811
G1 X113.066 Y89.885 E0.04811
G1 X113.273 Y90.367 E0.04811
G1 X113.378 Y90.881 E0.04811
G1 X113.378 Y91.405 E0.04811
G1 X113.273 Y91.919 E0.04811
G1 X113.066 Y92.401 E0.04811
G1 X112.766 Y92.831 E0.04811
G1 X112.386 Y93.192 E0.04811
G1 X111.941 Y93.470 E0.04811
G1 X111.450 Y93.652 E0.04811
G1 X110.931 Y93.731 E0.04811
G1 X110.408 Y93.705 E0.04811
G1 X109.900 Y93.573 E0.04811
G1 X109.429 Y93.342 E0.04811
G1 X109.015 Y93.021 E0.04811
G1 X108.673 Y92.624 E0.04811
G1 X108.419 Y92.165 E0.04811
G1 X108.262 Y91.665 E0.04811
G1 X108.216 Y91.218 E0.04123
G1 X108.948 Y91.143 F9000.000
G1 X108.986 Y90.770 E0.03438 F900.000
G1 X109.098 Y90.413 E0.03438
G1 X109.280 Y90.085 E0.03438
G1 X109.524 Y89.801 E0.03438
G1 X109.820 Y89.571 E0.03438
G1 X110.157 Y89.406 E0.03438
G1 X110.520 Y89.312 E0.03438
G1 X110.880 Y89.294 E0.03308 F900.000
G1 X111.263 Y89.350 E0.03551
G1 X111.616 Y89.480 E0.03454
G1 X111.934 Y89.679 E0.03438
G1 X112.205 Y89.937 E0.03438
G1 X112.419 Y90.244 E0.03438
G1 X112.567 Y90.589 E0.03438
G1 X112.643 Y90.956 E0.03438
G1 X112.643 Y91.330 E0.03438
G1 X112.567 Y91.698 E0.03438
G1 X112.419 Y92.042 E0.03438
G1 X112.205 Y92.349 E0.03438
G1 X111.934 Y92.608 E0.03438
G1 X111.616 Y92.806 E0.03438
G1 X111.264 Y92.936 E0.03438
G1 X110.894 Y92.993 E0.03438
G1 X110.520 Y92.974 E0.03438
G1 X110.157 Y92.880 E0.03438
G1 X109.820 Y92.715 E0.03438
G1 X109.524 Y92.485 E0.03438
G1 X109.280 Y92.201 E0.03438
G1 X109.098 Y91.873 E0.03438
G1 X108.986 Y91.516 E0.03438
G1 X108.956 Y91.218 E0.02750
G1 X108.630 Y90.945 F9000.000
G1 E-3.50000 F2400.00000
G1 X113.839 Y91.143 F9000.000
G1 E3.50000 F2400.00000
G1 X113.839 Y95.621 E0.41087 F900.000
G1 X113.823 Y95.815 E0.01786
G1 X113.787 Y95.955 E0.01326
G1 X113.711 Y96.126 E0.01711
G1 X106.273 Y109.735 E1.42302
G1 X106.081 Y110.172 E0.04381
G1 X105.953 Y110.679 E0.04791
G1 X105.914 Y111.145 E0.04290
G1 X105.914 Y112.844 E0.15592
G1 X105.897 Y113.039 E0.01794
G1 X105.859 Y113.183 E0.01371
G1 X105.792 Y113.327 E0.01451
G1 X105.607 Y113.548 E0.02649
G1 X105.475 Y113.641 E0.01481
G1 X105.348 Y113.700 E0.01284
G1 X105.209 Y113.737 E0.01322
G1 X104.467 Y113.795 E0.06830
G1 X103.967 Y113.920 E0.04725
G1 X103.497 Y114.123 E0.04701
G1 X103.066 Y114.401 E0.04702
G1 X102.686 Y114.744 E0.04701
G1 X102.367 Y115.145 E0.04701
G1 X102.117 Y115.593 E0.04702
G1 X101.943 Y116.079 E0.04736
G1 X101.809 Y116.833 E0.07030
G1 X101.729 Y117.084 E0.02417
G1 X101.615 Y117.319 E0.02390
G1 X101.470 Y117.535 E0.02390
G1 X101.301 Y117.724 E0.02326
G1 X101.096 Y117.898 E0.02469
G1 X100.876 Y118.035 E0.02376
G1 X100.639 Y118.142 E0.02390
G1 X100.388 Y118.214 E0.02390
G1 X100.130 Y118.250 E0.02390
G1 X99.870 Y118.250 E0.02390
G1 X99.612 Y118.214 E0.02390
G1 X99.361 Y118.142 E0.02390
G1 X99.124 Y118.035 E0.02390
G1 X98.903 Y117.897 E0.02390
G1 X98.704 Y117.729 E0.02390
G1 X98.530 Y117.535 E0.02390
G1 X98.385 Y117.319 E0.02390
G1 X98.271 Y117.084 E0.02390
G1 X98.191 Y116.833 E0.02417
G1 X98.057 Y116.079 E0.07030
G1 X97.883 Y115.593 E0.04736
G1 X97.633 Y115.145 E0.04702
G1 X97.314 Y114.744 E0.04701
G1 X96.934 Y114.401 E0.04701
G1 X96.503 Y114.123 E0.04702
G1 X96.033 Y113.920 E0.04701
G1 X95.533 Y113.795 E0.04725
G1 X94.791 Y113.737 E0.06830
G1 X94.652 Y113.700 E0.01322
G1 X94.525 Y113.641 E0.01284
G1 X94.393 Y113.548 E0.01481
G1 X94.207 Y113.325 E0.02665
G1 X94.144 Y113.191 E0.01360
G1 X94.102 Y113.037 E0.01462
G1 X94.086 Y112.844 E0.01779
G1 X94.086 Y111.145 E0.15592
G1 X94.047 Y110.679 E0.04290
G1 X93.919 Y110.172 E0.04791
G1 X93.727 Y109.735 E0.04381
G1 X86.289 Y96.126 E1.42302
G1 X86.213 Y95.955 E0.01711
G1 X86.177 Y95.815 E0.01326
G1 X86.161 Y95.621 E0.01786
G1 X86.161 Y82.664 E1.18885
G1 X86.178 Y82.465 E0.01832
G1 X86.217 Y82.320 E0.01375
G1 X86.280 Y82.184 E0.01375
G1 X86.366 Y82.061 E0.01376
G1 X86.472 Y81.955 E0.01376
G1 X86.595 Y81.869 E0.01375
G1 X86.731 Y81.806 E0.01376
G1 X86.876 Y81.767 E0.01375
G1 X87.075 Y81.750 E0.01832
G1 X112.925 Y81.750 E2.37183
G1 X113.119 Y81.767 E0.01785
G1 X113.271 Y81.807 E0.01440 F900.000
G1 X113.405 Y81.869 E0.01357
G1 X113.528 Y81.955 E0.01375
G1 X113.634 Y82.061 E0.01375
G1 X113.720 Y82.184 E0.01376
G1 X113.783 Y82.320 E0.01375
G1 X113.822 Y82.465 E0.01375
G1 X113.839 Y82.664 E0.01832
G1 X113.839 Y91.068 E0.77110
G1 X114.575 Y91.143 F9000.000
G1 X114.575 Y95.653 E0.41375 F900.000
G1 X114.550 Y95.939 E0.02641
G1 X114.484 Y96.198 E0.02449
G1 X114.371 Y96.452 E0.02546
G1 X106.934 Y110.060 E1.42290
G1 X106.779 Y110.412 E0.03526
G1 X106.681 Y110.800 E0.03670
G1 X106.650 Y111.175 E0.03454
G1 X106.650 Y112.876 E0.15605
G1 X106.625 Y113.166 E0.02669
G1 X106.554 Y113.435 E0.02555
G1 X106.431 Y113.697 E0.02652
G1 X106.271 Y113.924 E0.02556
G1 X106.082 Y114.114 E0.02455
G1 X105.844 Y114.280 E0.02662
G1 X105.602 Y114.393 E0.02455
G1 X105.335 Y114.466 E0.02537
G1 X104.585 Y114.524 E0.06897
G1 X104.204 Y114.619 E0.03604
G1 X103.844 Y114.775 E0.03596
G1 X103.515 Y114.987 E0.03596
G1 X103.224 Y115.250 E0.03596
G1 X102.980 Y115.556 E0.03596
G1 X102.789 Y115.899 E0.03596
G1 X102.656 Y116.269 E0.03608
G1 X102.525 Y117.011 E0.06912
G1 X102.413 Y117.358 E0.03347
G1 X102.255 Y117.685 E0.03337
G1 X102.053 Y117.987 E0.03337
G1 X101.815 Y118.252 E0.03263
G1 X101.531 Y118.493 E0.03416
G1 X101.224 Y118.686 E0.03332
G1 X100.892 Y118.834 E0.03337
G1 X100.542 Y118.935 E0.03337
G1 X100.182 Y118.986 E0.03337
G1 X99.818 Y118.986 E0.03337
G1 X99.458 Y118.935 E0.03337
G1 X99.108 Y118.834 E0.03337
G1 X98.776 Y118.686 E0.03337
G1 X98.468 Y118.493 E0.03337
G1 X98.190 Y118.258 E0.03337
G1 X97.947 Y117.987 E0.03337
G1 X97.745 Y117.685 E0.03337
G1 X97.587 Y117.358 E0.03337
G1 X97.475 Y117.011 E0.03347
G1 X97.344 Y116.269 E0.06912
G1 X97.211 Y115.899 E0.03608
G1 X97.020 Y115.556 E0.03596
G1 X96.776 Y115.250 E0.03596
G1 X96.485 Y114.987 E0.03596
G1 X96.156 Y114.775 E0.03596
G1 X95.796 Y114.619 E0.03596
G1 X95.415 Y114.524 E0.03604
G1 X94.665 Y114.466 E0.06897
G1 X94.398 Y114.393 E0.02537
G1 X94.156 Y114.280 E0.02455
G1 X93.918 Y114.114 E0.02662
G1 X93.729 Y113.924 E0.02455
G1 X93.568 Y113.696 E0.02561
G1 X93.450 Y113.445 E0.02551
G1 X93.375 Y113.165 E0.02656
G1 X93.350 Y112.876 E0.02664
G1 X93.350 Y111.175 E0.15605
G1 X93.319 Y110.800 E0.03454
G1 X93.221 Y110.412 E0.03670
G1 X93.066 Y110.060 E0.03526
G1 X85.629 Y96.452 E1.42290
G1 X85.516 Y96.198 E0.02546
G1 X85.450 Y95.939 E0.02449
G1 X85.425 Y95.653 E0.02641
G1 X85.425 Y82.632 E1.19468
G1 X85.451 Y82.337 E0.02717
G1 X85.523 Y82.068 E0.02556
G1 X85.641 Y81.815 E0.02556
G1 X85.800 Y81.587 E0.02556
G1 X85.998 Y81.390 E0.02556
G1 X86.226 Y81.230 E0.02556
G1 X86.478 Y81.112 E0.02556
G1 X86.747 Y81.040 E0.02556
G1 X87.042 Y81.014 E0.02717
G1 X112.958 Y81.014 E2.37772
G1 X113.246 Y81.039 E0.02658
G1 X113.522 Y81.112 E0.02621 F900.000
G1 X113.774 Y81.230 E0.02550
G1 X114.002 Y81.390 E0.02556
G1 X114.199 Y81.587 E0.02556
G1 X114.359 Y81.815 E0.02556
G1 X114.477 Y82.068 E0.02556
G1 X114.549 Y82.337 E0.02556
G1 X114.575 Y82.632 E0.02717
G1 X114.575 Y91.068 E0.77405
G1 X114.142 Y91.393 F9000.000
G1 X113.390 Y94.246 F9000.000
G1 X112.633 Y93.489 E0.09916 F900.000
G1 X111.981 Y93.887 E0.07067
G1 X113.390 Y95.296 E0.18447
G1 X113.230 Y96.185 E0.08363
G1 X111.172 Y94.127 E0.26944
G1 X110.140 Y94.145 E0.09546
G1 X112.859 Y96.864 E0.35588
G1 X112.488 Y97.542 E0.07158
G1 X97.145 Y82.199 E2.00842
G1 X98.194 Y82.199 E0.09714
G1 X107.808 Y91.813 E1.25848
G1 X107.810 Y90.766 E0.09696
G1 X99.244 Y82.199 E1.12136
G1 X100.293 Y82.199 E0.09714
G1 X108.057 Y89.963 E1.01625
G1 X108.461 Y89.318 E0.07047
G1 X101.343 Y82.199 E0.93182
G1 X102.392 Y82.199 E0.09714
G1 X108.989 Y88.796 E0.86352
G1 X109.641 Y88.398 E0.07068
G1 X103.442 Y82.199 E0.81148
G1 X104.491 Y82.199 E0.09714
G1 X110.437 Y88.145 E0.77832
G1 X111.505 Y88.163 E0.09884
G1 X105.541 Y82.199 E0.78071
G1 X106.590 Y82.199 E0.09714
G1 X113.390 Y88.999 E0.89010
G1 X113.390 Y87.949 E0.09714
G1 X107.640 Y82.199 E0.75272
G1 X108.689 Y82.199 E0.09714
G1 X113.390 Y86.900 E0.61534
G1 X113.390 Y85.850 E0.09714
G1 X109.739 Y82.199 E0.47797
G1 X110.788 Y82.199 E0.09714
G1 X113.390 Y84.801 E0.34059
G1 X113.390 Y83.751 E0.09714
G1 X111.838 Y82.199 E0.20321
G1 X112.912 Y82.224 E0.09950
G1 X113.365 Y82.677 E0.05924
G1 X112.117 Y98.221 F9000.000
G1 X96.095 Y82.199 E2.09725 F900.000
G1 X95.046 Y82.199 E0.09714
G1 X111.746 Y98.900 E2.18608
G1 X111.376 Y99.578 E0.07158
G1 X93.996 Y82.199 E2.27491
G1 X92.947 Y82.199 E0.09714
G1 X111.005 Y100.257 E2.36374
G1 X110.634 Y100.935 E0.07158
G1 X91.897 Y82.199 E2.45257
G1 X90.848 Y82.199 E0.09714
G1 X110.263 Y101.614 E2.54140
G1 X109.892 Y102.293 E0.07158
G1 X89.798 Y82.199 E2.63023
G1 X88.749 Y82.199 E0.09714
G1 X109.521 Y102.971 E2.71906
G1 X109.150 Y103.650 E0.07158
G1 X87.699 Y82.199 E2.80789
G1 X86.725 Y82.274 E0.09043
G1 X104.359 Y99.908 E2.30825
G1 X103.310 Y99.908 E0.09714
G1 X86.610 Y83.209 E2.18598
G1 X86.610 Y84.258 E0.09714
G1 X90.826 Y88.475 E0.55195
G1 X89.419 Y88.117 E0.13440
G1 X86.610 Y85.308 E0.36773
G1 X86.610 Y86.357 E0.09714
G1 X88.481 Y88.228 E0.24496
G1 X87.751 Y88.548 E0.07375
G1 X86.610 Y87.406 E0.14944
G1 X86.610 Y88.456 E0.09714
G1 X87.154 Y89.000 E0.07123
G1 X86.610 Y93.703 F9000.000
G1 X94.265 Y101.359 E1.00208 F900.000
G1 X94.265 Y102.408 E0.09714
G1 X86.610 Y94.753 E1.00208
G1 X86.878 Y96.071 E0.12447
G1 X94.265 Y103.458 E0.96696
G1 X94.265 Y104.507 E0.09714
G1 X88.143 Y98.385 E0.80139
G1 X89.408 Y100.699 F9000.000
G1 X94.265 Y105.557 E0.63582 F900.000
G1 X94.265 Y106.606 E0.09714
G1 X90.673 Y103.014 E0.47024
G1 X91.938 Y105.328 F9000.000
G1 X94.265 Y107.656 E0.30467 F900.000
G1 X93.581 Y108.021 E0.07178
G1 X93.203 Y107.643 E0.04958
G1 X94.265 Y100.309 F9000.000
G1 X87.922 Y93.966 E0.83028 F900.000
G1 X89.173 Y94.168 E0.11730
G1 X94.914 Y99.908 E0.75139
G1 X95.963 Y99.908 E0.09714
G1 X90.066 Y94.011 E0.77196
G1 X90.776 Y93.672 E0.07286
