; generated by Slic3r 1.2.9 on 2015-06-22 at 09:42:49

; external perimeters extrusion width = 0.50mm
; perimeters extrusion width = 0.50mm
; infill extrusion width = 0.50mm
; solid infill extrusion width = 0.50mm
; top infill extrusion width = 0.50mm

M107
M190 S57 ; set bed temperature
G28 ; home all axes
M83;
G10 P0 S195 R160                       ; Set tool 0 operating and standby temperatures
T0

G21 ; set units to millimeters
G90 ; use absolute coordinates
M83 ; use relative distances for extrusion
G1 E-3.50000 F2400.00000
G1 Z0.300 F9000.000
G1 X85.695 Y81.771 F9000.000
G1 E3.50000 F2400.00000
G1 X87.935 Y81.024 E0.21667 F1200.000
G1 X112.065 Y81.024 E2.21394
G1 X113.736 Y81.419 E0.15755
G1 X115.054 Y82.520 E0.15755 F1200.000
G1 X115.801 Y84.760 E0.21667
G1 X115.792 Y96.438 E1.07151
G1 X114.522 Y115.488 E1.75173
G1 X114.017 Y117.130 E0.15755
G1 X112.832 Y118.372 E0.15755
G1 X110.795 Y118.976 E0.19491
G1 X89.205 Y118.976 E1.98089
G1 X87.534 Y118.581 E0.15755
G1 X86.216 Y117.480 E0.15755
G1 X85.478 Y115.488 E0.19491
G1 X84.199 Y96.190 E1.77453
G1 X84.199 Y84.760 E1.04871
G1 X84.594 Y83.089 E0.15755
G1 X85.647 Y81.828 E0.15067
G1 E-3.50000 F2400.00000
G1 X107.119 Y95.054 F9000.000
G1 E3.50000 F2400.00000
G1 X107.119 Y114.104 E1.74785 F900.000
G1 X92.881 Y114.104 E1.30641
G1 X92.881 Y95.054 E1.74785
G1 X89.071 Y95.054 E0.34957
G1 X89.071 Y85.896 E0.84032
G1 X110.929 Y85.896 E2.00555
G1 X110.929 Y95.054 E0.84032
G1 X107.194 Y95.054 E0.34269
G1 X107.855 Y95.790 F9000.000
G1 X107.855 Y113.100 E1.58820 F900.000
G1 X110.395 Y113.100 E0.23305
G1 X110.395 Y114.840 E0.15965
G1 X89.605 Y114.840 E1.90749
G1 X89.605 Y113.100 E0.15965
G1 X92.145 Y113.100 E0.23305
G1 X92.145 Y95.790 E1.58820
G1 X88.335 Y95.790 E0.34957
G1 X88.335 Y85.160 E0.97531
G1 X111.665 Y85.160 E2.14054
G1 X111.665 Y95.790 E0.97531
G1 X107.930 Y95.790 E0.34269
G1 X107.355 Y95.790 F9000.000
G1 X106.670 Y95.389 F9000.000
G1 X97.626 Y86.345 E1.17519 F900.000
G1 X96.584 Y86.345 E0.09573
G1 X106.670 Y96.431 E1.31056
G1 X106.670 Y97.472 E0.09573
G1 X95.543 Y86.345 E1.44594
G1 X94.501 Y86.345 E0.09573
G1 X106.670 Y98.514 E1.58132
G1 X106.670 Y99.556 E0.09573
G1 X93.459 Y86.345 E1.71669
G1 X92.417 Y86.345 E0.09573
G1 X106.670 Y100.598 E1.85207
G1 X106.670 Y101.640 E0.09573
G1 X91.375 Y86.345 E1.98745
G1 X90.333 Y86.345 E0.09573
G1 X106.670 Y102.682 E2.12282
G1 X106.670 Y103.723 E0.09573
G1 X89.520 Y86.573 E2.22855
G1 X89.520 Y87.615 E0.09573
G1 X106.670 Y104.765 E2.22855
G1 X106.670 Y105.807 E0.09573
G1 X89.520 Y88.657 E2.22855
G1 X89.520 Y89.698 E0.09573
G1 X106.670 Y106.849 E2.22855
G1 X106.670 Y107.891 E0.09573
G1 X89.520 Y90.740 E2.22855
G1 X89.520 Y91.782 E0.09573
G1 X92.343 Y94.605 E0.36683
G1 X91.301 Y94.605 E0.09573
G1 X89.520 Y92.824 E0.23145
G1 X89.520 Y93.866 E0.09573
G1 X90.259 Y94.605 E0.09608
G1 X93.330 Y95.592 F9000.000
G1 X106.670 Y108.932 E1.73347 F900.000
G1 X106.670 Y109.974 E0.09573
G1 X93.330 Y96.634 E1.73347
G1 X93.330 Y97.676 E0.09573
G1 X106.670 Y111.016 E1.73347
G1 X106.670 Y112.058 E0.09573
G1 X93.330 Y98.718 E1.73347
G1 X93.330 Y99.759 E0.09573
G1 X106.670 Y113.100 E1.73347
G1 X106.184 Y113.655 E0.06784
G1 X93.330 Y100.801 E1.67026
G1 X93.330 Y101.843 E0.09573
G1 X105.142 Y113.655 E1.53489
G1 X104.100 Y113.655 E0.09573
G1 X93.330 Y102.885 E1.39951
G1 X93.330 Y103.927 E0.09573
G1 X103.058 Y113.655 E1.26413
G1 X102.016 Y113.655 E0.09573
G1 X93.330 Y104.969 E1.12876
G1 X93.330 Y106.010 E0.09573
G1 X100.975 Y113.655 E0.99338
G1 X99.933 Y113.655 E0.09573
G1 X93.330 Y107.052 E0.85801
G1 X93.330 Y108.094 E0.09573
G1 X98.891 Y113.655 E0.72263
G1 X97.849 Y113.655 E0.09573
G1 X93.330 Y109.136 E0.58725
G1 X93.330 Y110.178 E0.09573
G1 X96.807 Y113.655 E0.45188
G1 X95.766 Y113.655 E0.09573
G1 X93.330 Y111.219 E0.31650
G1 X93.330 Y112.261 E0.09573
G1 X94.724 Y113.655 E0.18112
G1 X93.682 Y113.655 E0.09573
G1 X93.330 Y113.303 E0.04575
G1 X106.928 Y94.605 F9000.000
G1 X98.668 Y86.345 E1.07336 F900.000
G1 X99.710 Y86.345 E0.09573
G1 X107.970 Y94.605 E1.07336
G1 X109.012 Y94.605 E0.09573
G1 X100.752 Y86.345 E1.07336
G1 X101.793 Y86.345 E0.09573
G1 X110.054 Y94.605 E1.07336
G1 X110.480 Y93.990 E0.06879
G1 X102.835 Y86.345 E0.99339
G1 X103.877 Y86.345 E0.09573
G1 X110.480 Y92.948 E0.85801
G1 X110.480 Y91.906 E0.09573
G1 X104.919 Y86.345 E0.72263
G1 X105.961 Y86.345 E0.09573
G1 X110.480 Y90.864 E0.58726
G1 X110.480 Y89.822 E0.09573
G1 X107.003 Y86.345 E0.45188
G1 X108.044 Y86.345 E0.09573
G1 X110.480 Y88.781 E0.31650
G1 X110.480 Y87.739 E0.09573
G1 X109.086 Y86.345 E0.18113
G1 X110.128 Y86.345 E0.09573
G1 X110.480 Y86.697 E0.04575
G1 X92.513 Y113.970 F9000.000
G1 X89.973 Y113.970 E0.48649 F600.000
G1 X107.487 Y113.970 F9000.000
G1 X110.027 Y113.970 E0.48649 F600.000
G1 E-3.50000 F2400.00000
G1 Z0.600 F9000.000
G1 X107.569 Y95.504 F9000.000
G1 E3.50000 F2400.00000
G1 X107.569 Y113.386 E0.97154 F1800.000
G1 X110.109 Y113.386 E0.13801
G1 X110.109 Y114.554 E0.06350
G1 X89.891 Y114.554 E1.09854
G1 X89.891 Y113.386 E0.06350
G1 X92.431 Y113.386 E0.13801
G1 X92.431 Y95.504 E0.97154
G1 X88.621 Y95.504 E0.20701
G1 X88.621 Y85.446 E0.54652
G1 X111.379 Y85.446 E1.23655
G1 X111.379 Y95.504 E0.54652
G1 X107.644 Y95.504 E0.20293
G1 X108.005 Y95.940 F9000.000
G1 X108.005 Y112.950 E0.92420 F1800.000
G1 X110.545 Y112.950 E0.13801
G1 X110.545 Y114.990 E0.11084
G1 X89.455 Y114.990 E1.14588
G1 X89.455 Y112.950 E0.11084
G1 X91.995 Y112.950 E0.13801
G1 X91.995 Y95.940 E0.92420
G1 X88.185 Y95.940 E0.20701
G1 X88.185 Y85.010 E0.59386
G1 X111.815 Y85.010 E1.28389
G1 X111.815 Y95.940 E0.59386
G1 X108.080 Y95.940 E0.20293
G1 X107.505 Y95.940 F9000.000
G1 X107.538 Y95.247 F9000.000
G1 X111.122 Y91.663 E0.27789 F1800.000
G1 X111.122 Y92.285 E0.03409
G1 X108.160 Y95.247 E0.22968
G1 X108.781 Y95.247 E0.03409
G1 X111.122 Y92.906 E0.18147
G1 X111.122 Y93.528 E0.03409
G1 X109.403 Y95.247 E0.13325
G1 X110.025 Y95.247 E0.03409
G1 X111.122 Y94.150 E0.08504
G1 X111.122 Y94.772 E0.03409
G1 X110.647 Y95.247 E0.03683
G1 X107.312 Y95.473 F9000.000
G1 X92.688 Y110.096 E1.13395 F1800.000
G1 X92.688 Y110.718 E0.03409
G1 X107.312 Y96.095 E1.13395
G1 X107.312 Y96.716 E0.03409
G1 X92.688 Y111.339 E1.13395
G1 X92.688 Y111.961 E0.03409
G1 X107.312 Y97.338 E1.13395
G1 X107.312 Y97.960 E0.03409
G1 X92.688 Y112.583 E1.13395
G1 X90.148 Y113.879 F9000.000
G1 X90.384 Y113.643 E0.01830 F1800.000
G1 X91.006 Y113.643 E0.03409
G1 X90.353 Y114.297 E0.05064
G1 X90.975 Y114.297 E0.03409
G1 X91.628 Y113.643 E0.05064
G1 X92.250 Y113.643 E0.03409
G1 X91.597 Y114.297 E0.05064
G1 X92.218 Y114.297 E0.03409
G1 X92.871 Y113.643 E0.05064
G1 X92.688 Y113.205 E0.02607
G1 X107.312 Y98.582 E1.13395
G1 X107.312 Y99.203 E0.03409
G1 X92.688 Y113.826 E1.13395
G1 X92.840 Y114.297 E0.02709
G1 X107.312 Y99.825 E1.12220
G1 X107.312 Y100.447 E0.03409
G1 X93.462 Y114.297 E1.07399
G1 X94.083 Y114.297 E0.03409
G1 X107.312 Y101.069 E1.02577
G1 X107.312 Y101.690 E0.03409
G1 X94.705 Y114.297 E0.97756
G1 X95.327 Y114.297 E0.03409
G1 X107.312 Y102.312 E0.92935
G1 X107.312 Y102.934 E0.03409
G1 X95.949 Y114.297 E0.88114
G1 X96.570 Y114.297 E0.03409
G1 X107.312 Y103.555 E0.83292
G1 X107.312 Y104.177 E0.03409
G1 X97.192 Y114.297 E0.78471
G1 X97.814 Y114.297 E0.03409
G1 X107.312 Y104.799 E0.73650
G1 X107.312 Y105.421 E0.03409
G1 X98.436 Y114.297 E0.68829
G1 X99.057 Y114.297 E0.03409
G1 X107.312 Y106.042 E0.64008
G1 X107.312 Y106.664 E0.03409
G1 X99.679 Y114.297 E0.59186
G1 X100.301 Y114.297 E0.03409
G1 X107.312 Y107.286 E0.54365
G1 X107.312 Y107.908 E0.03409
G1 X100.923 Y114.297 E0.49544
G1 X101.544 Y114.297 E0.03409
G1 X107.312 Y108.529 E0.44723
G1 X107.312 Y109.151 E0.03409
G1 X102.166 Y114.297 E0.39901
G1 X102.788 Y114.297 E0.03409
G1 X107.312 Y109.773 E0.35080
G1 X107.312 Y110.394 E0.03409
G1 X103.409 Y114.297 E0.30259
G1 X104.031 Y114.297 E0.03409
G1 X107.312 Y111.016 E0.25438
G1 X107.312 Y111.638 E0.03409
G1 X104.653 Y114.297 E0.20617
G1 X105.275 Y114.297 E0.03409
G1 X107.312 Y112.260 E0.15795
G1 X107.312 Y112.881 E0.03409
G1 X105.896 Y114.297 E0.10974
G1 X106.518 Y114.297 E0.03409
G1 X107.312 Y113.503 E0.06153
G1 X107.793 Y113.643 F9000.000
G1 X107.140 Y114.297 E0.05064 F1800.000
G1 X107.762 Y114.297 E0.03409
G1 X108.415 Y113.643 E0.05064
G1 X109.036 Y113.643 E0.03409
G1 X108.383 Y114.297 E0.05064
G1 X109.005 Y114.297 E0.03409
G1 X109.658 Y113.643 E0.05064
G1 X109.852 Y114.072 E0.02577
G1 X109.627 Y114.297 E0.01743
G1 E-3.50000 F2400.00000
G1 X111.122 Y91.041 F9000.000
G1 E3.50000 F2400.00000
G1 X92.688 Y109.474 E1.42940 F1800.000
G1 X92.688 Y108.853 E0.03409
G1 X111.122 Y90.419 E1.42940
G1 X111.122 Y89.798 E0.03409
G1 X92.688 Y108.231 E1.42940
G1 X92.688 Y107.609 E0.03409
G1 X111.122 Y89.176 E1.42940
G1 X111.122 Y88.554 E0.03409
G1 X92.688 Y106.987 E1.42940
G1 X92.688 Y106.366 E0.03409
G1 X111.122 Y87.933 E1.42940
G1 X111.122 Y87.311 E0.03409
G1 X92.688 Y105.744 E1.42940
G1 X92.688 Y105.122 E0.03409
G1 X111.122 Y86.689 E1.42940
G1 X111.122 Y86.067 E0.03409
G1 X92.688 Y104.500 E1.42940
G1 X92.688 Y103.879 E0.03409
G1 X110.864 Y85.703 E1.40941
G1 X110.242 Y85.703 E0.03409
G1 X92.688 Y103.257 E1.36120
G1 X92.688 Y102.635 E0.03409
G1 X109.620 Y85.703 E1.31298
G1 X108.999 Y85.703 E0.03409
G1 X92.688 Y102.014 E1.26477
G1 X92.688 Y101.392 E0.03409
G1 X108.377 Y85.703 E1.21656
G1 X107.755 Y85.703 E0.03409
G1 X92.688 Y100.770 E1.16835
G1 X92.688 Y100.148 E0.03409
G1 X107.133 Y85.703 E1.12013
G1 X106.512 Y85.703 E0.03409
G1 X92.688 Y99.527 E1.07192
G1 X92.688 Y98.905 E0.03409
G1 X105.890 Y85.703 E1.02371
G1 X105.268 Y85.703 E0.03409
G1 X92.688 Y98.283 E0.97550
G1 X92.688 Y97.661 E0.03409
G1 X104.646 Y85.703 E0.92729
G1 X104.025 Y85.703 E0.03409
G1 X92.688 Y97.040 E0.87907
G1 X92.688 Y96.418 E0.03409
G1 X103.403 Y85.703 E0.83086
G1 X102.781 Y85.703 E0.03409
G1 X92.688 Y95.796 E0.78265
G1 X92.616 Y95.247 E0.03040
G1 X102.160 Y85.703 E0.74002
G1 X101.538 Y85.703 E0.03409
G1 X91.995 Y95.247 E0.74002
G1 X91.373 Y95.247 E0.03409
G1 X100.916 Y85.703 E0.74002
G1 X100.294 Y85.703 E0.03409
G1 X90.751 Y95.247 E0.74002
G1 X90.130 Y95.247 E0.03409
G1 X99.673 Y85.703 E0.74002
G1 X99.051 Y85.703 E0.03409
G1 X89.508 Y95.247 E0.74002
G1 X88.886 Y95.247 E0.03409
G1 X98.429 Y85.703 E0.74002
G1 X97.807 Y85.703 E0.03409
G1 X88.878 Y94.632 E0.69240
G1 X88.878 Y94.011 E0.03409
G1 X97.186 Y85.703 E0.64419
G1 X96.564 Y85.703 E0.03409
G1 X88.878 Y93.389 E0.59598
G1 X88.878 Y92.767 E0.03409
G1 X95.942 Y85.703 E0.54776
G1 X95.321 Y85.703 E0.03409
G1 X88.878 Y92.146 E0.49955
G1 X88.878 Y91.524 E0.03409
G1 X94.699 Y85.703 E0.45134
G1 X94.077 Y85.703 E0.03409
G1 X88.878 Y90.902 E0.40313
G1 X88.878 Y90.280 E0.03409
G1 X93.455 Y85.703 E0.35491
G1 X92.834 Y85.703 E0.03409
G1 X88.878 Y89.659 E0.30670
G1 X88.878 Y89.037 E0.03409
G1 X92.212 Y85.703 E0.25849
G1 X91.590 Y85.703 E0.03409
G1 X88.878 Y88.415 E0.21028
G1 X88.878 Y87.793 E0.03409
G1 X90.968 Y85.703 E0.16207
G1 X90.347 Y85.703 E0.03409
G1 X88.878 Y87.172 E0.11385
G1 X88.878 Y86.550 E0.03409
G1 X89.725 Y85.703 E0.06564
G1 X89.103 Y85.703 E0.03409
G1 X88.878 Y85.928 E0.01743
G1 E-3.50000 F2400.00000
G1 Z0.900 F9000.000
G1 X107.569 Y95.504 F9000.000
G1 E3.50000 F2400.00000
G1 X107.569 Y113.386 E0.97154 F1800.000
G1 X110.109 Y113.386 E0.13801
G1 X110.109 Y114.554 E0.06350
G1 X89.891 Y114.554 E1.09854
G1 X89.891 Y113.386 E0.06350
G1 X92.431 Y113.386 E0.13801
G1 X92.431 Y95.504 E0.97154
G1 X88.621 Y95.504 E0.20701
G1 X88.621 Y85.446 E0.54652
G1 X111.379 Y85.446 E1.23655
G1 X111.379 Y95.504 E0.54652
G1 X107.644 Y95.504 E0.20293
G1 X108.005 Y95.940 F9000.000
G1 X108.005 Y112.950 E0.92420 F1800.000
G1 X110.545 Y112.950 E0.13801
G1 X110.545 Y114.990 E0.11084
G1 X89.455 Y114.990 E1.14588
G1 X89.455 Y112.950 E0.11084
G1 X91.995 Y112.950 E0.13801
G1 X91.995 Y95.940 E0.92420
G1 X88.185 Y95.940 E0.20701
G1 X88.185 Y85.010 E0.59386
G1 X111.815 Y85.010 E1.28389
G1 X111.815 Y95.940 E0.59386
G1 X108.080 Y95.940 E0.20293
G1 X107.505 Y95.940 F9000.000
G1 X111.122 Y85.928 F9000.000
G1 X110.897 Y85.703 E0.01743 F1800.000
G1 X110.275 Y85.703 E0.03409
G1 X111.122 Y86.550 E0.06565
G1 X111.122 Y87.172 E0.03409
G1 X109.653 Y85.703 E0.11386
G1 X109.032 Y85.703 E0.03409
G1 X111.122 Y87.793 E0.16207
G1 X111.122 Y88.415 E0.03409
G1 X108.410 Y85.703 E0.21028
G1 X107.788 Y85.703 E0.03409
G1 X111.122 Y89.037 E0.25849
G1 X111.122 Y89.659 E0.03409
G1 X107.166 Y85.703 E0.30671
G1 X106.545 Y85.703 E0.03409
G1 X111.122 Y90.280 E0.35492
G1 X111.122 Y90.902 E0.03409
G1 X105.923 Y85.703 E0.40313
G1 X105.301 Y85.703 E0.03409
G1 X111.122 Y91.524 E0.45134
G1 X111.122 Y92.146 E0.03409
G1 X104.679 Y85.703 E0.49956
G1 X104.058 Y85.703 E0.03409
G1 X111.122 Y92.767 E0.54777
G1 X111.122 Y93.389 E0.03409
G1 X103.436 Y85.703 E0.59598
G1 X102.814 Y85.703 E0.03409
G1 X111.122 Y94.011 E0.64419
G1 X111.122 Y94.632 E0.03409
G1 X102.193 Y85.703 E0.69240
G1 X101.571 Y85.703 E0.03409
G1 X111.114 Y95.247 E0.74002
G1 X110.492 Y95.247 E0.03409
G1 X100.949 Y85.703 E0.74002
G1 X100.327 Y85.703 E0.03409
G1 X109.870 Y95.247 E0.74002
G1 X109.249 Y95.247 E0.03409
G1 X99.706 Y85.703 E0.74002
G1 X99.084 Y85.703 E0.03409
G1 X108.627 Y95.247 E0.74002
G1 X108.005 Y95.247 E0.03409
G1 X98.462 Y85.703 E0.74002
G1 X97.840 Y85.703 E0.03409
G1 X107.383 Y95.247 E0.74002
G1 X107.312 Y95.796 E0.03040
G1 X97.219 Y85.703 E0.78265
G1 X96.597 Y85.703 E0.03409
G1 X107.312 Y96.418 E0.83087
G1 X107.312 Y97.040 E0.03409
G1 X95.975 Y85.703 E0.87908
G1 X95.354 Y85.703 E0.03409
G1 X107.312 Y97.661 E0.92729
G1 X107.312 Y98.283 E0.03409
G1 X94.732 Y85.703 E0.97550
G1 X94.110 Y85.703 E0.03409
G1 X107.312 Y98.905 E1.02371
G1 X107.312 Y99.527 E0.03409
G1 X93.488 Y85.703 E1.07193
G1 X92.867 Y85.703 E0.03409
G1 X107.312 Y100.148 E1.12014
G1 X107.312 Y100.770 E0.03409
G1 X92.245 Y85.703 E1.16835
G1 X91.623 Y85.703 E0.03409
G1 X107.312 Y101.392 E1.21656
G1 X107.312 Y102.014 E0.03409
G1 X91.001 Y85.703 E1.26478
G1 X90.380 Y85.703 E0.03409
G1 X107.312 Y102.635 E1.31299
G1 X107.312 Y103.257 E0.03409
G1 X89.758 Y85.703 E1.36120
G1 X89.136 Y85.703 E0.03409
G1 X107.312 Y103.879 E1.40941
G1 X107.312 Y104.501 E0.03409
G1 X88.878 Y86.067 E1.42940
G1 X88.878 Y86.689 E0.03409
G1 X107.312 Y105.122 E1.42940
G1 X107.312 Y105.744 E0.03409
G1 X88.878 Y87.311 E1.42940
G1 X88.878 Y87.933 E0.03409
G1 X107.312 Y106.366 E1.42940
G1 X107.312 Y106.987 E0.03409
G1 X88.878 Y88.554 E1.42940
G1 X88.878 Y89.176 E0.03409
G1 X107.312 Y107.609 E1.42940
G1 X107.312 Y108.231 E0.03409
G1 X88.878 Y89.798 E1.42940
G1 X88.878 Y90.420 E0.03409
G1 X107.312 Y108.853 E1.42940
G1 X107.312 Y109.474 E0.03409
G1 X88.878 Y91.041 E1.42940
G1 X88.878 Y91.663 E0.03409
G1 X92.462 Y95.247 E0.27789
G1 X92.688 Y95.473 F9000.000
G1 X107.312 Y110.096 E1.13395 F1800.000
G1 X107.312 Y110.718 E0.03409
G1 X92.688 Y96.095 E1.13395
G1 X92.688 Y96.716 E0.03409
G1 X107.312 Y111.340 E1.13395
G1 X107.312 Y111.961 E0.03409
G1 X92.688 Y97.338 E1.13395
G1 X92.688 Y97.960 E0.03409
G1 X107.312 Y112.583 E1.13395
G1 X107.312 Y113.205 E0.03409
G1 X92.688 Y98.582 E1.13395
G1 X92.688 Y99.203 E0.03409
G1 X107.782 Y114.297 E1.17041
G1 X107.160 Y114.297 E0.03409
G1 X92.688 Y99.825 E1.12219
G1 X92.688 Y100.447 E0.03409
G1 X106.538 Y114.297 E1.07398
G1 X105.916 Y114.297 E0.03409
G1 X92.688 Y101.069 E1.02577
G1 X92.688 Y101.690 E0.03409
G1 X105.295 Y114.297 E0.97756
G1 X104.673 Y114.297 E0.03409
G1 X92.688 Y102.312 E0.92934
G1 X92.688 Y102.934 E0.03409
G1 X104.051 Y114.297 E0.88113
G1 X103.430 Y114.297 E0.03409
G1 X92.688 Y103.555 E0.83292
G1 X92.688 Y104.177 E0.03409
G1 X102.808 Y114.297 E0.78471
G1 X102.186 Y114.297 E0.03409
G1 X92.688 Y104.799 E0.73650
