; generated by Slic3r 1.2.9 on 2015-06-22 at 11:50:33

; external perimeters extrusion width = 0.50mm
; perimeters extrusion width = 0.50mm
; infill extrusion width = 0.50mm
; solid infill extrusion width = 0.50mm
; top infill extrusion width = 0.50mm

M107
M190 S57 ; set bed temperature
G28 ; home all axes
M83;
G10 P0 S195 R160                       ; Set tool 0 operating and standby temperatures
T0

G21 ; set units to millimeters
G90 ; use absolute coordinates
M83 ; use relative distances for extrusion
G1 E-3.50000 F2400.00000
G1 Z0.300 F9000.000
G1 X86.359 Y90.861 F9000.000
G1 E3.50000 F2400.00000
G1 X86.646 Y90.614 E0.03474 F1178.135
G1 X87.056 Y90.315 E0.04652
G1 X87.389 Y90.124 E0.03521
G1 X87.827 Y89.915 E0.04456
G1 X88.209 Y89.781 E0.03717
G1 X88.666 Y89.661 E0.04337
G1 X89.407 Y89.570 E0.06850
G1 X110.591 Y89.570 E1.94360
G1 X111.325 Y89.659 E0.06786 F1178.135
G1 X111.618 Y89.731 E0.02766
G1 X112.165 Y89.912 E0.05289
G1 X112.611 Y90.124 E0.04532
G1 X112.944 Y90.316 E0.03522
G1 X113.211 Y90.504 E0.03002
G1 X113.635 Y90.856 E0.05049
G1 X113.991 Y91.235 E0.04772
G1 X114.214 Y91.514 E0.03279
G1 X114.409 Y91.809 E0.03246
G1 X114.667 Y92.276 E0.04893
G1 X114.804 Y92.606 E0.03279
G1 X114.966 Y93.100 E0.04773
G1 X115.043 Y93.463 E0.03400
G1 X115.109 Y93.965 E0.04644
G1 X115.112 Y94.529 E0.05177
G1 X115.089 Y94.843 E0.02886
G1 X115.024 Y95.234 E0.03638
G1 X114.911 Y95.693 E0.04341
G1 X114.828 Y95.938 E0.02369
G1 X110.480 Y107.372 E1.12240
G1 X110.178 Y108.020 E0.06561
G1 X109.879 Y108.482 E0.05049
G1 X109.687 Y108.732 E0.02888
G1 X109.455 Y108.987 E0.03166
G1 X109.082 Y109.337 E0.04692
G1 X108.696 Y109.624 E0.04419
G1 X108.371 Y109.828 E0.03517
G1 X108.125 Y109.954 E0.02537
G1 X107.581 Y110.181 E0.05400
G1 X107.193 Y110.293 E0.03710
G1 X106.742 Y110.384 E0.04220
G1 X106.378 Y110.421 E0.03363
G1 X106.050 Y110.436 E0.03008
G1 X93.950 Y110.436 E1.11018
G1 X93.622 Y110.421 E0.03009
G1 X93.258 Y110.384 E0.03362
G1 X92.807 Y110.293 E0.04220
G1 X92.418 Y110.181 E0.03711
G1 X92.027 Y110.024 E0.03871
G1 X91.636 Y109.832 E0.03994
G1 X91.304 Y109.624 E0.03589
G1 X90.924 Y109.343 E0.04343
G1 X90.663 Y109.105 E0.03239
G1 X90.312 Y108.732 E0.04697
G1 X90.026 Y108.346 E0.04414
G1 X89.818 Y108.013 E0.03595
G1 X89.520 Y107.372 E0.06488
G1 X85.172 Y95.938 E1.12240
G1 X85.014 Y95.409 E0.05057
G1 X84.910 Y94.842 E0.05290
G1 X84.883 Y94.349 E0.04531
G1 X84.891 Y93.966 E0.03520
G1 X84.929 Y93.640 E0.03004
G1 X85.036 Y93.092 E0.05125
G1 X85.196 Y92.606 E0.04696
G1 X85.334 Y92.276 E0.03283
G1 X85.499 Y91.964 E0.03242
G1 X85.785 Y91.514 E0.04890
G1 X86.009 Y91.235 E0.03283
G1 X86.307 Y90.915 E0.04010
G1 E-3.50000 F2400.00000
G1 X105.286 Y103.436 F9000.000
G1 E3.50000 F2400.00000
G1 X105.286 Y94.436 E0.82575 F883.601
G1 X110.156 Y94.436 E0.44689
G1 X105.914 Y102.197 E0.81156
G1 X105.914 Y105.564 E0.30892
G1 X94.086 Y105.564 E1.08529
G1 X94.086 Y102.197 E0.30892
G1 X89.843 Y94.436 E0.81158
G1 X94.714 Y94.436 E0.44692
G1 X94.714 Y103.436 E0.82575
G1 X105.211 Y103.436 E0.96304
G1 X104.550 Y102.700 F9000.000
G1 X104.550 Y94.317 E0.76910 F883.601
G1 X104.561 Y94.196 E0.01118
G1 X104.632 Y94.001 E0.01907
G1 X104.692 Y93.915 E0.00957
G1 X104.851 Y93.782 E0.01907
G1 X105.048 Y93.710 E0.01922
G1 X105.167 Y93.700 E0.01103
G1 X110.367 Y93.700 E0.47703
G1 X110.495 Y93.712 E0.01181
G1 X110.703 Y93.793 E0.02049
G1 X110.867 Y93.945 E0.02053
G1 X110.965 Y94.153 E0.02111
G1 X110.979 Y94.376 E0.02045
G1 X110.905 Y94.600 E0.02164
G1 X106.650 Y102.385 E0.81403
G1 X106.640 Y105.799 E0.31321
G1 X106.567 Y106.001 E0.01968
G1 X106.437 Y106.156 E0.01862
G1 X106.256 Y106.262 E0.01919
G1 X106.032 Y106.300 E0.02085
G1 X93.968 Y106.300 E1.10692
G1 X93.744 Y106.262 E0.02085
G1 X93.563 Y106.156 E0.01919
G1 X93.433 Y106.001 E0.01862
G1 X93.388 Y105.906 E0.00959
G1 X93.350 Y105.684 E0.02068
G1 X93.350 Y102.385 E0.30266
G1 X89.097 Y94.604 E0.81361
G1 X89.022 Y94.377 E0.02198
G1 X89.018 Y94.257 E0.01098
G1 X89.073 Y94.047 E0.01994
G1 X89.203 Y93.866 E0.02045
G1 X89.297 Y93.793 E0.01090
G1 X89.505 Y93.712 E0.02049
G1 X89.633 Y93.700 E0.01181
G1 X94.835 Y93.700 E0.47724
G1 X95.055 Y93.738 E0.02047
G1 X95.149 Y93.782 E0.00957
G1 X95.308 Y93.915 E0.01907
G1 X95.412 Y94.095 E0.01907
G1 X95.450 Y94.317 E0.02067
G1 X95.450 Y102.700 E0.76910
G1 X104.475 Y102.700 E0.82805
G1 X105.050 Y102.700 F9000.000
G1 X105.671 Y101.837 F9000.000
G1 X106.096 Y100.174 E0.15748 F600.000
G1 X105.735 Y99.305 F9000.000
G1 X106.095 Y99.665 E0.04880 F883.601
G1 X106.967 Y99.450 E0.08618
G1 X105.735 Y98.218 E0.16715
G1 X105.735 Y97.131 E0.10429
G1 X107.351 Y98.747 E0.21926
G1 X107.736 Y98.044 E0.07685
G1 X105.735 Y96.043 E0.27138
G1 X105.735 Y94.956 E0.10429
G1 X108.120 Y97.341 E0.32350
G1 X108.504 Y96.638 E0.07685
G1 X106.751 Y94.885 E0.23777
G1 X107.839 Y94.885 E0.10429
G1 X108.889 Y95.935 E0.14240
G1 X108.926 Y94.885 E0.10076
G1 X109.273 Y95.232 E0.04704
G1 X105.465 Y104.237 F9000.000
G1 X105.113 Y103.885 E0.04574 F883.601
G1 X104.072 Y103.885 E0.09567
G1 X105.302 Y105.115 E0.15982
G1 X104.260 Y105.115 E0.09567
G1 X103.030 Y103.885 E0.15982
G1 X101.989 Y103.885 E0.09567
G1 X103.219 Y105.115 E0.15982
G1 X102.177 Y105.115 E0.09567
G1 X100.947 Y103.885 E0.15982
G1 X99.906 Y103.885 E0.09567
G1 X101.136 Y105.115 E0.15982
G1 X100.094 Y105.115 E0.09567
G1 X98.864 Y103.885 E0.15982
G1 X97.823 Y103.885 E0.09567
G1 X99.053 Y105.115 E0.15982
G1 X98.011 Y105.115 E0.09567
G1 X96.781 Y103.885 E0.15982
G1 X95.740 Y103.885 E0.09567
G1 X96.970 Y105.115 E0.15982
G1 X95.928 Y105.115 E0.09567
G1 X94.698 Y103.885 E0.15982
G1 X94.535 Y104.763 E0.08205
G1 X94.887 Y105.115 E0.04574
G1 X94.329 Y101.837 F9000.000
G1 X93.904 Y100.174 E0.15747 F600.000
G1 X93.581 Y99.828 F9000.000
G1 X93.203 Y99.449 E0.04984 F883.601
G1 X91.931 Y97.123 F9000.000
G1 X94.265 Y99.457 E0.30714 F883.601
G1 X94.265 Y98.402 E0.09816
G1 X90.755 Y94.892 E0.46188
G1 X91.803 Y94.885 E0.09753
G1 X94.265 Y97.347 E0.32396
G1 X94.265 Y96.292 E0.09816
G1 X92.858 Y94.885 E0.18514
G1 X93.913 Y94.885 E0.09816
G1 X94.265 Y95.237 E0.04633
G1 E-3.50000 F2400.00000
G1 Z0.600 F9000.000
G1 X104.836 Y102.986 F9000.000
G1 E3.50000 F2400.00000
G1 X104.836 Y94.330 E0.47029 F1135.731
G1 X104.880 Y94.144 E0.01038
G1 X104.994 Y94.030 E0.00877
G1 X105.180 Y93.986 E0.01038
G1 X110.354 Y93.986 E0.28113
G1 X110.438 Y93.993 E0.00459
G1 X110.545 Y94.034 E0.00620
G1 X110.632 Y94.111 E0.00633
G1 X110.688 Y94.230 E0.00716
G1 X110.693 Y94.342 E0.00608
G1 X110.652 Y94.466 E0.00712
G1 X106.364 Y102.312 E0.48582
G1 X106.358 Y105.741 E0.18627
G1 X106.318 Y105.858 E0.00674
G1 X106.256 Y105.934 E0.00533
G1 X106.159 Y105.992 E0.00615
G1 X106.018 Y106.014 E0.00772
G1 X93.982 Y106.014 E0.65400
G1 X93.893 Y106.006 E0.00483
G1 X93.792 Y105.968 E0.00587
G1 X93.682 Y105.858 E0.00846
G1 X93.636 Y105.674 E0.01033
G1 X93.636 Y102.312 E0.18263
G1 X89.354 Y94.478 E0.48508
G1 X89.308 Y94.346 E0.00760
G1 X89.305 Y94.268 E0.00427
G1 X89.332 Y94.171 E0.00546
G1 X89.397 Y94.079 E0.00610
G1 X89.455 Y94.034 E0.00403
G1 X89.562 Y93.993 E0.00620
G1 X89.646 Y93.986 E0.00459
G1 X94.826 Y93.986 E0.28147
G1 X95.006 Y94.030 E0.01004
G1 X95.120 Y94.144 E0.00877
G1 X95.164 Y94.329 E0.01032
G1 X95.164 Y102.986 E0.47035
G1 X104.761 Y102.986 E0.52139
G1 X104.400 Y102.550 F9000.000
G1 X104.400 Y94.311 E0.44765 F1135.731
G1 X104.446 Y94.044 E0.01473
G1 X104.576 Y93.819 E0.01413
G1 X104.669 Y93.726 E0.00709
G1 X104.873 Y93.606 E0.01287
G1 X105.023 Y93.562 E0.00850
G1 X105.161 Y93.550 E0.00753
G1 X110.374 Y93.550 E0.28324
G1 X110.517 Y93.563 E0.00782
G1 X110.653 Y93.601 E0.00767
G1 X110.778 Y93.663 E0.00754
G1 X110.906 Y93.763 E0.00886
G1 X110.984 Y93.851 E0.00640
G1 X111.057 Y93.971 E0.00763
G1 X111.112 Y94.123 E0.00877
G1 X111.133 Y94.260 E0.00754
G1 X111.127 Y94.400 E0.00763
G1 X111.044 Y94.657 E0.01466
G1 X106.800 Y102.424 E0.48089
G1 X106.789 Y105.815 E0.18424
G1 X106.751 Y105.964 E0.00838
G1 X106.695 Y106.081 E0.00704
G1 X106.539 Y106.267 E0.01319
G1 X106.312 Y106.401 E0.01432
G1 X106.038 Y106.450 E0.01510
G1 X93.962 Y106.450 E0.65618
G1 X93.688 Y106.401 E0.01510
G1 X93.461 Y106.267 E0.01432
G1 X93.305 Y106.081 E0.01319
G1 X93.249 Y105.962 E0.00714
G1 X93.200 Y105.694 E0.01479
G1 X93.200 Y102.424 E0.17770
G1 X88.962 Y94.670 E0.48011
G1 X88.905 Y94.538 E0.00782
G1 X88.873 Y94.402 E0.00758
G1 X88.869 Y94.239 E0.00886
G1 X88.934 Y93.989 E0.01405
G1 X89.004 Y93.867 E0.00763
G1 X89.095 Y93.762 E0.00755
G1 X89.222 Y93.663 E0.00877
G1 X89.347 Y93.601 E0.00754
G1 X89.483 Y93.563 E0.00767
G1 X89.626 Y93.550 E0.00782
G1 X94.846 Y93.550 E0.28362
G1 X95.106 Y93.596 E0.01435
G1 X95.331 Y93.726 E0.01413
G1 X95.424 Y93.819 E0.00709
G1 X95.553 Y94.042 E0.01403
G1 X95.600 Y94.311 E0.01481
G1 X95.600 Y102.550 E0.44767
G1 X104.325 Y102.550 E0.47405
G1 X104.900 Y102.550 F9000.000
G1 X105.093 Y102.780 F9000.000
G1 X106.545 Y101.328 E0.11342 F1135.731
G1 X107.300 Y99.947 F9000.000
G1 X105.093 Y102.153 E0.17241 F1135.731
G1 X105.093 Y101.527 E0.03462
G1 X108.054 Y98.566 E0.23139
G1 X108.809 Y97.184 F9000.000
G1 X105.093 Y100.900 E0.29038 F1135.731
G1 X105.093 Y100.274 E0.03462
G1 X109.564 Y95.803 E0.34936
G1 X110.319 Y94.422 F9000.000
G1 X105.093 Y99.647 E0.40835 F1135.731
G1 X105.093 Y99.021 E0.03462
G1 X109.864 Y94.250 E0.37278
G1 X109.238 Y94.249 E0.03457
G1 X105.093 Y98.394 E0.32389
G1 X105.093 Y97.767 E0.03462
G1 X108.613 Y94.248 E0.27500
G1 X107.987 Y94.247 E0.03457
G1 X105.093 Y97.141 E0.22611
G1 X105.093 Y96.514 E0.03462
G1 X107.361 Y94.247 E0.17722
G1 X106.736 Y94.246 E0.03457
G1 X105.093 Y95.888 E0.12833
G1 X105.093 Y95.261 E0.03462
G1 X106.110 Y94.245 E0.07944
G1 X105.484 Y94.244 E0.03457
G1 X105.093 Y94.635 E0.03055
G1 X105.876 Y105.757 F9000.000
G1 X106.101 Y105.532 E0.01757 F1135.731
G1 X106.102 Y104.904 E0.03468
G1 X105.249 Y105.757 E0.06662
G1 X104.623 Y105.757 E0.03462
G1 X106.103 Y104.276 E0.11566
G1 X106.104 Y103.649 E0.03468
G1 X103.996 Y105.757 E0.16471
G1 X103.370 Y105.757 E0.03462
G1 X106.105 Y103.021 E0.21376
G1 X106.106 Y102.394 E0.03468
G1 X102.743 Y105.757 E0.26280
G1 X102.117 Y105.757 E0.03462
G1 X104.630 Y103.243 E0.19638
G1 X104.003 Y103.243 E0.03462
G1 X101.490 Y105.757 E0.19638
G1 X100.864 Y105.757 E0.03462
G1 X103.377 Y103.243 E0.19638
G1 X102.750 Y103.243 E0.03462
G1 X100.237 Y105.757 E0.19638
G1 X99.611 Y105.757 E0.03462
G1 X102.124 Y103.243 E0.19638
G1 X101.497 Y103.243 E0.03462
G1 X98.984 Y105.757 E0.19638
G1 X98.357 Y105.757 E0.03462
G1 X100.871 Y103.243 E0.19638
G1 X100.244 Y103.243 E0.03462
G1 X97.731 Y105.757 E0.19638
G1 X97.104 Y105.757 E0.03462
G1 X99.617 Y103.243 E0.19638
G1 X98.991 Y103.243 E0.03462
G1 X96.478 Y105.757 E0.19638
G1 X95.851 Y105.757 E0.03462
G1 X98.364 Y103.243 E0.19638
G1 X97.738 Y103.243 E0.03462
G1 X95.225 Y105.757 E0.19638
G1 X94.598 Y105.757 E0.03462
G1 X97.111 Y103.243 E0.19638
G1 X96.485 Y103.243 E0.03462
G1 X93.972 Y105.757 E0.19638
G1 X93.894 Y105.208 E0.03061
G1 X95.858 Y103.243 E0.15353
G1 X95.232 Y103.243 E0.03462
G1 X93.894 Y104.582 E0.10457
G1 X93.894 Y103.955 E0.03462
G1 X94.907 Y102.942 E0.07916
G1 X94.907 Y102.316 E0.03462
G1 X93.893 Y103.329 E0.07916
G1 X93.893 Y102.702 E0.03462
G1 X94.907 Y101.689 E0.07917
G1 X94.907 Y101.062 E0.03462
G1 X93.809 Y102.160 E0.08579
G1 X93.587 Y101.755 E0.02551
G1 X94.907 Y100.436 E0.10309
G1 X94.907 Y99.809 E0.03462
G1 X93.366 Y101.350 E0.12039
G1 X93.144 Y100.945 E0.02551
G1 X94.907 Y99.183 E0.13770
G1 X94.907 Y98.556 E0.03462
G1 X92.923 Y100.540 E0.15500
G1 X92.702 Y100.135 E0.02551
G1 X94.907 Y97.930 E0.17230
G1 X94.907 Y97.303 E0.03462
G1 X92.480 Y99.730 E0.18961
G1 X92.259 Y99.324 E0.02551
G1 X94.907 Y96.677 E0.20691
G1 X94.907 Y96.050 E0.03462
G1 X92.037 Y98.919 E0.22421
G1 X91.816 Y98.514 E0.02551
G1 X94.907 Y95.424 E0.24151
G1 X94.907 Y94.797 E0.03462
G1 X91.595 Y98.109 E0.25882
G1 X91.373 Y97.704 E0.02551
G1 X94.833 Y94.244 E0.27041
G1 X94.207 Y94.244 E0.03462
G1 X91.152 Y97.299 E0.23875
G1 X90.930 Y96.894 E0.02551
G1 X93.580 Y94.244 E0.20710
G1 X92.954 Y94.244 E0.03462
G1 X90.709 Y96.489 E0.17544
G1 X90.487 Y96.083 E0.02551
G1 X92.327 Y94.244 E0.14378
G1 X91.701 Y94.244 E0.03462
G1 X90.266 Y95.678 E0.11213
G1 X90.045 Y95.273 E0.02551
G1 X91.074 Y94.244 E0.08047
G1 X90.448 Y94.243 E0.03462
G1 X89.823 Y94.868 E0.04881
G1 X89.602 Y94.463 E0.02551
G1 X89.821 Y94.243 E0.01716
G1 E-3.50000 F2400.00000
G1 Z0.900 F9000.000
G1 X104.836 Y102.986 F9000.000
G1 E3.50000 F2400.00000
G1 X104.836 Y94.330 E0.47029 F1133.808
G1 X104.880 Y94.144 E0.01038
G1 X104.994 Y94.030 E0.00877
G1 X105.180 Y93.986 E0.01038
G1 X110.355 Y93.986 E0.28117
G1 X110.540 Y94.031 E0.01037
G1 X110.629 Y94.106 E0.00633
G1 X110.689 Y94.235 E0.00770
G1 X110.693 Y94.344 E0.00591
G1 X110.656 Y94.457 E0.00647
G1 X106.364 Y102.312 E0.48634
G1 X106.364 Y105.676 E0.18276
G1 X106.341 Y105.810 E0.00740
G1 X106.235 Y105.948 E0.00946
G1 X106.160 Y105.991 E0.00469
G1 X106.017 Y106.014 E0.00786
G1 X93.983 Y106.014 E0.65389
G1 X93.812 Y105.977 E0.00951
G1 X93.683 Y105.860 E0.00947
G1 X93.636 Y105.676 E0.01030
G1 X93.636 Y102.312 E0.18276
G1 X89.353 Y94.477 E0.48512
G1 X89.309 Y94.351 E0.00728
G1 X89.306 Y94.259 E0.00499
G1 X89.360 Y94.123 E0.00798
G1 X89.506 Y94.009 E0.01004
G1 X89.645 Y93.986 E0.00768
G1 X94.831 Y93.986 E0.28174
G1 X95.006 Y94.030 E0.00982
G1 X95.120 Y94.144 E0.00877
G1 X95.153 Y94.242 E0.00563
G1 X95.165 Y102.986 E0.47505
G1 X104.761 Y102.986 E0.52134
G1 X104.400 Y102.550 F9000.000
G1 X104.400 Y94.311 E0.44765 F1133.808
G1 X104.446 Y94.044 E0.01473
G1 X104.576 Y93.819 E0.01413
G1 X104.669 Y93.726 E0.00709
G1 X104.894 Y93.596 E0.01413
G1 X105.161 Y93.550 E0.01473
G1 X110.374 Y93.550 E0.28325
G1 X110.648 Y93.599 E0.01513
G1 X110.772 Y93.660 E0.00747
G1 X110.980 Y93.846 E0.01517
G1 X111.054 Y93.965 E0.00761
G1 X111.114 Y94.129 E0.00952
G1 X111.133 Y94.265 E0.00747
G1 X111.126 Y94.405 E0.00761
G1 X111.048 Y94.648 E0.01385
G1 X106.800 Y102.424 E0.48141
G1 X106.800 Y105.698 E0.17789
G1 X106.786 Y105.839 E0.00771
G1 X106.696 Y106.077 E0.01384
G1 X106.535 Y106.269 E0.01360
G1 X106.316 Y106.400 E0.01384
G1 X106.189 Y106.436 E0.00715
G1 X106.038 Y106.450 E0.00826
G1 X93.962 Y106.450 E0.65614
G1 X93.811 Y106.436 E0.00826
G1 X93.573 Y106.346 E0.01381
G1 X93.381 Y106.185 E0.01360
G1 X93.308 Y106.085 E0.00672
G1 X93.214 Y105.839 E0.01430
G1 X93.200 Y105.698 E0.00771
G1 X93.200 Y102.424 E0.17789
G1 X88.962 Y94.669 E0.48013
G1 X88.874 Y94.408 E0.01498
G1 X88.870 Y94.230 E0.00966
G1 X88.932 Y93.994 E0.01327
G1 X89.001 Y93.872 E0.00761
G1 X89.090 Y93.767 E0.00748
G1 X89.228 Y93.660 E0.00952
G1 X89.352 Y93.599 E0.00747
G1 X89.626 Y93.550 E0.01512
G1 X94.851 Y93.550 E0.28389
G1 X95.106 Y93.596 E0.01410
G1 X95.225 Y93.651 E0.00709
G1 X95.424 Y93.819 E0.01413
G1 X95.553 Y94.041 E0.01397
G1 X95.589 Y94.190 E0.00834
G1 X95.600 Y102.550 E0.45422
G1 X104.325 Y102.550 E0.47404
G1 X104.900 Y102.550 F9000.000
G1 X94.907 Y102.782 F9000.000
G1 X93.457 Y101.331 E0.11329 F1133.808
G1 X94.905 Y101.527 F9000.000
G1 X91.947 Y98.569 E0.23107 F1133.808
G1 X92.702 Y99.950 F9000.000
G1 X94.906 Y102.155 E0.17218 F1133.808
G1 X94.904 Y100.900 F9000.000
G1 X91.192 Y97.188 E0.28996 F1133.808
G1 X90.437 Y95.807 F9000.000
G1 X94.904 Y100.273 E0.34886 F1133.808
G1 X94.903 Y99.646 E0.03464
G1 X89.682 Y94.426 E0.40775
G1 X90.126 Y94.243 E0.02650
G1 X94.902 Y99.019 E0.37301
G1 X94.901 Y98.392 E0.03464
G1 X90.753 Y94.244 E0.32402
G1 X91.379 Y94.244 E0.03459
G1 X94.900 Y97.765 E0.27503
G1 X94.899 Y97.138 E0.03464
G1 X92.005 Y94.244 E0.22604
G1 X92.632 Y94.244 E0.03459
G1 X94.898 Y96.510 E0.17706
G1 X94.897 Y95.883 E0.03464
G1 X93.258 Y94.244 E0.12807
