; generated by Slic3r 1.2.9 on 2015-06-22 at 16:10:12

; external perimeters extrusion width = 0.50mm
; perimeters extrusion width = 0.50mm
; infill extrusion width = 0.50mm
; solid infill extrusion width = 0.50mm
; top infill extrusion width = 0.50mm

M107
M190 S57 ; set bed temperature
G28 ; home all axes
M83;
G10 P0 S195 R160                       ; Set tool 0 operating and standby temperatures
T0

G21 ; set units to millimeters
G90 ; use absolute coordinates
M83 ; use relative distances for extrusion
G1 E-3.50000 F2400.00000
G1 Z0.300 F9000.000
G1 X90.777 Y83.179 F9000.000
G1 E3.50000 F2400.00000
G1 X95.309 Y78.773 E0.57992 F1200.000
G1 X95.825 Y78.327 E0.06254
G1 X96.247 Y78.019 E0.04797
G1 X96.603 Y77.796 E0.03852
G1 X97.064 Y77.549 E0.04797
G1 X97.447 Y77.378 E0.03852
G1 X97.938 Y77.199 E0.04795
G1 X98.342 Y77.083 E0.03854
G1 X98.852 Y76.974 E0.04792
G1 X99.269 Y76.915 E0.03857
G1 X99.790 Y76.879 E0.04796
G1 X100.210 Y76.879 E0.03852
G1 X100.730 Y76.915 E0.04788
G1 X101.147 Y76.974 E0.03861 F1200.000
G1 X101.658 Y77.083 E0.04792
G1 X102.062 Y77.199 E0.03857
G1 X102.553 Y77.378 E0.04794
G1 X102.936 Y77.550 E0.03854
G1 X103.397 Y77.796 E0.04796
G1 X103.753 Y78.019 E0.03853
G1 X104.175 Y78.327 E0.04796
G1 X104.691 Y78.773 E0.06253
G1 X108.978 Y82.934 E0.54818
G1 X109.283 Y83.241 E0.03974
G1 X109.643 Y83.680 E0.05204
G1 X109.836 Y83.956 E0.03092
G1 X110.169 Y84.530 E0.06084
G1 X110.311 Y84.835 E0.03092
G1 X118.123 Y101.809 E1.71440
G1 X118.299 Y102.205 E0.03967
G1 X118.485 Y102.752 E0.05304
G1 X118.584 Y103.145 E0.03717
G1 X118.670 Y103.689 E0.05057
G1 X118.711 Y104.330 E0.05895
G1 X118.711 Y117.386 E1.19785
G1 X118.664 Y118.076 E0.06350
G1 X118.553 Y118.700 E0.05815
G1 X118.455 Y119.064 E0.03457
G1 X118.240 Y119.649 E0.05720
G1 X118.097 Y119.955 E0.03092
G1 X117.767 Y120.529 E0.06083
G1 X117.529 Y120.868 E0.03793
G1 X117.148 Y121.314 E0.05385
G1 X116.909 Y121.552 E0.03092
G1 X116.402 Y121.979 E0.06084
G1 X116.031 Y122.236 E0.04139
G1 X115.552 Y122.504 E0.05040
G1 X115.247 Y122.647 E0.03092
G1 X114.624 Y122.874 E0.06084
G1 X114.151 Y122.998 E0.04480
G1 X113.645 Y123.077 E0.04700
G1 X112.975 Y123.121 E0.06163
G1 X87.025 Y123.121 E2.38093
G1 X86.699 Y123.107 E0.02990
G1 X86.332 Y123.075 E0.03385
G1 X85.711 Y122.964 E0.05792
G1 X85.346 Y122.866 E0.03459
G1 X84.762 Y122.651 E0.05718
G1 X84.456 Y122.508 E0.03092
G1 X83.881 Y122.177 E0.06084
G1 X83.543 Y121.939 E0.03797
G1 X83.097 Y121.558 E0.05381
G1 X82.859 Y121.320 E0.03092
G1 X82.432 Y120.813 E0.06084
G1 X82.174 Y120.442 E0.04141
G1 X81.906 Y119.963 E0.05038
G1 X81.764 Y119.657 E0.03092
G1 X81.537 Y119.034 E0.06084
G1 X81.413 Y118.562 E0.04484
G1 X81.334 Y118.056 E0.04695
G1 X81.298 Y117.637 E0.03863
G1 X81.289 Y104.330 E1.22086
G1 X81.334 Y103.642 E0.06328
G1 X81.433 Y103.073 E0.05300
G1 X81.535 Y102.680 E0.03724
G1 X81.720 Y102.162 E0.05050
G1 X81.870 Y101.824 E0.03391
G1 X89.828 Y84.538 E1.74597
G1 X90.158 Y83.963 E0.06084
G1 X90.397 Y83.624 E0.03802
G1 X90.729 Y83.236 E0.04688
G1 E-3.50000 F2400.00000
G1 X106.903 Y92.386 F9000.000
G1 E3.50000 F2400.00000
G1 X102.272 Y92.386 E0.42481 F900.000
G1 X102.117 Y92.403 E0.01435
G1 X101.991 Y92.447 E0.01228
G1 X101.877 Y92.519 E0.01228
G1 X101.783 Y92.613 E0.01228
G1 X101.712 Y92.727 E0.01228
G1 X101.668 Y92.853 E0.01228
G1 X101.650 Y93.008 E0.01435
G1 X101.668 Y93.353 E0.03168
G1 X101.713 Y93.481 E0.01244
G1 X101.786 Y93.595 E0.01244
G1 X101.883 Y93.690 E0.01244
G1 X101.999 Y93.760 E0.01244
G1 X102.928 Y94.006 E0.08811
G1 X103.709 Y94.269 E0.07569
G1 X104.468 Y94.594 E0.07569
G1 X105.198 Y94.978 E0.07569
G1 X105.896 Y95.418 E0.07569
G1 X106.556 Y95.912 E0.07569
G1 X107.175 Y96.457 E0.07569
G1 X107.750 Y97.050 E0.07569
G1 X108.275 Y97.686 E0.07569
G1 X108.748 Y98.361 E0.07569
G1 X109.166 Y99.072 E0.07569
G1 X109.527 Y99.814 E0.07569
G1 X109.828 Y100.582 E0.07569
G1 X110.067 Y101.372 E0.07569
G1 X110.242 Y102.178 E0.07569
G1 X110.353 Y102.996 E0.07569
G1 X110.399 Y103.819 E0.07569
G1 X110.379 Y104.644 E0.07569
G1 X110.295 Y105.465 E0.07569
G1 X110.145 Y106.276 E0.07569
G1 X109.939 Y107.043 E0.07291
G1 X109.656 Y107.850 E0.07841
G1 X109.319 Y108.603 E0.07574
G1 X108.924 Y109.327 E0.07569
G1 X108.489 Y109.992 E0.07291
G1 X107.968 Y110.670 E0.07841
G1 X107.413 Y111.281 E0.07574
G1 X106.811 Y111.845 E0.07569
G1 X106.167 Y112.360 E0.07569
G1 X105.484 Y112.823 E0.07569
G1 X104.766 Y113.230 E0.07569
G1 X104.018 Y113.578 E0.07569
G1 X103.246 Y113.867 E0.07569
G1 X102.452 Y114.093 E0.07569
G1 X101.643 Y114.255 E0.07569
G1 X100.824 Y114.353 E0.07569
G1 X100.000 Y114.386 E0.07569
G1 X99.176 Y114.353 E0.07569
G1 X98.357 Y114.255 E0.07569
G1 X97.548 Y114.093 E0.07569
G1 X96.754 Y113.867 E0.07569
G1 X95.982 Y113.578 E0.07569
G1 X95.234 Y113.230 E0.07569
G1 X94.516 Y112.823 E0.07569
G1 X93.833 Y112.360 E0.07569
G1 X93.212 Y111.864 E0.07291
G1 X92.588 Y111.281 E0.07841
G1 X92.032 Y110.670 E0.07574
G1 X91.528 Y110.018 E0.07569
G1 X91.041 Y109.274 E0.08155
G1 X90.680 Y108.602 E0.06997
G1 X90.344 Y107.850 E0.07556
G1 X90.068 Y107.073 E0.07569
G1 X89.855 Y106.276 E0.07569
G1 X89.711 Y105.494 E0.07291
G1 X89.621 Y104.645 E0.07841
G1 X89.601 Y103.819 E0.07574
G1 X89.647 Y102.996 E0.07569
G1 X89.754 Y102.208 E0.07291
G1 X89.933 Y101.373 E0.07841
G1 X90.172 Y100.582 E0.07574
G1 X90.473 Y99.814 E0.07569
G1 X90.834 Y99.072 E0.07569
G1 X91.252 Y98.361 E0.07569
G1 X91.725 Y97.686 E0.07569
G1 X92.250 Y97.050 E0.07569
G1 X92.803 Y96.479 E0.07291
G1 X93.443 Y95.912 E0.07841
G1 X94.104 Y95.418 E0.07574
G1 X94.802 Y94.978 E0.07569
G1 X95.532 Y94.594 E0.07569
G1 X96.291 Y94.269 E0.07569
G1 X97.072 Y94.006 E0.07569
G1 X98.001 Y93.760 E0.08811
G1 X98.117 Y93.690 E0.01244
G1 X98.214 Y93.595 E0.01244
G1 X98.287 Y93.481 E0.01244
G1 X98.332 Y93.353 E0.01244
G1 X98.350 Y93.008 E0.03168
G1 X98.332 Y92.853 E0.01435
G1 X98.288 Y92.727 E0.01228
G1 X98.217 Y92.613 E0.01228
G1 X98.123 Y92.519 E0.01228
G1 X98.009 Y92.447 E0.01228
G1 X97.883 Y92.403 E0.01228
G1 X97.728 Y92.386 E0.01435
G1 X93.097 Y92.386 E0.42481
G1 X94.516 Y89.769 E0.27315
G1 X94.550 Y89.558 E0.01959
G1 X94.550 Y86.707 E0.26156
G1 X105.450 Y86.707 E1.00008
G1 X105.460 Y89.676 E0.27246
G1 X105.532 Y89.878 E0.01959
G1 X106.867 Y92.320 E0.25538
G1 X106.986 Y92.879 F9000.000
G1 E-3.50000 F2400.00000
G1 X98.198 Y85.971 F9000.000
G1 E3.50000 F2400.00000
G1 X96.515 Y85.971 E0.15445 F900.000
G1 X97.503 Y85.087 E0.12165
G1 X98.152 Y85.912 E0.09635
G1 X98.738 Y85.348 F9000.000
G1 X98.443 Y85.092 E0.03591 F900.000
G1 X98.190 Y84.770 E0.03753
G1 X98.002 Y84.407 E0.03753
G1 X97.887 Y84.014 E0.03753
G1 X97.848 Y83.607 E0.03753
G1 X97.887 Y83.200 E0.03753
G1 X98.002 Y82.807 E0.03753
G1 X98.190 Y82.444 E0.03753
G1 X98.443 Y82.122 E0.03753
G1 X98.752 Y81.854 E0.03753
G1 X99.107 Y81.649 E0.03765
G1 X99.505 Y81.514 E0.03853
G1 X99.898 Y81.458 E0.03640 F900.000
G1 X100.306 Y81.477 E0.03753
G1 X100.704 Y81.573 E0.03753
G1 X101.076 Y81.743 E0.03753
G1 X101.409 Y81.981 E0.03753
G1 X101.691 Y82.277 E0.03753
G1 X101.913 Y82.621 E0.03753
G1 X102.065 Y83.001 E0.03753
G1 X102.142 Y83.402 E0.03753
G1 X102.142 Y83.811 E0.03753
G1 X102.065 Y84.213 E0.03753
G1 X101.913 Y84.593 E0.03753
G1 X101.691 Y84.937 E0.03753
G1 X101.409 Y85.233 E0.03753
G1 X101.076 Y85.470 E0.03753
G1 X100.704 Y85.640 E0.03753
G1 X100.306 Y85.737 E0.03753
G1 X99.898 Y85.756 E0.03753
G1 X99.493 Y85.698 E0.03753
G1 X99.106 Y85.564 E0.03753
G1 X98.801 Y85.388 E0.03228
G1 X98.377 Y85.498 F9000.000
G1 X101.722 Y85.971 F9000.000
G1 X102.272 Y85.394 E0.07320 F900.000
G1 X102.483 Y85.067 E0.03569
G1 X103.473 Y85.971 E0.12305
G1 X101.797 Y85.971 E0.15376
G1 E-3.50000 F2400.00000
G1 X103.765 Y93.121 F9000.000
G1 E3.50000 F2400.00000
G1 X107.834 Y93.121 E0.37338 F900.000
G1 X113.711 Y103.874 E1.12429
G1 X113.788 Y104.049 E0.01755
G1 X113.824 Y104.189 E0.01322
G1 X113.839 Y104.377 E0.01739
G1 X113.839 Y114.182 E0.89960
G1 X113.120 Y113.854 E0.07251
G1 X112.586 Y113.724 E0.05042
G1 X112.037 Y113.698 E0.05042
G1 X111.508 Y113.774 E0.04909
G1 X110.977 Y113.954 E0.05142
G1 X110.498 Y114.231 E0.05075
G1 X110.083 Y114.591 E0.05042
G1 X109.743 Y115.023 E0.05042
G1 X109.491 Y115.511 E0.05042
G1 X109.336 Y116.039 E0.05042
G1 X109.284 Y116.586 E0.05042
G1 X109.336 Y117.133 E0.05042
G1 X109.491 Y117.660 E0.05042
G1 X109.795 Y118.250 E0.06090
G1 X90.176 Y118.250 E1.80009
G1 X90.394 Y117.910 E0.03705
G1 X90.599 Y117.400 E0.05042
G1 X90.703 Y116.861 E0.05042
G1 X90.703 Y116.311 E0.05042
G1 X90.599 Y115.771 E0.05042
G1 X90.394 Y115.261 E0.05042
G1 X90.097 Y114.799 E0.05042
G1 X89.718 Y114.401 E0.05042
G1 X89.270 Y114.082 E0.05042
G1 X88.770 Y113.854 E0.05042
G1 X88.236 Y113.724 E0.05042
G1 X87.687 Y113.698 E0.05042
G1 X87.158 Y113.774 E0.04909
G1 X86.627 Y113.954 E0.05142
G1 X86.161 Y114.224 E0.04938
G1 X86.161 Y104.378 E0.90336
G1 X86.177 Y104.187 E0.01755
G1 X86.212 Y104.048 E0.01322
G1 X86.289 Y103.874 E0.01739
G1 X92.166 Y93.121 E1.12432
G1 X96.235 Y93.121 E0.37336
G1 X96.296 Y93.491 E0.03440
G1 X96.028 Y93.582 E0.02594
G1 X95.216 Y93.929 E0.08105
G1 X94.434 Y94.340 E0.08105
G1 X93.687 Y94.811 E0.08105
G1 X92.978 Y95.342 E0.08120
G1 X92.295 Y95.947 E0.08377
G1 X91.702 Y96.559 E0.07817
G1 X91.139 Y97.240 E0.08105
G1 X90.633 Y97.963 E0.08105
G1 X90.185 Y98.724 E0.08105
G1 X89.799 Y99.519 E0.08105
G1 X89.477 Y100.342 E0.08105
G1 X89.220 Y101.189 E0.08120
G1 X89.029 Y102.081 E0.08377
G1 X88.914 Y102.925 E0.07817
G1 X88.865 Y103.807 E0.08105
G1 X88.886 Y104.692 E0.08120
G1 X88.982 Y105.600 E0.08377
G1 X89.137 Y106.438 E0.07817
G1 X89.365 Y107.291 E0.08105
G1 X89.661 Y108.124 E0.08105
G1 X90.020 Y108.927 E0.08069
G1 X90.408 Y109.650 E0.07533
G1 X90.928 Y110.445 E0.08714
G1 X91.468 Y111.143 E0.08105
G1 X92.064 Y111.798 E0.08120
G1 X92.731 Y112.421 E0.08377
G1 X93.397 Y112.953 E0.07817
G1 X94.128 Y113.448 E0.08105
G1 X94.897 Y113.884 E0.08105
G1 X95.697 Y114.257 E0.08105
G1 X96.525 Y114.566 E0.08105
G1 X97.374 Y114.808 E0.08105
G1 X98.240 Y114.982 E0.08105
G1 X99.117 Y115.087 E0.08105
G1 X100.000 Y115.122 E0.08105
G1 X100.883 Y115.087 E0.08105
G1 X101.760 Y114.982 E0.08105
G1 X102.626 Y114.808 E0.08105
G1 X103.475 Y114.566 E0.08105
G1 X104.303 Y114.257 E0.08105
G1 X105.103 Y113.884 E0.08105
G1 X105.872 Y113.448 E0.08105
G1 X106.603 Y112.953 E0.08105
G1 X107.293 Y112.402 E0.08105
G1 X107.937 Y111.797 E0.08105
G1 X108.533 Y111.142 E0.08120
G1 X109.089 Y110.419 E0.08377
G1 X109.555 Y109.705 E0.07817
G1 X109.979 Y108.930 E0.08105
G1 X110.340 Y108.122 E0.08120
G1 X110.643 Y107.261 E0.08377
G1 X110.863 Y106.438 E0.07817
G1 X111.023 Y105.569 E0.08105
G1 X111.114 Y104.691 E0.08105
G1 X111.135 Y103.807 E0.08105
G1 X111.086 Y102.925 E0.08105
G1 X110.967 Y102.050 E0.08105
G1 X110.779 Y101.187 E0.08105
G1 X110.523 Y100.342 E0.08105
G1 X110.201 Y99.519 E0.08105
G1 X109.815 Y98.724 E0.08105
G1 X109.367 Y97.963 E0.08105
G1 X108.861 Y97.240 E0.08105
G1 X108.298 Y96.559 E0.08105
G1 X107.683 Y95.924 E0.08105
G1 X107.020 Y95.341 E0.08105
G1 X106.313 Y94.811 E0.08105
G1 X105.566 Y94.340 E0.08105
G1 X104.784 Y93.929 E0.08105
G1 X103.972 Y93.582 E0.08105
G1 X103.704 Y93.491 E0.02594
G1 X103.752 Y93.195 E0.02752
G1 E-3.50000 F2400.00000
G1 X114.217 Y115.923 F9000.000
G1 E3.50000 F2400.00000
G1 X114.088 Y115.600 E0.03198 F900.000
G1 X113.866 Y115.256 E0.03753
G1 X113.584 Y114.960 E0.03753
G1 X113.251 Y114.722 E0.03753
G1 X112.879 Y114.552 E0.03753
G1 X112.481 Y114.456 E0.03753
G1 X112.073 Y114.436 E0.03753
G1 X111.680 Y114.493 E0.03640
G1 X111.282 Y114.628 E0.03853
G1 X110.927 Y114.833 E0.03765
G1 X110.618 Y115.101 E0.03753
G1 X110.365 Y115.422 E0.03753
G1 X110.177 Y115.786 E0.03753
G1 X110.062 Y116.179 E0.03753
G1 X110.023 Y116.586 E0.03753
G1 X110.062 Y116.993 E0.03753
G1 X110.177 Y117.386 E0.03753
G1 X110.365 Y117.749 E0.03753
G1 X110.618 Y118.071 E0.03753
G1 X110.927 Y118.339 E0.03753
G1 X111.281 Y118.543 E0.03753
G1 X111.496 Y118.618 E0.02089
G1 X111.434 Y118.986 E0.03425
G1 X88.563 Y118.986 E2.09847
G1 X88.487 Y118.638 E0.03263
G1 X88.901 Y118.449 E0.04173
G1 X89.234 Y118.212 E0.03753
G1 X89.516 Y117.916 E0.03753
G1 X89.738 Y117.572 E0.03753
G1 X89.890 Y117.192 E0.03753
G1 X89.967 Y116.790 E0.03753
G1 X89.967 Y116.381 E0.03753
G1 X89.890 Y115.980 E0.03753
G1 X89.738 Y115.600 E0.03753
G1 X89.516 Y115.256 E0.03753
G1 X89.234 Y114.960 E0.03753
G1 X88.901 Y114.722 E0.03753
G1 X88.529 Y114.552 E0.03753
G1 X88.131 Y114.456 E0.03753
G1 X87.723 Y114.436 E0.03753
G1 X87.330 Y114.493 E0.03640
G1 X86.932 Y114.628 E0.03853
G1 X86.577 Y114.833 E0.03765
G1 X86.268 Y115.101 E0.03753
G1 X86.015 Y115.422 E0.03753
G1 X85.763 Y115.911 E0.05045
G1 X85.426 Y115.829 E0.03185
G1 X85.425 Y104.347 E1.05351
G1 X85.449 Y104.064 E0.02603
G1 X85.515 Y103.806 E0.02450
G1 X85.629 Y103.548 E0.02582
G1 X93.066 Y89.941 E1.42273
G1 X93.221 Y89.590 E0.03528
G1 X93.319 Y89.201 E0.03674
G1 X93.350 Y88.825 E0.03464
G1 X93.350 Y87.124 E0.15604
G1 X93.376 Y86.829 E0.02720
G1 X93.448 Y86.560 E0.02559
G1 X93.566 Y86.307 E0.02559
G1 X93.726 Y86.078 E0.02560
G1 X93.916 Y85.889 E0.02459
G1 X94.153 Y85.721 E0.02666
G1 X94.405 Y85.604 E0.02549
G1 X94.673 Y85.533 E0.02540
G1 X95.412 Y85.477 E0.06801
G1 X95.794 Y85.382 E0.03616
G1 X96.155 Y85.226 E0.03608
G1 X96.475 Y85.020 E0.03488
G1 X96.777 Y84.750 E0.03716
G1 X97.022 Y84.441 E0.03619
G1 X97.213 Y84.097 E0.03608
G1 X97.345 Y83.726 E0.03615
G1 X97.489 Y82.914 E0.07563
G1 X97.711 Y82.366 E0.05428
G1 X97.947 Y82.013 E0.03902
G1 X98.257 Y81.667 E0.04252
G1 X98.267 Y81.676 E0.00130
G1 X98.468 Y81.507 E0.02409
G1 X98.750 Y81.326 E0.03078
G1 X99.108 Y81.166 E0.03599
G1 X99.458 Y81.065 E0.03337
G1 X99.818 Y81.014 E0.03333
G1 X100.176 Y81.013 E0.03286
G1 X100.561 Y81.068 E0.03565
G1 X100.892 Y81.166 E0.03167
G1 X101.224 Y81.314 E0.03337
G1 X101.532 Y81.507 E0.03337
G1 X101.845 Y81.771 E0.03762
G1 X102.220 Y82.242 E0.05513
G1 X102.413 Y82.642 E0.04083
G1 X102.548 Y83.063 E0.04053
G1 X102.655 Y83.728 E0.06186
G1 X102.788 Y84.100 E0.03617
G1 X102.980 Y84.443 E0.03608
G1 X103.216 Y84.741 E0.03488
G1 X103.515 Y85.014 E0.03716
G1 X103.847 Y85.227 E0.03619
G1 X104.209 Y85.383 E0.03608
G1 X104.591 Y85.477 E0.03613
G1 X105.330 Y85.533 E0.06803
G1 X105.597 Y85.605 E0.02538
G1 X105.840 Y85.718 E0.02459
G1 X106.079 Y85.884 E0.02666
G1 X106.275 Y86.080 E0.02549
G1 X106.435 Y86.309 E0.02559
G1 X106.553 Y86.562 E0.02559
G1 X106.625 Y86.832 E0.02561
G1 X106.650 Y87.124 E0.02695
G1 X106.650 Y88.825 E0.15605
G1 X106.681 Y89.199 E0.03443
G1 X106.783 Y89.599 E0.03787
G1 X106.933 Y89.939 E0.03416
G1 X114.371 Y103.548 E1.42292
G1 X114.486 Y103.808 E0.02603
G1 X114.552 Y104.066 E0.02450
G1 X114.575 Y104.347 E0.02582
G1 X114.575 Y115.854 E1.05582
G1 X114.291 Y115.909 E0.02656
G1 X114.289 Y115.582 F9000.000
G1 X114.575 Y117.368 F9000.000
G1 X114.549 Y117.664 E0.02720 F900.000
G1 X114.477 Y117.933 E0.02559
G1 X114.359 Y118.186 E0.02559
G1 X114.199 Y118.414 E0.02559
G1 X114.001 Y118.611 E0.02561
G1 X113.782 Y118.765 E0.02458
G1 X113.519 Y118.889 E0.02666
G1 X113.250 Y118.960 E0.02551
G1 X112.958 Y118.986 E0.02690
G1 X112.863 Y118.626 E0.03411
G1 X113.251 Y118.449 E0.03908
G1 X113.584 Y118.212 E0.03753
G1 X113.866 Y117.916 E0.03753
G1 X114.088 Y117.572 E0.03753
G1 X114.204 Y117.280 E0.02884
G1 X114.502 Y117.351 E0.02807
G1 X114.393 Y117.602 F9000.000
G1 E-3.50000 F2400.00000
G1 X87.102 Y118.602 F9000.000
G1 E3.50000 F2400.00000
G1 X87.020 Y118.984 E0.03580 F900.000
G1 X86.747 Y118.960 E0.02517
G1 X86.478 Y118.888 E0.02559
G1 X86.225 Y118.770 E0.02560
G1 X86.005 Y118.616 E0.02459
G1 X85.799 Y118.411 E0.02666
G1 X85.640 Y118.184 E0.02549
G1 X85.522 Y117.931 E0.02559
G1 X85.450 Y117.661 E0.02561
