; generated by Slic3r 1.2.9 on 2015-06-23 at 09:48:46

; external perimeters extrusion width = 0.50mm
; perimeters extrusion width = 0.50mm
; infill extrusion width = 0.50mm
; solid infill extrusion width = 0.50mm
; top infill extrusion width = 0.50mm

M107
M190 S57 ; set bed temperature
G28 ; home all axes
M83;
G10 P0 S195 R160                       ; Set tool 0 operating and standby temperatures
T0

G21 ; set units to millimeters
G90 ; use absolute coordinates
M83 ; use relative distances for extrusion
G1 E-3.50000 F2400.00000
G1 Z0.300 F9000.000
G1 X78.749 Y82.792 F9000.000
G1 E3.50000 F2400.00000
G1 X79.187 Y82.432 E0.05206 F1200.000
G1 X79.558 Y82.174 E0.04140
G1 X80.037 Y81.906 E0.05040
G1 X80.464 Y81.710 E0.04313
G1 X80.966 Y81.537 E0.04866
G1 X81.438 Y81.413 E0.04484
G1 X81.944 Y81.334 E0.04696
G1 X82.280 Y81.304 E0.03092
G1 X82.614 Y81.289 E0.03073
G1 X95.670 Y81.289 E1.19785
G1 X95.981 Y81.302 E0.02857
G1 X96.358 Y81.334 E0.03472 F1200.000
G1 X96.927 Y81.433 E0.05301
G1 X97.320 Y81.535 E0.03720
G1 X97.838 Y81.720 E0.05053
G1 X115.157 Y89.685 E1.74896
G1 X115.515 Y89.853 E0.03631
G1 X116.037 Y90.158 E0.05546
G1 X116.375 Y90.396 E0.03797
G1 X116.821 Y90.777 E0.05382
G1 X117.059 Y91.016 E0.03092
G1 X121.227 Y95.309 E0.54900
G1 X121.673 Y95.825 E0.06254
G1 X121.985 Y96.252 E0.04856
G1 X122.204 Y96.603 E0.03792
G1 X122.450 Y97.063 E0.04792
G1 X122.622 Y97.447 E0.03856
G1 X122.801 Y97.938 E0.04794
G1 X122.917 Y98.342 E0.03855
G1 X123.026 Y98.853 E0.04796
G1 X123.085 Y99.269 E0.03852
G1 X123.121 Y99.790 E0.04797
G1 X123.121 Y100.210 E0.03852
G1 X123.085 Y100.731 E0.04793
G1 X123.026 Y101.147 E0.03856
G1 X122.917 Y101.658 E0.04796
G1 X122.801 Y102.062 E0.03852
G1 X122.622 Y102.553 E0.04796
G1 X122.451 Y102.936 E0.03852
G1 X122.204 Y103.397 E0.04797
G1 X121.981 Y103.753 E0.03852
G1 X121.673 Y104.175 E0.04792
G1 X121.227 Y104.691 E0.06257
G1 X117.066 Y108.978 E0.54819
G1 X116.759 Y109.284 E0.03976
G1 X116.320 Y109.643 E0.05202
G1 X115.949 Y109.901 E0.04140
G1 X115.470 Y110.169 E0.05039
G1 X98.141 Y118.146 E1.75030
G1 X97.796 Y118.298 E0.03467
G1 X97.248 Y118.484 E0.05306
G1 X96.855 Y118.584 E0.03720
G1 X96.311 Y118.670 E0.05055
G1 X95.670 Y118.711 E0.05895
G1 X82.614 Y118.711 E1.19785
G1 X81.924 Y118.664 E0.06346
G1 X81.300 Y118.553 E0.05819
G1 X80.974 Y118.466 E0.03092
G1 X80.351 Y118.240 E0.06084
G1 X79.992 Y118.072 E0.03630
G1 X79.471 Y117.767 E0.05548
G1 X79.195 Y117.573 E0.03092
G1 X78.686 Y117.148 E0.06084
G1 X78.381 Y116.841 E0.03970
G1 X78.021 Y116.402 E0.05208
G1 X77.828 Y116.126 E0.03092
G1 X77.496 Y115.552 E0.06084
G1 X77.299 Y115.125 E0.04316
G1 X77.126 Y114.624 E0.04863
G1 X77.005 Y114.163 E0.04372
G1 X76.923 Y113.645 E0.04807
G1 X76.879 Y112.975 E0.06163
G1 X76.879 Y87.025 E2.38093
G1 X76.925 Y86.334 E0.06357
G1 X77.036 Y85.711 E0.05808
G1 X77.134 Y85.346 E0.03462
G1 X77.349 Y84.762 E0.05715
G1 X77.517 Y84.403 E0.03629
G1 X77.823 Y83.881 E0.05549
G1 X78.016 Y83.605 E0.03092
G1 X78.442 Y83.097 E0.06084
G1 X78.695 Y82.844 E0.03284
G1 E-3.50000 F2400.00000
G1 X108.493 Y106.422 F9000.000
G1 E3.50000 F2400.00000
G1 X108.493 Y102.272 E0.38074 F900.000
G1 X108.476 Y102.117 E0.01435
G1 X108.431 Y101.991 E0.01228
G1 X108.360 Y101.877 E0.01228
G1 X108.266 Y101.783 E0.01228
G1 X108.152 Y101.712 E0.01228
G1 X108.026 Y101.668 E0.01227
G1 X107.871 Y101.650 E0.01435
G1 X105.960 Y101.650 E0.17532
G1 X105.802 Y101.668 E0.01459
G1 X105.674 Y101.714 E0.01248
G1 X105.559 Y101.787 E0.01248
G1 X105.464 Y101.885 E0.01248
G1 X105.394 Y102.001 E0.01248
G1 X105.150 Y102.941 E0.08906
G1 X104.889 Y103.734 E0.07660
G1 X104.566 Y104.503 E0.07660
G1 X104.183 Y105.245 E0.07660
G1 X103.744 Y105.955 E0.07660
G1 X103.250 Y106.629 E0.07660
G1 X102.705 Y107.261 E0.07660
G1 X102.113 Y107.849 E0.07660
G1 X101.476 Y108.389 E0.07660
G1 X100.799 Y108.877 E0.07660
G1 X100.085 Y109.311 E0.07660
G1 X99.340 Y109.687 E0.07660
G1 X98.568 Y110.004 E0.07660
G1 X97.773 Y110.259 E0.07660
G1 X96.990 Y110.445 E0.07378
G1 X96.136 Y110.580 E0.07935
G1 X95.303 Y110.643 E0.07665
G1 X94.468 Y110.641 E0.07660
G1 X93.636 Y110.573 E0.07660
G1 X92.812 Y110.441 E0.07660
G1 X92.001 Y110.244 E0.07660
G1 X91.207 Y109.984 E0.07660
G1 X90.437 Y109.663 E0.07660
G1 X89.694 Y109.283 E0.07660
G1 X89.009 Y108.862 E0.07378
G1 X88.308 Y108.354 E0.07935
G1 X87.674 Y107.811 E0.07665
G1 X87.084 Y107.220 E0.07660
G1 X86.543 Y106.584 E0.07660
G1 X86.053 Y105.908 E0.07660
G1 X85.617 Y105.196 E0.07660
G1 X85.239 Y104.452 E0.07660
G1 X84.920 Y103.680 E0.07660
G1 X84.662 Y102.886 E0.07660
G1 X84.468 Y102.074 E0.07660
G1 X84.337 Y101.250 E0.07660
G1 X84.272 Y100.417 E0.07660
G1 X84.272 Y99.583 E0.07660
G1 X84.337 Y98.750 E0.07660
G1 X84.468 Y97.926 E0.07660
G1 X84.662 Y97.114 E0.07660
G1 X84.920 Y96.320 E0.07660
G1 X85.239 Y95.548 E0.07660
G1 X85.617 Y94.804 E0.07660
G1 X86.053 Y94.092 E0.07660
G1 X86.543 Y93.416 E0.07660
G1 X87.084 Y92.780 E0.07660
G1 X87.674 Y92.189 E0.07660
G1 X88.308 Y91.646 E0.07660
G1 X88.982 Y91.154 E0.07660
G1 X89.694 Y90.717 E0.07660
G1 X90.437 Y90.337 E0.07660
G1 X91.207 Y90.016 E0.07660
G1 X92.001 Y89.756 E0.07660
G1 X92.812 Y89.559 E0.07660
G1 X93.636 Y89.427 E0.07660
G1 X94.468 Y89.359 E0.07660
G1 X95.273 Y89.357 E0.07378
G1 X96.135 Y89.420 E0.07935
G1 X96.961 Y89.548 E0.07665
G1 X97.773 Y89.741 E0.07660
G1 X98.568 Y89.996 E0.07660
G1 X99.343 Y90.314 E0.07691
G1 X100.085 Y90.689 E0.07629
G1 X100.799 Y91.123 E0.07659
G1 X101.476 Y91.611 E0.07660
G1 X102.113 Y92.151 E0.07660
G1 X102.705 Y92.739 E0.07660
G1 X103.250 Y93.371 E0.07660
G1 X103.744 Y94.045 E0.07660
G1 X104.183 Y94.755 E0.07660
G1 X104.566 Y95.497 E0.07660
G1 X104.889 Y96.266 E0.07660
G1 X105.150 Y97.059 E0.07660
G1 X105.394 Y97.999 E0.08906
G1 X105.464 Y98.115 E0.01248
G1 X105.559 Y98.213 E0.01248
G1 X105.674 Y98.286 E0.01248
G1 X105.802 Y98.332 E0.01248
G1 X105.960 Y98.350 E0.01459
G1 X107.871 Y98.350 E0.17532
G1 X108.026 Y98.332 E0.01435
G1 X108.152 Y98.288 E0.01228
G1 X108.266 Y98.217 E0.01228
G1 X108.360 Y98.123 E0.01228
G1 X108.431 Y98.009 E0.01228
G1 X108.476 Y97.883 E0.01228
G1 X108.493 Y97.728 E0.01435
G1 X108.493 Y93.578 E0.38074
G1 X110.231 Y94.516 E0.18126
G1 X110.442 Y94.550 E0.01959
G1 X111.611 Y94.550 E0.10719
G1 X112.010 Y94.585 E0.03678
G1 X112.425 Y94.698 E0.03953
G1 X112.793 Y94.870 E0.03725
G1 X113.137 Y95.110 E0.03844
G1 X113.433 Y95.406 E0.03844
G1 X113.673 Y95.750 E0.03845
G1 X113.850 Y96.129 E0.03844
G1 X113.955 Y96.522 E0.03724
G1 X113.993 Y96.932 E0.03778
G1 X113.993 Y99.259 E0.21358
G1 X114.361 Y99.321 E0.03425
G1 X114.436 Y99.106 E0.02089
G1 X114.640 Y98.752 E0.03753
G1 X114.908 Y98.443 E0.03753
G1 X115.230 Y98.190 E0.03753
G1 X115.594 Y98.002 E0.03765
G1 X115.998 Y97.886 E0.03853
G1 X116.393 Y97.848 E0.03640
G1 X116.800 Y97.887 E0.03753
G1 X117.193 Y98.002 E0.03753
G1 X117.556 Y98.190 E0.03753
G1 X117.878 Y98.443 E0.03753
G1 X118.146 Y98.752 E0.03753
G1 X118.350 Y99.106 E0.03753
G1 X118.484 Y99.493 E0.03753
G1 X118.542 Y99.898 E0.03753
G1 X118.523 Y100.306 E0.03753
G1 X118.427 Y100.704 E0.03753
G1 X118.257 Y101.076 E0.03753
G1 X118.019 Y101.409 E0.03753
G1 X117.723 Y101.691 E0.03753
G1 X117.379 Y101.913 E0.03753
G1 X116.999 Y102.065 E0.03753
G1 X116.598 Y102.142 E0.03753
G1 X116.189 Y102.142 E0.03753
G1 X115.787 Y102.065 E0.03753
G1 X115.407 Y101.913 E0.03753
G1 X115.063 Y101.691 E0.03753
G1 X114.767 Y101.409 E0.03753
G1 X114.530 Y101.076 E0.03753
G1 X114.341 Y100.662 E0.04173
G1 X113.993 Y100.738 E0.03263
G1 X113.993 Y103.067 E0.21374
G1 X113.958 Y103.466 E0.03668
G1 X113.850 Y103.870 E0.03844
G1 X113.673 Y104.250 E0.03844
G1 X113.433 Y104.594 E0.03845
G1 X113.137 Y104.890 E0.03844
G1 X112.804 Y105.123 E0.03724
G1 X112.415 Y105.307 E0.03953
G1 X112.009 Y105.415 E0.03854
G1 X111.611 Y105.450 E0.03668
G1 X110.442 Y105.450 E0.10719
G1 X110.232 Y105.484 E0.01958
G1 X108.559 Y106.386 E0.17438
G1 X108.000 Y106.504 F9000.000
G1 E-3.50000 F2400.00000
G1 X87.182 Y111.845 F9000.000
G1 E3.50000 F2400.00000
G1 X86.274 Y111.845 E0.08333 F900.000
G1 X86.224 Y111.493 E0.03254
G1 X86.044 Y110.974 E0.05042
G1 X85.769 Y110.498 E0.05042
G1 X85.409 Y110.083 E0.05042
G1 X84.977 Y109.743 E0.05042
G1 X84.489 Y109.491 E0.05042
G1 X83.961 Y109.336 E0.05042
G1 X83.414 Y109.284 E0.05042
G1 X82.882 Y109.335 E0.04908
G1 X82.343 Y109.490 E0.05142
G1 X81.750 Y109.795 E0.06122
G1 X81.750 Y90.176 E1.80009
G1 X82.090 Y90.394 E0.03705
G1 X82.600 Y90.599 E0.05042
G1 X83.139 Y90.703 E0.05042
G1 X83.689 Y90.703 E0.05042
G1 X84.229 Y90.599 E0.05042
G1 X84.739 Y90.394 E0.05042
G1 X85.201 Y90.097 E0.05042
G1 X85.599 Y89.718 E0.05042
G1 X85.918 Y89.270 E0.05042
G1 X86.146 Y88.770 E0.05042
G1 X86.276 Y88.236 E0.05042
G1 X86.302 Y87.687 E0.05042
G1 X86.224 Y87.143 E0.05042
G1 X86.044 Y86.624 E0.05042
G1 X85.776 Y86.161 E0.04911
G1 X95.622 Y86.161 E0.90339
G1 X95.808 Y86.176 E0.01712
G1 X95.954 Y86.213 E0.01379
G1 X96.126 Y86.289 E0.01724
G1 X107.757 Y92.646 E1.21622
G1 X107.757 Y97.614 E0.45581
G1 X106.044 Y97.614 E0.15720
G1 X105.858 Y96.856 E0.07166
G1 X105.578 Y96.008 E0.08189
G1 X105.233 Y95.185 E0.08189
G1 X104.824 Y94.392 E0.08189
G1 X104.354 Y93.633 E0.08189
G1 X103.827 Y92.913 E0.08189
G1 X103.244 Y92.237 E0.08189
G1 X102.610 Y91.608 E0.08189
G1 X101.929 Y91.031 E0.08189
G1 X101.205 Y90.509 E0.08189
G1 X100.443 Y90.046 E0.08187
G1 X99.649 Y89.645 E0.08159
G1 X98.820 Y89.304 E0.08221
G1 X97.971 Y89.031 E0.08189
G1 X97.102 Y88.826 E0.08189
G1 X96.219 Y88.688 E0.08204
G1 X95.298 Y88.621 E0.08465
G1 X94.438 Y88.623 E0.07898
G1 X93.548 Y88.696 E0.08189
G1 X92.667 Y88.838 E0.08189
G1 X91.799 Y89.048 E0.08189
G1 X90.951 Y89.325 E0.08189
G1 X90.127 Y89.669 E0.08189
G1 X89.333 Y90.075 E0.08189
G1 X88.572 Y90.543 E0.08189
G1 X87.851 Y91.069 E0.08189
G1 X87.173 Y91.649 E0.08189
G1 X86.543 Y92.281 E0.08189
G1 X85.964 Y92.961 E0.08189
G1 X85.440 Y93.683 E0.08189
G1 X84.975 Y94.445 E0.08189
G1 X84.570 Y95.241 E0.08189
G1 X84.229 Y96.065 E0.08189
G1 X83.954 Y96.914 E0.08189
G1 X83.746 Y97.782 E0.08189
G1 X83.606 Y98.664 E0.08189
G1 X83.536 Y99.554 E0.08189
G1 X83.536 Y100.446 E0.08189
G1 X83.606 Y101.336 E0.08189
G1 X83.746 Y102.218 E0.08189
G1 X83.954 Y103.086 E0.08189
G1 X84.229 Y103.935 E0.08189
G1 X84.570 Y104.759 E0.08189
G1 X84.975 Y105.555 E0.08189
G1 X85.440 Y106.317 E0.08189
G1 X85.964 Y107.039 E0.08189
G1 X86.543 Y107.719 E0.08189
G1 X87.173 Y108.351 E0.08189
G1 X87.852 Y108.932 E0.08204
G1 X88.599 Y109.474 E0.08465
G1 X89.333 Y109.925 E0.07898
G1 X90.127 Y110.331 E0.08189
G1 X90.951 Y110.675 E0.08189
G1 X91.799 Y110.952 E0.08189
G1 X92.667 Y111.162 E0.08189
G1 X93.548 Y111.304 E0.08189
G1 X94.438 Y111.377 E0.08189
G1 X95.330 Y111.379 E0.08189
G1 X96.222 Y111.311 E0.08204
G1 X97.133 Y111.167 E0.08465
G1 X97.971 Y110.969 E0.07898
G1 X98.820 Y110.696 E0.08189
G1 X99.646 Y110.357 E0.08189
G1 X100.443 Y109.954 E0.08189
G1 X101.205 Y109.491 E0.08189
G1 X101.929 Y108.969 E0.08189
G1 X102.610 Y108.392 E0.08189
G1 X103.244 Y107.763 E0.08189
G1 X103.827 Y107.087 E0.08189
G1 X104.354 Y106.367 E0.08189
G1 X104.824 Y105.608 E0.08189
G1 X105.233 Y104.815 E0.08189
G1 X105.578 Y103.992 E0.08189
G1 X105.858 Y103.144 E0.08189
G1 X106.044 Y102.386 E0.07166
G1 X107.757 Y102.386 E0.15720
G1 X107.757 Y107.354 E0.45583
G1 X96.126 Y113.711 E1.21618
G1 X95.951 Y113.788 E0.01755
G1 X95.811 Y113.824 E0.01322
G1 X95.623 Y113.839 E0.01739
G1 X85.762 Y113.839 E0.90473
G1 X87.139 Y111.906 E0.21781
G1 X85.755 Y112.580 F9000.000
G1 X85.539 Y112.580 E0.01981 F900.000
G1 X85.564 Y112.073 E0.04662
G1 X85.505 Y111.668 E0.03753
G1 X85.372 Y111.281 E0.03753
G1 X85.167 Y110.927 E0.03753
G1 X84.899 Y110.618 E0.03753
G1 X84.578 Y110.365 E0.03753
G1 X84.214 Y110.177 E0.03753
G1 X83.821 Y110.062 E0.03753
G1 X83.414 Y110.023 E0.03753
G1 X83.019 Y110.061 E0.03640
G1 X82.616 Y110.177 E0.03853
G1 X82.251 Y110.365 E0.03765
G1 X81.929 Y110.618 E0.03753
G1 X81.661 Y110.927 E0.03753
G1 X81.457 Y111.281 E0.03753
G1 X81.382 Y111.496 E0.02089
G1 X81.014 Y111.434 E0.03425
G1 X81.014 Y88.563 E2.09847
G1 X81.362 Y88.487 E0.03263
G1 X81.551 Y88.901 E0.04173
G1 X81.788 Y89.234 E0.03753
G1 X82.084 Y89.516 E0.03753
G1 X82.428 Y89.738 E0.03753
G1 X82.808 Y89.890 E0.03753
G1 X83.210 Y89.967 E0.03753
G1 X83.619 Y89.967 E0.03753
G1 X84.020 Y89.890 E0.03753
G1 X84.400 Y89.738 E0.03753
G1 X84.744 Y89.516 E0.03753
G1 X85.040 Y89.234 E0.03753
G1 X85.278 Y88.901 E0.03753
G1 X85.448 Y88.529 E0.03753
G1 X85.544 Y88.131 E0.03753
G1 X85.564 Y87.723 E0.03753
G1 X85.505 Y87.318 E0.03753
G1 X85.372 Y86.931 E0.03753
G1 X85.167 Y86.577 E0.03753
G1 X84.899 Y86.268 E0.03753
G1 X84.578 Y86.015 E0.03753
G1 X84.088 Y85.762 E0.05055
G1 X84.170 Y85.425 E0.03185
G1 X95.653 Y85.425 E1.05360
G1 X95.930 Y85.448 E0.02549
G1 X96.195 Y85.515 E0.02508
G1 X96.452 Y85.629 E0.02577
G1 X110.059 Y93.066 E1.42273
G1 X110.410 Y93.221 E0.03528
G1 X110.799 Y93.319 E0.03674
G1 X111.175 Y93.350 E0.03464
G1 X112.876 Y93.350 E0.15604
G1 X113.171 Y93.376 E0.02720
G1 X113.440 Y93.448 E0.02559
G1 X113.693 Y93.566 E0.02560
G1 X113.913 Y93.720 E0.02459
G1 X114.119 Y93.924 E0.02666
G1 X114.278 Y94.152 E0.02551
G1 X114.392 Y94.395 E0.02458
G1 X114.467 Y94.673 E0.02646
G1 X114.523 Y95.412 E0.06793
G1 X114.618 Y95.794 E0.03616
G1 X114.774 Y96.155 E0.03608
G1 X114.980 Y96.475 E0.03488
G1 X115.250 Y96.777 E0.03716
G1 X115.559 Y97.022 E0.03619
G1 X115.903 Y97.213 E0.03608
G1 X116.274 Y97.345 E0.03615
G1 X117.086 Y97.489 E0.07563
G1 X117.634 Y97.711 E0.05428
G1 X117.987 Y97.947 E0.03902
G1 X118.333 Y98.257 E0.04252
G1 X118.324 Y98.267 E0.00130
G1 X118.493 Y98.468 E0.02409
G1 X118.675 Y98.752 E0.03099
G1 X118.836 Y99.115 E0.03637
G1 X118.935 Y99.458 E0.03277
G1 X118.986 Y99.818 E0.03337
G1 X118.987 Y100.176 E0.03282
G1 X118.932 Y100.561 E0.03566
G1 X118.834 Y100.892 E0.03167
G1 X118.686 Y101.224 E0.03337
G1 X118.493 Y101.532 E0.03337
G1 X118.229 Y101.845 E0.03762
G1 X117.758 Y102.220 E0.05513
G1 X117.358 Y102.413 E0.04083
G1 X116.937 Y102.548 E0.04053
G1 X116.272 Y102.655 E0.06186
G1 X115.900 Y102.788 E0.03617
G1 X115.557 Y102.980 E0.03608
G1 X115.249 Y103.225 E0.03608
G1 X114.986 Y103.516 E0.03606
G1 X114.780 Y103.836 E0.03490
G1 X114.618 Y104.208 E0.03719
G1 X114.523 Y104.591 E0.03622
G1 X114.467 Y105.330 E0.06803
G1 X114.395 Y105.597 E0.02538
G1 X114.277 Y105.850 E0.02559
G1 X114.117 Y106.078 E0.02560
G1 X113.927 Y106.268 E0.02459
G1 X113.690 Y106.436 E0.02666
G1 X113.438 Y106.553 E0.02549
G1 X113.168 Y106.625 E0.02561
G1 X112.876 Y106.650 E0.02695
G1 X111.175 Y106.650 E0.15605
G1 X110.801 Y106.681 E0.03443
G1 X110.401 Y106.783 E0.03787
G1 X110.061 Y106.933 E0.03416
G1 X96.452 Y114.371 E1.42292
G1 X96.192 Y114.486 E0.02603
G1 X95.934 Y114.552 E0.02450
G1 X95.653 Y114.575 E0.02582
G1 X84.146 Y114.575 E1.05582
G1 X84.077 Y114.217 E0.03344
G1 X84.400 Y114.088 E0.03198
G1 X84.744 Y113.866 E0.03753
G1 X85.040 Y113.584 E0.03753
G1 X85.712 Y112.641 E0.10620
G1 X85.800 Y112.369 F9000.000
G1 X81.016 Y87.020 F9000.000
G1 X81.040 Y86.747 E0.02517 F900.000
G1 X81.109 Y86.488 E0.02459
G1 X81.231 Y86.224 E0.02667
G1 X81.391 Y85.997 E0.02550
G1 X81.580 Y85.807 E0.02459
G1 X81.817 Y85.639 E0.02666
G1 X82.070 Y85.522 E0.02552
G1 X82.328 Y85.453 E0.02459
G1 X82.612 Y85.427 E0.02614
G1 X82.714 Y85.776 E0.03337
G1 X82.251 Y86.015 E0.04780
G1 X81.929 Y86.268 E0.03753
G1 X81.661 Y86.577 E0.03753
G1 X81.457 Y86.931 E0.03753
G1 X81.398 Y87.102 E0.01658
G1 X81.090 Y87.036 E0.02892
G1 X81.183 Y86.802 F9000.000
G1 X81.375 Y112.866 F9000.000
G1 X81.551 Y113.251 E0.03886 F900.000
G1 X81.788 Y113.584 E0.03753
G1 X82.084 Y113.866 E0.03753
G1 X82.428 Y114.088 E0.03753
G1 X82.720 Y114.204 E0.02884
