; generated by Slic3r 1.2.9 on 2015-06-23 at 09:04:13

; external perimeters extrusion width = 0.50mm
; perimeters extrusion width = 0.50mm
; infill extrusion width = 0.50mm
; solid infill extrusion width = 0.50mm
; top infill extrusion width = 0.50mm

M107
M190 S57 ; set bed temperature
G28 ; home all axes
M83;
G10 P0 S195 R160                       ; Set tool 0 operating and standby temperatures
T0

G21 ; set units to millimeters
G90 ; use absolute coordinates
M83 ; use relative distances for extrusion
G1 E-3.50000 F2400.00000
G1 Z0.300 F9000.000
G1 X88.041 Y88.041 F9000.000
G1 E3.50000 F2400.00000
G1 X97.216 Y78.866 E1.19046 F1200.000
G1 X97.737 Y78.411 E0.06349
G1 X98.257 Y78.048 E0.05816
G1 X98.583 Y77.860 E0.03456
G1 X99.149 Y77.599 E0.05721
G1 X99.521 Y77.464 E0.03631
G1 X100.106 Y77.311 E0.05546
G1 X100.514 Y77.240 E0.03801
G1 X101.098 Y77.194 E0.05377
G1 X101.435 Y77.194 E0.03092
G1 X102.096 Y77.251 E0.06083 F1200.000
G1 X102.540 Y77.331 E0.04143
G1 X103.069 Y77.480 E0.05036
G1 X103.509 Y77.643 E0.04310
G1 X103.987 Y77.875 E0.04869
G1 X104.408 Y78.122 E0.04483
G1 X104.822 Y78.424 E0.04697
G1 X105.143 Y78.695 E0.03858
G1 X114.559 Y88.098 E1.22090
G1 X115.014 Y88.617 E0.06333
G1 X115.346 Y89.089 E0.05295
G1 X115.552 Y89.438 E0.03722
G1 X115.788 Y89.936 E0.05052
G1 X122.516 Y108.131 E1.77987
G1 X122.689 Y108.771 E0.06084
G1 X122.760 Y109.178 E0.03793
G1 X122.806 Y109.763 E0.05385
G1 X122.806 Y110.100 E0.03092
G1 X122.717 Y116.083 E0.54900
G1 X122.668 Y116.763 E0.06254
G1 X122.587 Y117.280 E0.04796
G1 X122.494 Y117.689 E0.03852
G1 X122.341 Y118.189 E0.04796
G1 X122.192 Y118.581 E0.03852
G1 X121.971 Y119.055 E0.04797
G1 X121.768 Y119.423 E0.03852
G1 X121.484 Y119.860 E0.04787
G1 X121.231 Y120.197 E0.03861
G1 X120.888 Y120.591 E0.04797
G1 X120.591 Y120.888 E0.03852
G1 X120.197 Y121.231 E0.04797
G1 X119.861 Y121.483 E0.03852
G1 X119.423 Y121.768 E0.04796
G1 X119.055 Y121.971 E0.03852
G1 X118.581 Y122.191 E0.04793
G1 X118.189 Y122.341 E0.03856
G1 X117.690 Y122.493 E0.04788
G1 X117.280 Y122.587 E0.03860
G1 X116.763 Y122.668 E0.04795
G1 X116.083 Y122.717 E0.06254
G1 X110.109 Y122.806 E0.54818
G1 X109.676 Y122.805 E0.03970
G1 X109.112 Y122.749 E0.05209
G1 X108.780 Y122.691 E0.03092
G1 X108.139 Y122.520 E0.06084
G1 X107.822 Y122.404 E0.03092
G1 X90.245 Y115.907 E1.71938
G1 X89.892 Y115.770 E0.03477
G1 X89.374 Y115.515 E0.05296
G1 X89.097 Y115.351 E0.02954
G1 X88.580 Y114.984 E0.05818
G1 X88.291 Y114.739 E0.03475
G1 X78.866 Y105.327 E1.22205
G1 X78.410 Y104.806 E0.06356
G1 X78.048 Y104.286 E0.05809
G1 X77.860 Y103.960 E0.03458
G1 X77.599 Y103.394 E0.05719
G1 X77.464 Y103.022 E0.03625
G1 X77.311 Y102.437 E0.05552
G1 X77.240 Y102.029 E0.03798
G1 X77.194 Y101.444 E0.05379
G1 X77.195 Y101.012 E0.03970
G1 X77.251 Y100.447 E0.05209
G1 X77.309 Y100.115 E0.03092
G1 X77.480 Y99.474 E0.06083
G1 X77.643 Y99.034 E0.04311
G1 X77.875 Y98.556 E0.04869
G1 X78.122 Y98.135 E0.04483
G1 X78.424 Y97.721 E0.04697
G1 X78.866 Y97.216 E0.06163
G1 X87.988 Y88.094 E1.18358
G1 E-3.50000 F2400.00000
G1 X117.574 Y117.429 F9000.000
G1 E3.50000 F2400.00000
G1 X117.272 Y117.705 E0.03753 F900.000
G1 X116.922 Y117.918 E0.03753
G1 X116.539 Y118.060 E0.03753
G1 X116.135 Y118.128 E0.03753
G1 X115.727 Y118.119 E0.03753
G1 X115.327 Y118.032 E0.03753
G1 X114.951 Y117.871 E0.03753
G1 X114.612 Y117.641 E0.03753
G1 X114.323 Y117.352 E0.03753
G1 X114.093 Y117.013 E0.03753
G1 X113.932 Y116.637 E0.03753
G1 X113.845 Y116.237 E0.03753
G1 X113.836 Y115.828 E0.03753
G1 X113.903 Y115.425 E0.03753
G1 X114.046 Y115.042 E0.03753
G1 X114.259 Y114.692 E0.03753
G1 X114.535 Y114.390 E0.03753
G1 X114.862 Y114.145 E0.03753
G1 X115.231 Y113.965 E0.03765
G1 X115.637 Y113.859 E0.03853
G1 X116.033 Y113.831 E0.03640 F900.000
G1 X116.439 Y113.879 E0.03753
G1 X116.829 Y114.004 E0.03753
G1 X117.188 Y114.200 E0.03753
G1 X117.504 Y114.460 E0.03753
G1 X117.764 Y114.776 E0.03753
G1 X117.960 Y115.135 E0.03753
G1 X118.085 Y115.525 E0.03753
G1 X118.133 Y115.931 E0.03753
G1 X118.104 Y116.339 E0.03753
G1 X117.998 Y116.734 E0.03753
G1 X117.819 Y117.102 E0.03753
G1 X117.619 Y117.369 E0.03065
G1 X117.686 Y117.823 F9000.000
G1 E-3.50000 F2400.00000
G1 X116.701 Y113.170 F9000.000
G1 E3.50000 F2400.00000
G1 X115.584 Y113.036 E0.10323 F900.000
G1 X116.774 Y111.846 E0.15445
G1 X116.705 Y113.095 E0.11477
G1 X113.093 Y115.528 F9000.000
G1 X113.112 Y116.325 E0.07320 F900.000
G1 X113.193 Y116.701 E0.03532
G1 X111.851 Y116.770 E0.12336
G1 X113.040 Y115.581 E0.15427
G1 X109.936 Y117.644 F9000.000
G1 X107.829 Y115.551 E0.27246 F900.000
G1 X107.636 Y115.459 E0.01959
G1 X105.855 Y114.937 E0.17036
G1 X108.789 Y112.003 E0.38074
G1 X108.886 Y111.880 E0.01435
G1 X108.945 Y111.760 E0.01228
G1 X108.974 Y111.629 E0.01228
G1 X108.974 Y111.496 E0.01228
G1 X108.945 Y111.365 E0.01228
G1 X108.886 Y111.245 E0.01228
G1 X108.789 Y111.122 E0.01435
G1 X107.045 Y109.379 E0.22628
G1 X106.921 Y109.280 E0.01454
G1 X106.799 Y109.222 E0.01244
G1 X106.666 Y109.192 E0.01244
G1 X106.531 Y109.194 E0.01244
G1 X106.399 Y109.226 E0.01244
G1 X105.569 Y109.709 E0.08811
G1 X104.830 Y110.075 E0.07569
G1 X104.064 Y110.382 E0.07567
G1 X103.286 Y110.625 E0.07476
G1 X102.472 Y110.809 E0.07664
G1 X101.655 Y110.927 E0.07569
G1 X100.831 Y110.979 E0.07574
G1 X99.977 Y110.964 E0.07841
G1 X99.186 Y110.888 E0.07291
G1 X98.373 Y110.745 E0.07569
G1 X97.575 Y110.538 E0.07569
G1 X96.795 Y110.268 E0.07569
G1 X96.039 Y109.938 E0.07569
G1 X95.312 Y109.548 E0.07569
G1 X94.618 Y109.102 E0.07569
G1 X93.961 Y108.603 E0.07569
G1 X93.347 Y108.053 E0.07569
G1 X92.777 Y107.456 E0.07569
G1 X92.257 Y106.816 E0.07569
G1 X91.789 Y106.136 E0.07569
G1 X91.376 Y105.422 E0.07569
G1 X91.022 Y104.677 E0.07569
G1 X90.727 Y103.907 E0.07569
G1 X90.495 Y103.115 E0.07569
G1 X90.326 Y102.308 E0.07569
G1 X90.221 Y101.489 E0.07569
G1 X90.182 Y100.665 E0.07569
G1 X90.207 Y99.871 E0.07291
G1 X90.299 Y99.021 E0.07841
G1 X90.458 Y98.199 E0.07681
G1 X90.675 Y97.415 E0.07464
G1 X90.958 Y96.640 E0.07567
G1 X91.300 Y95.890 E0.07569
G1 X91.701 Y95.169 E0.07569
G1 X92.158 Y94.482 E0.07569
G1 X92.668 Y93.834 E0.07569
G1 X93.228 Y93.228 E0.07569
G1 X93.834 Y92.668 E0.07569
G1 X94.482 Y92.158 E0.07569
G1 X95.144 Y91.718 E0.07291
G1 X95.890 Y91.300 E0.07841
G1 X96.640 Y90.957 E0.07574
G1 X97.416 Y90.675 E0.07569
G1 X98.211 Y90.456 E0.07569
G1 X99.021 Y90.300 E0.07569
G1 X99.841 Y90.208 E0.07569
G1 X100.635 Y90.183 E0.07291
G1 X101.489 Y90.221 E0.07841
G1 X102.308 Y90.326 E0.07574
G1 X103.115 Y90.495 E0.07569
G1 X103.907 Y90.727 E0.07569
G1 X104.677 Y91.022 E0.07569
G1 X105.422 Y91.376 E0.07569
G1 X106.136 Y91.789 E0.07569
G1 X106.816 Y92.257 E0.07569
G1 X107.456 Y92.777 E0.07569
G1 X108.053 Y93.347 E0.07569
G1 X108.603 Y93.961 E0.07569
G1 X109.102 Y94.618 E0.07569
G1 X109.548 Y95.312 E0.07569
G1 X109.938 Y96.039 E0.07569
G1 X110.268 Y96.795 E0.07569
G1 X110.538 Y97.575 E0.07569
G1 X110.745 Y98.373 E0.07569
G1 X110.888 Y99.186 E0.07569
G1 X110.966 Y100.007 E0.07569
G1 X110.979 Y100.832 E0.07569
G1 X110.927 Y101.655 E0.07569
G1 X110.809 Y102.472 E0.07569
G1 X110.625 Y103.286 E0.07664
G1 X110.382 Y104.064 E0.07476
G1 X110.075 Y104.830 E0.07567
G1 X109.709 Y105.569 E0.07569
G1 X109.226 Y106.399 E0.08811
G1 X109.194 Y106.531 E0.01244
G1 X109.192 Y106.666 E0.01244
G1 X109.222 Y106.799 E0.01244
G1 X109.280 Y106.921 E0.01244
G1 X109.379 Y107.045 E0.01454
G1 X111.122 Y108.789 E0.22628
G1 X111.245 Y108.886 E0.01435
G1 X111.365 Y108.945 E0.01228
G1 X111.496 Y108.974 E0.01228
G1 X111.629 Y108.974 E0.01228
G1 X111.760 Y108.945 E0.01228
G1 X111.874 Y108.889 E0.01165
G1 X112.004 Y108.788 E0.01510
G1 X114.937 Y105.855 E0.38059
G1 X115.459 Y107.636 E0.17036
G1 X115.551 Y107.829 E0.01958
G1 X117.644 Y109.936 E0.27247
G1 X109.989 Y117.591 E0.99320
G1 X109.583 Y117.998 F9000.000
G1 X104.676 Y115.076 F9000.000
G1 X91.956 Y111.346 E1.21618 F900.000
G1 X91.778 Y111.277 E0.01755
G1 X91.654 Y111.203 E0.01322
G1 X91.509 Y111.081 E0.01739
G1 X84.576 Y104.148 E0.89960
G1 X85.316 Y103.872 E0.07251
G1 X85.786 Y103.586 E0.05042
G1 X86.192 Y103.216 E0.05042
G1 X86.522 Y102.776 E0.05042
G1 X86.762 Y102.282 E0.05042
G1 X86.904 Y101.751 E0.05042
G1 X86.943 Y101.203 E0.05042
G1 X86.878 Y100.657 E0.05042
G1 X86.711 Y100.133 E0.05042
G1 X86.447 Y99.651 E0.05042
G1 X86.097 Y99.227 E0.05042
G1 X85.674 Y98.877 E0.05042
G1 X85.191 Y98.614 E0.05042
G1 X84.559 Y98.412 E0.06090
G1 X98.432 Y84.539 E1.80009
G1 X98.518 Y84.934 E0.03705
G1 X98.734 Y85.439 E0.05042
G1 X99.042 Y85.894 E0.05042
G1 X99.431 Y86.283 E0.05042
G1 X99.886 Y86.591 E0.05042
G1 X100.391 Y86.807 E0.05042
G1 X100.928 Y86.924 E0.05042
G1 X101.478 Y86.937 E0.05042
G1 X102.020 Y86.846 E0.05042
G1 X102.535 Y86.654 E0.05042
G1 X103.004 Y86.368 E0.05042
G1 X103.410 Y85.998 E0.05042
G1 X103.740 Y85.558 E0.05042
G1 X103.980 Y85.064 E0.05042
G1 X104.118 Y84.547 E0.04911
G1 X111.081 Y91.509 E0.90338
G1 X111.204 Y91.655 E0.01755
G1 X111.278 Y91.779 E0.01322
G1 X111.346 Y91.956 E0.01739
G1 X115.075 Y104.676 E1.21622
G1 X111.563 Y108.189 E0.45581
G1 X109.958 Y106.584 E0.20820
G1 X110.355 Y105.922 E0.07086
G1 X110.747 Y105.130 E0.08105
G1 X111.076 Y104.311 E0.08099
G1 X111.336 Y103.477 E0.08012
G1 X111.533 Y102.605 E0.08203
G1 X111.659 Y101.731 E0.08105
G1 X111.715 Y100.849 E0.08105
G1 X111.701 Y99.966 E0.08105
G1 X111.618 Y99.087 E0.08105
G1 X111.464 Y98.217 E0.08105
G1 X111.243 Y97.362 E0.08105
G1 X110.954 Y96.527 E0.08105
G1 X110.600 Y95.718 E0.08105
G1 X110.183 Y94.939 E0.08105
G1 X109.706 Y94.196 E0.08105
G1 X109.171 Y93.493 E0.08105
G1 X108.582 Y92.834 E0.08105
G1 X107.943 Y92.225 E0.08105
G1 X107.257 Y91.668 E0.08105
G1 X106.529 Y91.167 E0.08105
G1 X105.765 Y90.725 E0.08105
G1 X104.967 Y90.345 E0.08105
G1 X104.142 Y90.030 E0.08105
G1 X103.294 Y89.781 E0.08105
G1 X102.430 Y89.600 E0.08105
G1 X101.552 Y89.488 E0.08120
G1 X100.640 Y89.447 E0.08377
G1 X99.788 Y89.474 E0.07817
G1 X98.910 Y89.572 E0.08105
G1 X98.043 Y89.739 E0.08105
G1 X97.192 Y89.974 E0.08105
G1 X96.361 Y90.276 E0.08105
G1 X95.556 Y90.644 E0.08120
G1 X94.760 Y91.090 E0.08377
G1 X94.051 Y91.562 E0.07817
G1 X93.356 Y92.108 E0.08105
G1 X92.707 Y92.707 E0.08105
G1 X92.108 Y93.356 E0.08105
G1 X91.562 Y94.051 E0.08105
G1 X91.073 Y94.786 E0.08105
G1 X90.643 Y95.558 E0.08105
G1 X90.276 Y96.361 E0.08105
G1 X89.974 Y97.191 E0.08099
G1 X89.741 Y98.031 E0.08000
G1 X89.571 Y98.912 E0.08231
G1 X89.473 Y99.820 E0.08377
G1 X89.446 Y100.671 E0.07817
G1 X89.488 Y101.553 E0.08105
G1 X89.600 Y102.430 E0.08105
G1 X89.781 Y103.294 E0.08105
G1 X90.030 Y104.142 E0.08105
G1 X90.345 Y104.967 E0.08105
G1 X90.725 Y105.765 E0.08105
G1 X91.167 Y106.529 E0.08105
G1 X91.668 Y107.257 E0.08105
G1 X92.225 Y107.943 E0.08105
G1 X92.834 Y108.582 E0.08105
G1 X93.493 Y109.171 E0.08105
G1 X94.196 Y109.706 E0.08105
G1 X94.939 Y110.183 E0.08105
G1 X95.718 Y110.600 E0.08105
G1 X96.527 Y110.954 E0.08105
G1 X97.362 Y111.243 E0.08105
G1 X98.217 Y111.464 E0.08105
G1 X99.087 Y111.618 E0.08105
G1 X99.935 Y111.698 E0.07817
G1 X100.848 Y111.715 E0.08377
G1 X101.731 Y111.659 E0.08120
G1 X102.605 Y111.533 E0.08105
G1 X103.477 Y111.336 E0.08203
G1 X104.311 Y111.076 E0.08012
G1 X105.130 Y110.747 E0.08099
G1 X105.922 Y110.355 E0.08105
G1 X106.584 Y109.958 E0.07086
G1 X108.189 Y111.563 E0.20820
G1 X104.729 Y115.023 E0.44895
G1 X83.078 Y103.184 F9000.000
G1 X83.398 Y103.321 E0.03198 F900.000
G1 X83.798 Y103.408 E0.03753
G1 X84.207 Y103.418 E0.03753
G1 X84.610 Y103.350 E0.03753
G1 X84.994 Y103.207 E0.03753
G1 X85.343 Y102.994 E0.03753
G1 X85.646 Y102.719 E0.03753
G1 X85.891 Y102.391 E0.03753
G1 X86.070 Y102.023 E0.03753
G1 X86.175 Y101.628 E0.03753
G1 X86.205 Y101.220 E0.03753
G1 X86.156 Y100.814 E0.03753
G1 X86.031 Y100.424 E0.03753
G1 X85.835 Y100.065 E0.03753
G1 X85.575 Y99.750 E0.03753
G1 X85.259 Y99.489 E0.03753
G1 X84.900 Y99.293 E0.03753
G1 X84.511 Y99.169 E0.03753
G1 X84.105 Y99.120 E0.03753
G1 X83.709 Y99.149 E0.03640
G1 X83.302 Y99.255 E0.03853
G1 X83.097 Y99.355 E0.02100
G1 X82.880 Y99.051 E0.03425
G1 X99.053 Y82.878 E2.09847
G1 X99.352 Y83.070 E0.03263
G1 X99.193 Y83.496 E0.04173
G1 X99.125 Y83.900 E0.03753
G1 X99.135 Y84.309 E0.03753
G1 X99.222 Y84.709 E0.03753
G1 X99.383 Y85.085 E0.03753
G1 X99.612 Y85.423 E0.03753
G1 X99.901 Y85.713 E0.03753
G1 X100.240 Y85.942 E0.03753
G1 X100.616 Y86.103 E0.03753
G1 X101.016 Y86.190 E0.03753
G1 X101.425 Y86.200 E0.03753
G1 X101.828 Y86.132 E0.03753
G1 X102.212 Y85.989 E0.03753
G1 X102.561 Y85.776 E0.03753
G1 X102.864 Y85.501 E0.03753
G1 X103.109 Y85.173 E0.03753
G1 X103.288 Y84.805 E0.03753
G1 X103.393 Y84.410 E0.03753
G1 X103.423 Y84.002 E0.03753
G1 X103.374 Y83.596 E0.03753
G1 X103.206 Y83.071 E0.05055
G1 X103.503 Y82.891 E0.03185
G1 X111.623 Y91.010 E1.05360
G1 X111.806 Y91.227 E0.02603
G1 X111.942 Y91.457 E0.02450
G1 X112.043 Y91.719 E0.02582
G1 X116.406 Y106.600 E1.42273
G1 X116.545 Y106.958 E0.03528
G1 X116.750 Y107.302 E0.03674
G1 X116.994 Y107.590 E0.03464
G1 X118.197 Y108.792 E0.15604
G1 X118.388 Y109.020 E0.02720
G1 X118.527 Y109.261 E0.02559
G1 X118.622 Y109.523 E0.02559
G1 X118.670 Y109.798 E0.02560
G1 X118.670 Y110.066 E0.02459
G1 X118.621 Y110.352 E0.02666
G1 X118.526 Y110.613 E0.02550
G1 X118.387 Y110.853 E0.02540
G1 X117.904 Y111.415 E0.06801
G1 X117.701 Y111.753 E0.03616
G1 X117.556 Y112.119 E0.03608
G1 X117.475 Y112.490 E0.03488
G1 X117.453 Y112.895 E0.03716
G1 X117.498 Y113.286 E0.03619
G1 X117.606 Y113.664 E0.03608
G1 X117.775 Y114.021 E0.03615
G1 X118.248 Y114.696 E0.07563
G1 X118.478 Y115.241 E0.05428
G1 X118.561 Y115.658 E0.03902
G1 X118.586 Y116.121 E0.04252
G1 X118.572 Y116.122 E0.00130
G1 X118.550 Y116.384 E0.02409
G1 X118.480 Y116.708 E0.03046
G1 X118.339 Y117.078 E0.03632
G1 X118.163 Y117.396 E0.03337
G1 X117.944 Y117.687 E0.03337
G1 X117.692 Y117.940 E0.03281
G1 X117.381 Y118.174 E0.03566
G1 X117.078 Y118.339 E0.03167
G1 X116.738 Y118.469 E0.03337
G1 X116.384 Y118.550 E0.03337
G1 X115.975 Y118.585 E0.03762
G1 X115.378 Y118.517 E0.05514
G1 X114.958 Y118.371 E0.04083
G1 X114.565 Y118.169 E0.04053
G1 X114.018 Y117.774 E0.06186
G1 X113.662 Y117.605 E0.03618
G1 X113.284 Y117.498 E0.03608
G1 X112.893 Y117.453 E0.03608
G1 X112.500 Y117.473 E0.03606
G1 X112.129 Y117.554 E0.03490
G1 X111.751 Y117.702 E0.03719
G1 X111.413 Y117.906 E0.03622
G1 X110.851 Y118.389 E0.06802
G1 X110.611 Y118.527 E0.02538
G1 X110.349 Y118.622 E0.02559
G1 X110.074 Y118.670 E0.02560
G1 X109.806 Y118.670 E0.02459
G1 X109.520 Y118.621 E0.02666
G1 X109.259 Y118.526 E0.02549
G1 X109.018 Y118.386 E0.02561
G1 X108.793 Y118.197 E0.02695
G1 X107.590 Y116.994 E0.15605
G1 X107.304 Y116.752 E0.03443
G1 X106.949 Y116.541 E0.03787
G1 X106.602 Y116.407 E0.03416
G1 X91.720 Y112.043 E1.42292
G1 X91.455 Y111.941 E0.02603
G1 X91.225 Y111.804 E0.02450
G1 X91.011 Y111.623 E0.02582
G1 X82.873 Y103.486 E1.05582
G1 X83.036 Y103.246 E0.02655
G1 X83.269 Y103.476 F9000.000
G1 E-3.50000 F2400.00000
G1 X100.145 Y81.789 F9000.000
G1 E3.50000 F2400.00000
G1 X100.355 Y81.612 E0.02517 F900.000
G1 X100.596 Y81.473 E0.02559
G1 X100.858 Y81.378 E0.02559
G1 X101.133 Y81.330 E0.02560
G1 X101.401 Y81.330 E0.02459
G1 X101.688 Y81.379 E0.02666
G1 X101.949 Y81.474 E0.02549
G1 X102.190 Y81.614 E0.02561
G1 X102.402 Y81.792 E0.02544
G1 X102.227 Y82.110 E0.03329
G1 X101.729 Y81.951 E0.04801
G1 X101.323 Y81.902 E0.03753
G1 X100.927 Y81.930 E0.03640
G1 X100.521 Y82.037 E0.03853
G1 X100.357 Y82.116 E0.01669
G1 X100.185 Y81.852 E0.02892
G1 X100.417 Y81.752 F9000.000
G1 X81.803 Y100.128 F9000.000
G1 X82.124 Y100.315 E0.03411 F900.000
G1 X81.975 Y100.714 E0.03908
G1 X81.907 Y101.118 E0.03753
G1 X81.917 Y101.527 E0.03753
G1 X82.004 Y101.927 E0.03753
