; generated by Slic3r 0.9.10b on 2013-12-24 at 17:08:05

; layer_height = 0.24
; perimeters = 2
; top_solid_layers = 4
; bottom_solid_layers = 3
; fill_density = 0.4
; perimeter_speed = 30
; infill_speed = 40
; travel_speed = 60
; nozzle_diameter = 0.3
; filament_diameter = 1.75
; extrusion_multiplier = 1
; perimeters extrusion width = 0.32mm
; infill extrusion width = 0.32mm
; solid infill extrusion width = 0.32mm
; top infill extrusion width = 0.32mm
; first layer extrusion width = 0.48mm

G21 ; set units to millimeters
M107
M104 S205 ; set temperature
G28 ; home all axes
G1 Z5 F200 ; lift nozzle
M109 S205 ; wait for temperature to be reached
G90 ; use absolute coordinates
M83 ; use relative distances for extrusion
G1 F1800.000 E-1.00000
G1 Z0.240 F3600.000
G1 X68.420 Y81.140
G1 F1800.000 E1.00000
G1 X69.530 Y80.550 F540.000 E0.05536
G1 X70.740 Y80.180 E0.05572
G1 X72.000 Y80.060 E0.05574
G1 X128.000 Y80.060 E2.46625
G1 X129.260 Y80.180 E0.05574
G1 X130.470 Y80.550 E0.05572
G1 X131.580 Y81.140 E0.05536
G1 X132.550 Y81.950 E0.05565
G1 X133.360 Y82.920 E0.05565
G1 X133.950 Y84.030 E0.05536
G1 X134.320 Y85.240 E0.05572
G1 X134.440 Y86.500 E0.05574
G1 X134.440 Y113.500 E1.18909
G1 X134.320 Y114.760 E0.05574
G1 X133.950 Y115.970 E0.05572
G1 X133.360 Y117.080 E0.05536
G1 X132.550 Y118.050 E0.05565
G1 X131.580 Y118.860 E0.05565
G1 X130.470 Y119.450 E0.05536
G1 X129.260 Y119.820 E0.05572
G1 X128.000 Y119.940 E0.05574
G1 X72.000 Y119.940 E2.46625
G1 X70.740 Y119.820 E0.05574
G1 X69.530 Y119.450 E0.05572
G1 X68.420 Y118.860 E0.05536
G1 X67.450 Y118.050 E0.05565
G1 X66.640 Y117.080 E0.05565
G1 X66.050 Y115.970 E0.05536
G1 X65.680 Y114.760 E0.05572
G1 X65.560 Y113.500 E0.05574
G1 X65.560 Y86.500 E1.18909
G1 X65.680 Y85.240 E0.05574
G1 X66.050 Y84.030 E0.05572
G1 X66.640 Y82.920 E0.05536
G1 X67.450 Y81.950 E0.05565
G1 X68.369 Y81.182 E0.05274
G1 F1800.000 E-1.00000
G1 X77.077 Y91.042 F3600.000
G1 F1800.000 E1.00000
G1 X77.752 Y90.698 F540.000 E0.03335
G1 X78.500 Y90.580 E0.03335
G1 X79.248 Y90.698 E0.03335
G1 X79.923 Y91.042 E0.03335
G1 X80.458 Y91.577 E0.03335
G1 X80.802 Y92.252 E0.03335
G1 X80.920 Y93.000 E0.03335
G1 X80.802 Y93.748 E0.03335
G1 X80.458 Y94.423 E0.03335
G1 X79.923 Y94.958 E0.03335
G1 X79.248 Y95.302 E0.03335
G1 X78.500 Y95.420 E0.03335
G1 X77.752 Y95.302 E0.03335
G1 X77.077 Y94.958 E0.03335
G1 X76.542 Y94.423 E0.03335
G1 X76.198 Y93.748 E0.03335
G1 X76.080 Y93.000 E0.03335
G1 X76.198 Y92.252 E0.03335
G1 X76.542 Y91.577 E0.03335
G1 X77.031 Y91.089 E0.03044
G1 X77.340 Y91.403 F3600.000
G1 X77.890 Y91.123 F540.000 E0.02719
G1 X78.500 Y91.027 E0.02719
G1 X79.110 Y91.123 E0.02719
G1 X79.660 Y91.403 E0.02719
G1 X80.097 Y91.840 E0.02719
G1 X80.377 Y92.390 E0.02719
G1 X80.473 Y93.000 E0.02719
G1 X80.377 Y93.610 E0.02719
G1 X80.097 Y94.160 E0.02719
G1 X79.660 Y94.597 E0.02719
G1 X79.110 Y94.877 E0.02719
G1 X78.500 Y94.973 E0.02719
G1 X77.890 Y94.877 E0.02719
G1 X77.340 Y94.597 E0.02719
G1 X76.903 Y94.160 E0.02719
G1 X76.623 Y93.610 E0.02719
G1 X76.527 Y93.000 E0.02719
G1 X76.623 Y92.390 E0.02719
G1 X76.903 Y91.840 E0.02719
G1 X77.293 Y91.450 E0.02428
G1 X77.733 Y91.604 F3600.000
G1 F1800.000 E-1.00000
G1 X119.080 Y93.000 F3600.000
G1 F1800.000 E1.00000
G1 X119.198 Y92.252 F540.000 E0.03335
G1 X119.542 Y91.577 E0.03335
G1 X120.077 Y91.042 E0.03335
G1 X120.752 Y90.698 E0.03335
G1 X121.500 Y90.580 E0.03335
G1 X122.248 Y90.698 E0.03335
G1 X122.923 Y91.042 E0.03335
G1 X123.458 Y91.577 E0.03335
G1 X123.802 Y92.252 E0.03335
G1 X123.920 Y93.000 E0.03335
G1 X123.802 Y93.748 E0.03335
G1 X123.458 Y94.423 E0.03335
G1 X122.923 Y94.958 E0.03335
G1 X122.248 Y95.302 E0.03335
G1 X121.500 Y95.420 E0.03335
G1 X120.752 Y95.302 E0.03335
G1 X120.077 Y94.958 E0.03335
G1 X119.542 Y94.423 E0.03335
G1 X119.198 Y93.748 E0.03335
G1 X119.090 Y93.065 E0.03043
G1 X119.527 Y93.000 F3600.000
G1 X119.623 Y92.390 F540.000 E0.02719
G1 X119.903 Y91.840 E0.02719
G1 X120.340 Y91.403 E0.02719
G1 X120.890 Y91.123 E0.02719
G1 X121.500 Y91.027 E0.02719
G1 X122.110 Y91.123 E0.02719
G1 X122.660 Y91.403 E0.02719
G1 X123.097 Y91.840 E0.02719
G1 X123.377 Y92.390 E0.02719
G1 X123.473 Y93.000 E0.02719
G1 X123.377 Y93.610 E0.02719
G1 X123.097 Y94.160 E0.02719
G1 X122.660 Y94.597 E0.02719
G1 X122.110 Y94.877 E0.02719
G1 X121.500 Y94.973 E0.02719
G1 X120.890 Y94.877 E0.02719
G1 X120.340 Y94.597 E0.02719
G1 X119.903 Y94.160 E0.02719
G1 X119.623 Y93.610 E0.02719
G1 X119.537 Y93.065 E0.02428
G1 X119.920 Y92.800 F3600.000
G1 F1800.000 E-1.00000
G1 X121.500 Y104.580 F3600.000
G1 F1800.000 E1.00000
G1 X122.248 Y104.698 F540.000 E0.03335
G1 X122.923 Y105.042 E0.03335
G1 X123.458 Y105.577 E0.03335
G1 X123.802 Y106.252 E0.03335
G1 X123.920 Y107.000 E0.03335
G1 X123.802 Y107.748 E0.03335
G1 X123.458 Y108.423 E0.03335
G1 X122.923 Y108.958 E0.03335
G1 X122.248 Y109.302 E0.03335
G1 X121.500 Y109.420 E0.03335
G1 X120.752 Y109.302 E0.03335
G1 X120.077 Y108.958 E0.03335
G1 X119.542 Y108.423 E0.03335
G1 X119.198 Y107.748 E0.03335
G1 X119.080 Y107.000 E0.03335
G1 X119.198 Y106.252 E0.03335
G1 X119.542 Y105.577 E0.03335
G1 X120.077 Y105.042 E0.03335
G1 X120.752 Y104.698 E0.03335
G1 X121.435 Y104.590 E0.03043
G1 X121.500 Y105.027 F3600.000
G1 X122.110 Y105.123 F540.000 E0.02719
G1 X122.660 Y105.403 E0.02719
G1 X123.097 Y105.840 E0.02719
G1 X123.377 Y106.390 E0.02719
G1 X123.473 Y107.000 E0.02719
G1 X123.377 Y107.610 E0.02719
G1 X123.097 Y108.160 E0.02719
G1 X122.660 Y108.597 E0.02719
G1 X122.110 Y108.877 E0.02719
G1 X121.500 Y108.973 E0.02719
G1 X120.890 Y108.877 E0.02719
G1 X120.340 Y108.597 E0.02719
G1 X119.903 Y108.160 E0.02719
G1 X119.623 Y107.610 E0.02719
G1 X119.527 Y107.000 E0.02719
G1 X119.623 Y106.390 E0.02719
G1 X119.903 Y105.840 E0.02719
G1 X120.340 Y105.403 E0.02719
G1 X120.890 Y105.123 E0.02719
G1 X121.435 Y105.037 E0.02428
G1 X121.700 Y105.420 F3600.000
G1 F1800.000 E-1.00000
G1 X117.688 Y100.947 F3600.000
G1 F1800.000 E1.00000
G1 X117.362 Y101.113 F540.000 E0.01613
G1 X117.000 Y101.170 E0.01612
G1 X116.638 Y101.113 E0.01612
G1 X116.312 Y100.947 E0.01613
G1 X116.053 Y100.688 E0.01613
G1 X115.887 Y100.362 E0.01612
G1 X115.830 Y100.000 E0.01613
G1 X115.887 Y99.638 E0.01613
G1 X116.053 Y99.312 E0.01612
G1 X116.312 Y99.053 E0.01613
G1 X116.638 Y98.887 E0.01613
G1 X117.000 Y98.830 E0.01612
G1 X117.362 Y98.887 E0.01612
G1 X117.688 Y99.053 E0.01613
G1 X117.947 Y99.312 E0.01613
G1 X118.113 Y99.638 E0.01612
G1 X118.170 Y100.000 E0.01613
G1 X118.113 Y100.362 E0.01613
G1 X117.947 Y100.688 E0.01612
G1 X117.735 Y100.900 E0.01321
G1 X117.425 Y100.585 F3600.000
G1 X117.224 Y100.688 F540.000 E0.00997
G1 X117.000 Y100.723 E0.00997
G1 X116.776 Y100.688 E0.00997
G1 X116.575 Y100.585 E0.00997
G1 X116.415 Y100.425 E0.00997
G1 X116.312 Y100.224 E0.00997
G1 X116.277 Y100.000 E0.00997
G1 X116.312 Y99.776 E0.00997
G1 X116.415 Y99.575 E0.00997
G1 X116.575 Y99.415 E0.00997
G1 X116.776 Y99.312 E0.00997
G1 X117.000 Y99.277 E0.00997
G1 X117.224 Y99.312 E0.00997
G1 X117.425 Y99.415 E0.00997
G1 X117.585 Y99.575 E0.00997
G1 X117.688 Y99.776 E0.00997
G1 X117.723 Y100.000 E0.00997
G1 X117.688 Y100.224 E0.00997
G1 X117.585 Y100.425 E0.00997
G1 X117.472 Y100.538 E0.00705
G1 X117.224 Y100.483 F3600.000
G1 F1800.000 E-1.00000
G1 X112.420 Y100.000 F3600.000
G1 F1800.000 E1.00000
G1 X112.302 Y100.748 F540.000 E0.03335
G1 X111.958 Y101.423 E0.03335
G1 X111.423 Y101.958 E0.03335
G1 X110.748 Y102.302 E0.03335
G1 X110.000 Y102.420 E0.03335
G1 X109.252 Y102.302 E0.03335
G1 X108.577 Y101.958 E0.03335
G1 X108.042 Y101.423 E0.03335
G1 X107.698 Y100.748 E0.03335
G1 X107.580 Y100.000 E0.03335
G1 X107.698 Y99.252 E0.03335
G1 X108.042 Y98.577 E0.03335
G1 X108.577 Y98.042 E0.03335
G1 X109.252 Y97.698 E0.03335
G1 X110.000 Y97.580 E0.03335
G1 X110.748 Y97.698 E0.03335
G1 X111.423 Y98.042 E0.03335
G1 X111.958 Y98.577 E0.03335
G1 X112.302 Y99.252 E0.03335
G1 X112.410 Y99.935 E0.03043
G1 X111.973 Y100.000 F3600.000
G1 X111.877 Y100.610 F540.000 E0.02719
G1 X111.597 Y101.160 E0.02719
G1 X111.160 Y101.597 E0.02719
G1 X110.610 Y101.877 E0.02719
G1 X110.000 Y101.973 E0.02719
G1 X109.390 Y101.877 E0.02719
G1 X108.840 Y101.597 E0.02719
G1 X108.403 Y101.160 E0.02719
G1 X108.123 Y100.610 E0.02719
G1 X108.027 Y100.000 E0.02719
G1 X108.123 Y99.390 E0.02719
G1 X108.403 Y98.840 E0.02719
G1 X108.840 Y98.403 E0.02719
G1 X109.390 Y98.123 E0.02719
G1 X110.000 Y98.027 E0.02719
G1 X110.610 Y98.123 E0.02719
G1 X111.160 Y98.403 E0.02719
G1 X111.597 Y98.840 E0.02719
G1 X111.877 Y99.390 E0.02719
G1 X111.963 Y99.935 E0.02428
G1 X111.580 Y100.200 F3600.000
G1 F1800.000 E-1.00000
G1 X98.082 Y105.572 F3600.000
G1 F1800.000 E1.00000
G1 X98.154 Y105.854 F540.000 E0.01284
G1 X98.163 Y106.000 E0.00643
G1 X98.154 Y106.146 E0.00644
G1 X98.082 Y106.428 E0.01284
G1 X97.941 Y106.684 E0.01284
G1 X97.742 Y106.896 E0.01284
G1 X97.495 Y107.053 E0.01284
G1 X97.359 Y107.106 E0.00644
G1 X97.073 Y107.161 E0.01284
G1 X96.927 Y107.161 E0.00643
G1 X96.641 Y107.106 E0.01284
G1 X96.505 Y107.053 E0.00644
G1 X96.258 Y106.896 E0.01284
G1 X96.152 Y106.796 E0.00644
G1 X96.059 Y106.684 E0.00643
G1 X95.918 Y106.428 E0.01284
G1 X95.846 Y106.146 E0.01284
G1 X95.837 Y106.000 E0.00643
G1 X95.846 Y105.854 E0.00643
G1 X95.918 Y105.572 E0.01284
G1 X96.059 Y105.316 E0.01284
G1 X96.152 Y105.204 E0.00643
G1 X96.258 Y105.104 E0.00644
G1 X96.505 Y104.947 E0.01284
G1 X96.641 Y104.894 E0.00644
G1 X96.927 Y104.839 E0.01284
G1 X97.073 Y104.839 E0.00643
G1 X97.359 Y104.894 E0.01284
G1 X97.495 Y104.947 E0.00644
G1 X97.742 Y105.104 E0.01284
G1 X97.941 Y105.316 E0.01284
G1 X98.053 Y105.512 E0.00994
G1 X97.670 Y105.735 F3600.000
G1 X97.721 Y106.000 F540.000 E0.01190
G1 X97.670 Y106.265 E0.01190
G1 X97.583 Y106.424 E0.00796
G1 X97.460 Y106.556 E0.00796
G1 X97.223 Y106.686 E0.01190
G1 X96.955 Y106.720 E0.01190
G1 X96.693 Y106.652 E0.01190
G1 X96.474 Y106.494 E0.01190
G1 X96.330 Y106.265 E0.01190
G1 X96.279 Y106.000 E0.01190
G1 X96.330 Y105.735 E0.01190
G1 X96.474 Y105.506 E0.01190
G1 X96.693 Y105.348 E0.01190
G1 X96.955 Y105.280 E0.01190
G1 X97.223 Y105.314 E0.01190
G1 X97.460 Y105.444 E0.01190
G1 X97.583 Y105.576 E0.00796
G1 X97.642 Y105.675 E0.00505
G1 X97.485 Y105.932 F3600.000
G1 F1800.000 E-1.00000
G1 X97.073 Y95.161 F3600.000
G1 F1800.000 E1.00000
G1 X96.927 Y95.161 F540.000 E0.00643
G1 X96.641 Y95.106 E0.01284
G1 X96.505 Y95.053 E0.00644
G1 X96.258 Y94.896 E0.01284
G1 X96.059 Y94.684 E0.01284
G1 X95.981 Y94.560 E0.00643
G1 X95.918 Y94.428 E0.00644
G1 X95.846 Y94.146 E0.01284
G1 X95.846 Y93.854 E0.01284
G1 X95.873 Y93.711 E0.00643
G1 X95.918 Y93.572 E0.00643
G1 X96.059 Y93.316 E0.01284
G1 X96.258 Y93.104 E0.01284
G1 X96.505 Y92.947 E0.01284
G1 X96.640 Y92.894 E0.00644
G1 X96.927 Y92.839 E0.01284
G1 X97.073 Y92.839 E0.00643
G1 X97.359 Y92.894 E0.01284
G1 X97.495 Y92.947 E0.00644
G1 X97.742 Y93.104 E0.01284
G1 X97.941 Y93.316 E0.01284
G1 X98.019 Y93.440 E0.00643
G1 X98.082 Y93.572 E0.00644
G1 X98.154 Y93.854 E0.01284
G1 X98.154 Y94.146 E0.01284
G1 X98.127 Y94.289 E0.00643
G1 X98.082 Y94.428 E0.00643
G1 X97.941 Y94.684 E0.01284
G1 X97.742 Y94.896 E0.01284
G1 X97.623 Y94.982 E0.00644
G1 X97.360 Y95.106 E0.01284
G1 X97.139 Y95.153 E0.00993
G1 X97.045 Y94.720 F3600.000
G1 X96.777 Y94.686 F540.000 E0.01190
G1 X96.540 Y94.556 E0.01190
G1 X96.368 Y94.347 E0.01190
G1 X96.285 Y94.090 E0.01190
G1 X96.302 Y93.821 E0.01190
G1 X96.417 Y93.576 E0.01190
G1 X96.540 Y93.444 E0.00796
G1 X96.693 Y93.348 E0.00796
G1 X96.955 Y93.280 E0.01190
G1 X97.223 Y93.314 E0.01190
G1 X97.460 Y93.444 E0.01190
G1 X97.632 Y93.653 E0.01190
G1 X97.715 Y93.910 E0.01190
G1 X97.698 Y94.179 E0.01190
G1 X97.583 Y94.424 E0.01190
G1 X97.386 Y94.609 E0.01190
G1 X97.223 Y94.686 E0.00796
G1 X97.111 Y94.711 E0.00505
G1 X96.915 Y94.483 F3600.000
G1 X96.927 Y95.839
G1 X97.218 Y95.857 F540.000 E0.01284
G1 X97.360 Y95.894 E0.00644
G1 X97.495 Y95.947 E0.00644
G1 X97.742 Y96.104 E0.01284
G1 X97.941 Y96.316 E0.01284
G1 X98.019 Y96.440 E0.00643
G1 X98.082 Y96.572 E0.00644
G1 X98.154 Y96.854 E0.01284
G1 X98.154 Y97.146 E0.01284
G1 X98.127 Y97.289 E0.00643
G1 X98.082 Y97.428 E0.00643
G1 X97.941 Y97.684 E0.01284
G1 X97.742 Y97.896 E0.01284
G1 X97.495 Y98.053 E0.01284
G1 X97.360 Y98.106 E0.00644
G1 X97.073 Y98.161 E0.01284
G1 X96.927 Y98.161 E0.00643
G1 X96.640 Y98.106 E0.01284
G1 X96.505 Y98.053 E0.00644
G1 X96.258 Y97.896 E0.01284
G1 X96.059 Y97.684 E0.01284
G1 X95.981 Y97.560 E0.00643
G1 X95.918 Y97.428 E0.00643
G1 X95.846 Y97.146 E0.01284
G1 X95.846 Y96.854 E0.01284
G1 X95.873 Y96.711 E0.00643
G1 X95.918 Y96.572 E0.00643
G1 X96.059 Y96.316 E0.01284
G1 X96.258 Y96.104 E0.01284
G1 X96.377 Y96.018 E0.00643
G1 X96.640 Y95.894 E0.01284
G1 X96.861 Y95.847 E0.00994
G1 X96.955 Y96.280 F3600.000
G1 X97.223 Y96.314 F540.000 E0.01190
G1 X97.460 Y96.444 E0.01190
G1 X97.632 Y96.653 E0.01190
G1 X97.715 Y96.910 E0.01190
G1 X97.698 Y97.179 E0.01190
G1 X97.583 Y97.424 E0.01190
G1 X97.460 Y97.556 E0.00796
G1 X97.307 Y97.652 E0.00796
G1 X97.045 Y97.720 E0.01190
G1 X96.777 Y97.686 E0.01190
G1 X96.540 Y97.556 E0.01190
G1 X96.368 Y97.347 E0.01190
G1 X96.285 Y97.090 E0.01190
G1 X96.302 Y96.821 E0.01190
G1 X96.417 Y96.576 E0.01190
G1 X96.614 Y96.391 E0.01190
G1 X96.777 Y96.314 E0.00796
G1 X96.889 Y96.289 E0.00505
G1 X97.085 Y96.517 F3600.000
G1 F1800.000 E-1.00000
G1 X92.302 Y99.252 F3600.000
G1 F1800.000 E1.00000
G1 X92.420 Y100.000 F540.000 E0.03335
G1 X92.302 Y100.748 E0.03335
G1 X91.958 Y101.423 E0.03335
G1 X91.423 Y101.958 E0.03335
G1 X90.748 Y102.302 E0.03335
G1 X90.000 Y102.420 E0.03335
G1 X89.252 Y102.302 E0.03335
G1 X88.577 Y101.958 E0.03335
G1 X88.042 Y101.423 E0.03335
G1 X87.698 Y100.748 E0.03335
G1 X87.580 Y100.000 E0.03335
G1 X87.698 Y99.252 E0.03335
G1 X88.042 Y98.577 E0.03335
G1 X88.577 Y98.042 E0.03335
G1 X89.252 Y97.698 E0.03335
G1 X90.000 Y97.580 E0.03335
G1 X90.748 Y97.698 E0.03335
G1 X91.423 Y98.042 E0.03335
G1 X91.958 Y98.577 E0.03335
G1 X92.272 Y99.193 E0.03043
G1 X91.877 Y99.390 F3600.000
G1 X91.973 Y100.000 F540.000 E0.02719
G1 X91.877 Y100.610 E0.02719
G1 X91.597 Y101.160 E0.02719
G1 X91.160 Y101.597 E0.02719
G1 X90.610 Y101.877 E0.02719
G1 X90.000 Y101.973 E0.02719
G1 X89.390 Y101.877 E0.02719
G1 X88.840 Y101.597 E0.02719
G1 X88.403 Y101.160 E0.02719
G1 X88.123 Y100.610 E0.02719
G1 X88.027 Y100.000 E0.02719
G1 X88.123 Y99.390 E0.02719
G1 X88.403 Y98.840 E0.02719
G1 X88.840 Y98.403 E0.02719
G1 X89.390 Y98.123 E0.02719
G1 X90.000 Y98.027 E0.02719
G1 X90.610 Y98.123 E0.02719
G1 X91.160 Y98.403 E0.02719
G1 X91.597 Y98.840 E0.02719
G1 X91.847 Y99.331 E0.02428
G1 X91.565 Y99.702 F3600.000
G1 F1800.000 E-1.00000
G1 X84.170 Y100.000 F3600.000
G1 F1800.000 E1.00000
G1 X84.113 Y100.362 F540.000 E0.01613
G1 X83.947 Y100.688 E0.01612
G1 X83.688 Y100.947 E0.01613
G1 X83.362 Y101.113 E0.01613
G1 X83.000 Y101.170 E0.01612
G1 X82.638 Y101.113 E0.01612
G1 X82.312 Y100.947 E0.01613
G1 X82.053 Y100.688 E0.01613
G1 X81.887 Y100.362 E0.01612
G1 X81.830 Y100.000 E0.01613
G1 X81.887 Y99.638 E0.01613
G1 X82.053 Y99.312 E0.01612
G1 X82.312 Y99.053 E0.01613
G1 X82.638 Y98.887 E0.01613
G1 X83.000 Y98.830 E0.01612
G1 X83.362 Y98.887 E0.01612
G1 X83.688 Y99.053 E0.01613
G1 X83.947 Y99.312 E0.01613
G1 X84.113 Y99.638 E0.01612
G1 X84.160 Y99.935 E0.01321
G1 X83.723 Y100.000 F3600.000
G1 X83.688 Y100.224 F540.000 E0.00997
G1 X83.585 Y100.425 E0.00997
G1 X83.425 Y100.585 E0.00997
G1 X83.224 Y100.688 E0.00997
G1 X83.000 Y100.723 E0.00997
G1 X82.776 Y100.688 E0.00997
G1 X82.575 Y100.585 E0.00997
G1 X82.415 Y100.425 E0.00997
G1 X82.312 Y100.224 E0.00997
G1 X82.277 Y100.000 E0.00997
G1 X82.312 Y99.776 E0.00997
G1 X82.415 Y99.575 E0.00997
G1 X82.575 Y99.415 E0.00997
G1 X82.776 Y99.312 E0.00997
G1 X83.000 Y99.277 E0.00997
G1 X83.224 Y99.312 E0.00997
G1 X83.425 Y99.415 E0.00997
G1 X83.585 Y99.575 E0.00997
G1 X83.688 Y99.776 E0.00997
G1 X83.713 Y99.935 E0.00705
G1 X83.522 Y100.103 F3600.000
G1 F1800.000 E-1.00000
G1 X79.923 Y105.042 F3600.000
G1 F1800.000 E1.00000
G1 X80.458 Y105.577 F540.000 E0.03335
G1 X80.802 Y106.252 E0.03335
G1 X80.920 Y107.000 E0.03335
G1 X80.802 Y107.748 E0.03335
G1 X80.458 Y108.423 E0.03335
G1 X79.923 Y108.958 E0.03335
G1 X79.248 Y109.302 E0.03335
